vineef/FanucJournal/data_trajectory.csv
Time,Jerk,Acceleration,Velocity,Position,J1,J2,J3,J4,J5,J6
0.000,0,0.000,0.000,0.000,-32.28,29.53,-53.57,-57.17,39.45,50.12
0.001,1000,0.730,0.000,0.000,-32.28,29.53,-53.57,-57.17,39.45,50.12
0.002,1000,1.630,0.000,0.000,-32.28,29.53,-53.57,-57.17,39.45,50.12
0.003,1000,2.550,0.000,0.000,-32.28,29.53,-53.57,-57.17,39.45,50.12
0.004,1000,3.700,0.010,0.000,-32.28,29.53,-53.57,-57.17,39.45,50.12
0.005,1000,4.590,0.010,0.000,-32.28,29.53,-53.57,-57.17,39.45,50.12
0.006,1000,5.740,0.020,0.000,-32.28,29.53,-53.57,-57.17,39.45,50.12
0.007,1000,6.630,0.020,0.000,-32.28,29.53,-53.57,-57.17,39.45,50.12
0.008,1000,7.760,0.030,0.000,-32.28,29.53,-53.57,-57.17,39.45,50.12
0.009,1000,8.650,0.040,0.000,-32.28,29.53,-53.57,-57.17,39.45,50.12
0.010,1000,9.550,0.050,0.000,-32.28,29.53,-53.57,-57.17,39.45,50.12
0.011,1000,10.690,0.060,0.000,-32.28,29.53,-53.57,-57.17,39.45,50.12
0.012,1000,11.590,0.070,0.000,-32.28,29.53,-53.57,-57.17,39.45,50.12
0.013,1000,12.710,0.080,0.000,-32.28,29.53,-53.57,-57.17,39.45,50.12
0.014,1000,13.620,0.090,0.000,-32.28,29.53,-53.57,-57.17,39.45,50.12
0.015,1000,14.750,0.110,0.000,-32.28,29.53,-53.57,-57.17,39.45,50.12
0.016,1000,15.640,0.120,0.000,-32.28,29.53,-53.57,-57.17,39.45,50.12
0.017,1000,16.750,0.140,0.000,-32.28,29.53,-53.57,-57.17,39.45,50.12
0.018,1000,17.640,0.160,0.000,-32.28,29.53,-53.57,-57.17,39.45,50.12
0.019,1000,18.760,0.180,0.000,-32.28,29.53,-53.57,-57.17,39.45,50.12
0.020,1000,19.680,0.190,0.000,-32.28,29.53,-53.57,-57.17,39.45,50.12
0.021,1000,20.580,0.210,0.000,-32.28,29.53,-53.57,-57.17,39.45,50.12
0.022,1000,21.730,0.240,0.000,-32.28,29.53,-53.57,-57.17,39.45,50.12
0.023,1000,22.620,0.260,0.000,-32.28,29.53,-53.57,-57.17,39.45,50.12
0.024,1000,23.770,0.280,0.000,-32.28,29.53,-53.57,-57.17,39.45,50.12
0.025,1000,24.690,0.300,0.000,-32.28,29.53,-53.57,-57.17,39.45,50.12
0.026,1000,25.800,0.330,0.000,-32.28,29.53,-53.57,-57.17,39.45,50.12
0.027,1000,26.720,0.360,0.000,-32.28,29.53,-53.57,-57.17,39.45,50.12
0.028,1000,27.610,0.380,0.000,-32.28,29.53,-53.57,-57.17,39.45,50.12
0.029,1000,28.750,0.410,0.000,-32.28,29.53,-53.57,-57.17,39.45,50.12
0.030,1000,29.630,0.440,0.000,-32.28,29.53,-53.57,-57.17,39.45,50.12
0.031,1000,30.760,0.470,0.000,-32.28,29.53,-53.57,-57.17,39.45,50.12
0.032,1000,31.670,0.500,0.010,-32.28,29.53,-53.57,-57.17,39.45,50.12
0.033,1000,32.790,0.540,0.010,-32.28,29.53,-53.57,-57.17,39.45,50.12
0.034,1000,33.700,0.570,0.010,-32.28,29.53,-53.57,-57.17,39.45,50.12
0.035,1000,34.610,0.600,0.010,-32.28,29.53,-53.57,-57.17,39.45,50.12
0.036,1000,35.740,0.640,0.010,-32.28,29.53,-53.57,-57.17,39.45,50.12
0.037,1000,36.620,0.670,0.010,-32.28,29.53,-53.57,-57.17,39.45,50.12
0.038,1000,37.770,0.710,0.010,-32.28,29.53,-53.57,-57.17,39.45,50.12
0.039,1000,38.680,0.750,0.010,-32.28,29.53,-53.57,-57.17,39.45,50.12
0.040,1000,39.800,0.790,0.010,-32.28,29.53,-53.57,-57.17,39.45,50.12
0.041,1000,40.700,0.830,0.010,-32.28,29.53,-53.57,-57.17,39.45,50.12
0.042,1000,41.820,0.870,0.010,-32.28,29.53,-53.57,-57.17,39.45,50.12
0.043,1000,42.730,0.910,0.010,-32.28,29.53,-53.57,-57.17,39.45,50.12
0.044,1000,43.620,0.950,0.010,-32.28,29.53,-53.57,-57.17,39.45,50.12
0.045,1000,44.740,1.000,0.010,-32.28,29.53,-53.57,-57.17,39.45,50.12
0.046,1000,45.630,1.040,0.020,-32.27,29.53,-53.57,-57.17,39.45,50.12
0.047,1000,46.750,1.090,0.020,-32.27,29.53,-53.57,-57.17,39.45,50.12
0.048,1000,47.630,1.130,0.020,-32.27,29.53,-53.57,-57.17,39.45,50.12
0.049,1000,48.760,1.190,0.020,-32.27,29.53,-53.57,-57.17,39.45,50.12
0.050,1000,49.650,1.230,0.020,-32.27,29.53,-53.57,-57.17,39.45,50.12
0.051,1000,50.780,1.290,0.020,-32.27,29.53,-53.57,-57.17,39.45,50.12
0.052,1000,51.680,1.340,0.020,-32.27,29.53,-53.57,-57.17,39.45,50.12
0.053,1000,52.800,1.390,0.020,-32.27,29.53,-53.57,-57.17,39.45,50.12
0.054,1000,53.700,1.440,0.030,-32.27,29.53,-53.58,-57.17,39.45,50.12
0.055,1000,54.800,1.500,0.030,-32.27,29.53,-53.58,-57.17,39.45,50.12
0.056,1000,55.700,1.550,0.030,-32.27,29.53,-53.58,-57.17,39.45,50.12
0.057,1000,56.820,1.610,0.030,-32.27,29.53,-53.58,-57.17,39.45,50.12
0.058,1000,57.710,1.670,0.030,-32.27,29.53,-53.58,-57.17,39.45,50.12
0.059,1000,58.830,1.730,0.030,-32.27,29.53,-53.58,-57.17,39.45,50.12
0.060,1000,59.730,1.780,0.040,-32.27,29.53,-53.58,-57.17,39.45,50.12
0.061,1000,60.630,1.840,0.040,-32.27,29.53,-53.58,-57.17,39.45,50.12
0.062,1000,61.750,1.910,0.040,-32.27,29.53,-53.58,-57.17,39.45,50.12
0.063,1000,62.670,1.960,0.040,-32.27,29.53,-53.58,-57.17,39.45,50.12
0.064,1000,63.810,2.040,0.040,-32.27,29.53,-53.58,-57.17,39.45,50.12
0.065,1000,64.740,2.100,0.050,-32.27,29.53,-53.58,-57.17,39.45,50.12
0.066,1000,65.630,2.150,0.050,-32.27,29.53,-53.58,-57.17,39.45,50.12
0.067,1000,66.760,2.230,0.050,-32.27,29.53,-53.58,-57.17,39.45,50.12
0.068,1000,67.670,2.290,0.050,-32.27,29.53,-53.58,-57.17,39.45,50.12
0.069,1000,68.800,2.370,0.050,-32.27,29.53,-53.58,-57.17,39.45,50.12
0.070,1000,69.710,2.430,0.060,-32.27,29.53,-53.58,-57.17,39.45,50.12
0.071,1000,70.840,2.510,0.060,-32.27,29.53,-53.58,-57.17,39.45,50.12
0.072,1000,71.750,2.570,0.060,-32.27,29.53,-53.58,-57.17,39.45,50.12
0.073,1000,72.630,2.640,0.060,-32.27,29.53,-53.58,-57.17,39.45,50.12
0.074,1000,73.770,2.720,0.070,-32.27,29.53,-53.58,-57.17,39.45,50.12
0.075,1000,74.660,2.790,0.070,-32.27,29.53,-53.58,-57.17,39.45,50.12
0.076,1000,75.800,2.870,0.070,-32.27,29.53,-53.58,-57.17,39.45,50.12
0.077,1000,76.680,2.940,0.080,-32.27,29.53,-53.58,-57.17,39.45,50.12
0.078,1000,77.810,3.030,0.080,-32.27,29.53,-53.58,-57.17,39.45,50.12
0.079,1000,78.680,3.100,0.080,-32.27,29.53,-53.58,-57.17,39.45,50.12
0.080,1000,79.810,3.180,0.080,-32.27,29.53,-53.58,-57.17,39.45,50.12
0.081,1000,80.700,3.260,0.090,-32.27,29.53,-53.58,-57.17,39.45,50.12
0.082,1000,81.810,3.350,0.090,-32.27,29.54,-53.58,-57.17,39.45,50.12
0.083,1000,82.700,3.420,0.090,-32.27,29.54,-53.58,-57.17,39.45,50.12
0.084,1000,83.820,3.510,0.100,-32.27,29.54,-53.58,-57.17,39.45,50.12
0.085,1000,84.710,3.590,0.100,-32.27,29.54,-53.58,-57.17,39.45,50.12
0.086,1000,85.820,3.680,0.110,-32.27,29.54,-53.58,-57.17,39.45,50.12
0.087,1000,86.710,3.760,0.110,-32.27,29.54,-53.58,-57.17,39.45,50.12
0.088,1000,87.820,3.860,0.110,-32.27,29.54,-53.58,-57.17,39.45,50.12
0.089,1000,88.690,3.930,0.120,-32.27,29.54,-53.58,-57.17,39.45,50.12
0.090,1000,89.810,4.030,0.120,-32.27,29.54,-53.58,-57.17,39.45,50.12
0.091,1000,90.710,4.110,0.120,-32.27,29.54,-53.58,-57.17,39.45,50.12
0.092,1000,91.830,4.220,0.130,-32.27,29.54,-53.58,-57.17,39.45,50.12
0.093,1000,92.710,4.300,0.130,-32.27,29.54,-53.58,-57.17,39.45,50.12
0.094,1000,93.830,4.400,0.140,-32.27,29.54,-53.58,-57.17,39.45,50.12
0.095,1000,94.730,4.490,0.140,-32.27,29.54,-53.58,-57.17,39.45,50.12
0.096,1000,95.840,4.590,0.150,-32.27,29.54,-53.58,-57.17,39.45,50.12
0.097,1000,96.730,4.680,0.150,-32.27,29.54,-53.58,-57.17,39.45,50.12
0.098,1000,97.870,4.790,0.160,-32.27,29.54,-53.58,-57.17,39.45,50.12
0.099,1000,98.780,4.880,0.160,-32.27,29.54,-53.58,-57.17,39.45,50.12
0.100,1000,99.690,4.970,0.170,-32.27,29.54,-53.58,-57.17,39.45,50.12
0.101,1000,100.810,5.080,0.170,-32.27,29.54,-53.58,-57.17,39.45,50.12
0.102,1000,101.720,5.170,0.180,-32.27,29.54,-53.58,-57.17,39.45,50.12
0.103,1000,102.850,5.290,0.180,-32.27,29.54,-53.58,-57.17,39.45,50.12
0.104,1000,103.780,5.380,0.190,-32.27,29.54,-53.58,-57.17,39.45,50.12
0.105,1000,104.900,5.500,0.190,-32.27,29.54,-53.58,-57.17,39.45,50.12
0.106,1000,105.770,5.590,0.200,-32.27,29.54,-53.58,-57.17,39.45,50.12
0.107,1000,106.690,5.690,0.200,-32.27,29.54,-53.58,-57.17,39.45,50.12
0.108,1000,107.810,5.810,0.210,-32.27,29.54,-53.58,-57.17,39.45,50.12
0.109,1000,108.720,5.910,0.210,-32.27,29.54,-53.58,-57.17,39.45,50.12
0.110,1000,109.850,6.030,0.220,-32.27,29.54,-53.58,-57.17,39.45,50.12
0.111,1000,110.750,6.130,0.230,-32.27,29.54,-53.58,-57.17,39.44,50.12
0.112,1000,111.870,6.260,0.230,-32.27,29.54,-53.58,-57.17,39.44,50.12
0.113,1000,112.780,6.360,0.240,-32.27,29.54,-53.58,-57.17,39.44,50.12
0.114,1000,113.890,6.490,0.250,-32.27,29.54,-53.58,-57.17,39.44,50.12
0.115,1000,114.780,6.590,0.250,-32.26,29.54,-53.58,-57.17,39.44,50.12
0.116,1000,115.900,6.720,0.260,-32.26,29.54,-53.58,-57.17,39.44,50.12
0.117,1000,116.780,6.820,0.270,-32.26,29.54,-53.58,-57.17,39.44,50.12
0.118,1000,117.700,6.930,0.270,-32.26,29.54,-53.58,-57.17,39.44,50.12
0.119,1000,118.840,7.060,0.280,-32.26,29.54,-53.58,-57.17,39.44,50.12
0.120,1000,119.730,7.170,0.290,-32.26,29.54,-53.58,-57.17,39.44,50.12
0.121,1000,120.860,7.300,0.290,-32.26,29.54,-53.58,-57.17,39.44,50.12
0.122,1000,121.760,7.410,0.300,-32.26,29.54,-53.58,-57.17,39.44,50.12
0.123,1000,122.890,7.550,0.310,-32.26,29.54,-53.58,-57.17,39.44,50.12
0.124,1000,123.830,7.670,0.320,-32.26,29.55,-53.58,-57.17,39.44,50.12
0.125,1000,124.730,7.780,0.320,-32.26,29.55,-53.58,-57.17,39.44,50.12
0.126,1000,125.870,7.920,0.330,-32.26,29.55,-53.58,-57.16,39.44,50.12
0.127,1000,126.760,8.030,0.340,-32.26,29.55,-53.58,-57.16,39.44,50.12
0.128,1000,127.890,8.180,0.350,-32.26,29.55,-53.58,-57.16,39.44,50.12
0.129,1000,128.790,8.290,0.360,-32.26,29.55,-53.58,-57.16,39.44,50.12
0.130,1000,129.930,8.440,0.370,-32.26,29.55,-53.58,-57.16,39.44,50.12
0.131,1000,130.850,8.560,0.370,-32.26,29.55,-53.59,-57.16,39.44,50.12
0.132,1000,131.750,8.680,0.380,-32.26,29.55,-53.59,-57.16,39.44,50.12
0.133,1000,132.870,8.830,0.390,-32.26,29.55,-53.59,-57.16,39.44,50.12
0.134,1000,133.760,8.950,0.400,-32.26,29.55,-53.59,-57.16,39.44,50.12
0.135,1000,134.890,9.100,0.410,-32.26,29.55,-53.59,-57.16,39.44,50.12
0.136,1000,135.780,9.220,0.420,-32.26,29.55,-53.59,-57.16,39.44,50.12
0.137,1000,136.930,9.370,0.430,-32.26,29.55,-53.59,-57.16,39.44,50.12
0.138,1000,137.830,9.500,0.440,-32.26,29.55,-53.59,-57.16,39.44,50.12
0.139,1000,138.720,9.620,0.440,-32.26,29.55,-53.59,-57.16,39.44,50.12
0.140,1000,139.890,9.780,0.460,-32.26,29.55,-53.59,-57.16,39.44,50.12
0.141,1000,140.800,9.910,0.470,-32.26,29.55,-53.59,-57.16,39.43,50.12
0.142,1000,141.930,10.070,0.480,-32.26,29.55,-53.59,-57.16,39.43,50.12
0.143,1000,142.850,10.200,0.490,-32.25,29.55,-53.59,-57.16,39.43,50.12
0.144,1000,143.760,10.330,0.500,-32.25,29.55,-53.59,-57.16,39.43,50.12
0.145,1000,144.880,10.500,0.510,-32.25,29.55,-53.59,-57.16,39.43,50.12
0.146,1000,145.800,10.630,0.520,-32.25,29.55,-53.59,-57.16,39.43,50.12
0.147,1000,146.920,10.790,0.530,-32.25,29.55,-53.59,-57.16,39.43,50.12
0.148,1000,147.810,10.920,0.540,-32.25,29.55,-53.59,-57.16,39.43,50.12
0.149,1000,148.940,11.090,0.550,-32.25,29.56,-53.59,-57.16,39.43,50.11
0.150,1000,149.850,11.230,0.560,-32.25,29.56,-53.59,-57.16,39.43,50.11
0.151,1000,150.730,11.360,0.570,-32.25,29.56,-53.59,-57.16,39.43,50.11
0.152,1000,151.880,11.530,0.580,-32.25,29.56,-53.59,-57.16,39.43,50.11
0.153,1000,152.780,11.670,0.590,-32.25,29.56,-53.59,-57.16,39.43,50.11
0.154,1000,153.920,11.850,0.610,-32.25,29.56,-53.59,-57.16,39.43,50.11
0.155,1000,154.850,11.990,0.620,-32.25,29.56,-53.59,-57.16,39.43,50.11
0.156,1000,155.750,12.130,0.630,-32.25,29.56,-53.59,-57.16,39.43,50.11
0.157,1000,156.880,12.310,0.640,-32.25,29.56,-53.59,-57.16,39.43,50.11
0.158,1000,157.780,12.450,0.650,-32.25,29.56,-53.59,-57.16,39.43,50.11
0.159,1000,158.900,12.630,0.670,-32.25,29.56,-53.59,-57.16,39.43,50.11
0.160,1000,159.820,12.770,0.680,-32.25,29.56,-53.59,-57.16,39.43,50.11
0.161,1000,160.950,12.950,0.690,-32.25,29.56,-53.59,-57.15,39.43,50.11
0.162,1000,161.850,13.100,0.710,-32.25,29.56,-53.6,-57.15,39.43,50.11
0.163,1000,162.960,13.280,0.720,-32.24,29.56,-53.6,-57.15,39.42,50.11
0.164,1000,163.870,13.430,0.730,-32.24,29.56,-53.6,-57.15,39.42,50.11
0.165,1000,164.760,13.570,0.750,-32.24,29.56,-53.6,-57.15,39.42,50.11
0.166,1000,165.890,13.760,0.760,-32.24,29.56,-53.6,-57.15,39.42,50.11
0.167,1000,166.800,13.910,0.770,-32.24,29.57,-53.6,-57.15,39.42,50.11
0.168,1000,167.900,14.100,0.790,-32.24,29.57,-53.6,-57.15,39.42,50.11
0.169,1000,168.830,14.250,0.800,-32.24,29.57,-53.6,-57.15,39.42,50.11
0.170,1000,169.940,14.440,0.820,-32.24,29.57,-53.6,-57.15,39.42,50.11
0.171,1000,170.850,14.590,0.830,-32.24,29.57,-53.6,-57.15,39.42,50.11
0.172,1000,171.970,14.790,0.850,-32.24,29.57,-53.6,-57.15,39.42,50.11
0.173,1000,172.880,14.940,0.860,-32.24,29.57,-53.6,-57.15,39.42,50.11
0.174,1000,173.770,15.100,0.870,-32.24,29.57,-53.6,-57.15,39.42,50.11
0.175,1000,174.890,15.290,0.890,-32.24,29.57,-53.6,-57.15,39.42,50.11
0.176,1000,175.780,15.450,0.910,-32.24,29.57,-53.6,-57.15,39.42,50.11
0.177,1000,176.910,15.650,0.920,-32.24,29.57,-53.6,-57.15,39.42,50.11
0.178,1000,177.810,15.810,0.940,-32.24,29.57,-53.6,-57.15,39.42,50.11
0.179,1000,178.920,16.010,0.950,-32.23,29.57,-53.6,-57.15,39.41,50.11
0.180,1000,179.810,16.170,0.970,-32.23,29.57,-53.6,-57.15,39.41,50.11
0.181,1000,180.920,16.370,0.990,-32.23,29.57,-53.6,-57.15,39.41,50.11
0.182,1000,181.820,16.530,1.000,-32.23,29.58,-53.6,-57.15,39.41,50.11
0.183,1000,182.950,16.730,1.020,-32.23,29.58,-53.6,-57.15,39.41,50.11
0.184,1000,183.820,16.900,1.040,-32.23,29.58,-53.6,-57.15,39.41,50.11
0.185,1000,184.950,17.100,1.050,-32.23,29.58,-53.61,-57.14,39.41,50.11
0.186,1000,185.830,17.270,1.070,-32.23,29.58,-53.61,-57.14,39.41,50.11
0.187,1000,186.940,17.470,1.090,-32.23,29.58,-53.61,-57.14,39.41,50.11
0.188,1000,187.820,17.640,1.100,-32.23,29.58,-53.61,-57.14,39.41,50.11
0.189,1000,188.930,17.850,1.120,-32.23,29.58,-53.61,-57.14,39.41,50.11
0.190,1000,189.820,18.020,1.140,-32.23,29.58,-53.61,-57.14,39.41,50.11
0.191,1000,190.980,18.240,1.160,-32.23,29.58,-53.61,-57.14,39.41,50.11
0.192,1000,191.890,18.410,1.180,-32.22,29.58,-53.61,-57.14,39.41,50.11
0.193,1000,192.800,18.590,1.190,-32.22,29.58,-53.61,-57.14,39.4,50.11
0.194,1000,193.940,18.810,1.220,-32.22,29.59,-53.61,-57.14,39.4,50.11
0.195,1000,194.840,18.980,1.230,-32.22,29.59,-53.61,-57.14,39.4,50.11
0.196,1000,195.970,19.200,1.250,-32.22,29.59,-53.61,-57.14,39.4,50.11
0.197,1000,196.890,19.380,1.270,-32.22,29.59,-53.61,-57.14,39.4,50.11
0.198,1000,198.010,19.600,1.290,-32.22,29.59,-53.61,-57.14,39.4,50.1
0.199,1000,198.940,19.790,1.310,-32.22,29.59,-53.61,-57.14,39.4,50.1
0.200,1000,199.830,19.970,1.330,-32.22,29.59,-53.61,-57.14,39.4,50.1
0.201,1000,200.960,20.190,1.350,-32.22,29.59,-53.61,-57.14,39.4,50.1
0.202,1000,201.850,20.370,1.370,-32.22,29.59,-53.61,-57.14,39.4,50.1
0.203,1000,202.990,20.600,1.390,-32.22,29.59,-53.62,-57.14,39.4,50.1
0.204,1000,203.910,20.790,1.410,-32.21,29.59,-53.62,-57.13,39.4,50.1
0.205,1000,204.800,20.970,1.430,-32.21,29.59,-53.62,-57.13,39.39,50.1
0.206,1000,205.940,21.210,1.460,-32.21,29.6,-53.62,-57.13,39.39,50.1
0.207,1000,206.830,21.390,1.470,-32.21,29.6,-53.62,-57.13,39.39,50.1
0.208,1000,207.960,21.620,1.500,-32.21,29.6,-53.62,-57.13,39.39,50.1
0.209,1000,208.860,21.810,1.520,-32.21,29.6,-53.62,-57.13,39.39,50.1
0.210,1000,210.000,22.050,1.540,-32.21,29.6,-53.62,-57.13,39.39,50.1
0.211,1000,210.920,22.240,1.560,-32.21,29.6,-53.62,-57.13,39.39,50.1
0.212,1000,212.030,22.480,1.590,-32.21,29.6,-53.62,-57.13,39.39,50.1
0.213,1000,212.930,22.670,1.610,-32.21,29.6,-53.62,-57.13,39.39,50.1
0.214,1000,213.830,22.860,1.630,-32.21,29.6,-53.62,-57.13,39.39,50.1
0.215,1000,214.960,23.100,1.660,-32.2,29.6,-53.62,-57.13,39.39,50.1
0.216,1000,215.880,23.300,1.680,-32.2,29.61,-53.62,-57.13,39.38,50.1
0.217,1000,217.000,23.540,1.700,-32.2,29.61,-53.62,-57.13,39.38,50.1
0.218,1000,217.900,23.740,1.720,-32.2,29.61,-53.62,-57.13,39.38,50.1
0.219,1000,219.020,23.980,1.750,-32.2,29.61,-53.63,-57.13,39.38,50.1
0.220,1000,219.940,24.190,1.770,-32.2,29.61,-53.63,-57.12,39.38,50.1
0.221,1000,220.830,24.380,1.790,-32.2,29.61,-53.63,-57.12,39.38,50.1
0.222,1000,221.970,24.640,1.820,-32.2,29.61,-53.63,-57.12,39.38,50.1
0.223,1000,222.870,24.830,1.840,-32.2,29.61,-53.63,-57.12,39.38,50.1
0.224,1000,224.000,25.090,1.870,-32.19,29.61,-53.63,-57.12,39.38,50.1
0.225,1000,224.930,25.300,1.900,-32.19,29.62,-53.63,-57.12,39.38,50.1
0.226,1000,225.830,25.500,1.920,-32.19,29.62,-53.63,-57.12,39.37,50.1
0.227,1000,226.960,25.760,1.950,-32.19,29.62,-53.63,-57.12,39.37,50.1
0.228,1000,227.870,25.960,1.970,-32.19,29.62,-53.63,-57.12,39.37,50.1
0.229,1000,229.020,26.220,2.000,-32.19,29.62,-53.63,-57.12,39.37,50.1
0.230,1000,229.930,26.430,2.030,-32.19,29.62,-53.63,-57.12,39.37,50.09
0.231,1000,230.820,26.640,2.050,-32.19,29.62,-53.63,-57.12,39.37,50.09
0.232,1000,231.950,26.900,2.080,-32.19,29.62,-53.64,-57.12,39.37,50.09
0.233,1000,232.850,27.110,2.100,-32.18,29.62,-53.64,-57.12,39.37,50.09
0.234,1000,233.970,27.370,2.130,-32.18,29.63,-53.64,-57.11,39.37,50.09
0.235,1000,234.900,27.590,2.160,-32.18,29.63,-53.64,-57.11,39.36,50.09
0.236,1000,236.030,27.850,2.190,-32.18,29.63,-53.64,-57.11,39.36,50.09
0.237,1000,236.950,28.070,2.220,-32.18,29.63,-53.64,-57.11,39.36,50.09
0.238,1000,238.060,28.340,2.250,-32.18,29.63,-53.64,-57.11,39.36,50.09
0.239,1000,238.960,28.550,2.270,-32.18,29.63,-53.64,-57.11,39.36,50.09
0.240,1000,239.870,28.770,2.300,-32.18,29.63,-53.64,-57.11,39.36,50.09
0.241,1000,241.000,29.040,2.330,-32.17,29.63,-53.64,-57.11,39.36,50.09
0.242,1000,241.890,29.260,2.360,-32.17,29.64,-53.64,-57.11,39.36,50.09
0.243,1000,243.040,29.530,2.390,-32.17,29.64,-53.64,-57.11,39.36,50.09
0.244,1000,243.960,29.760,2.420,-32.17,29.64,-53.65,-57.11,39.35,50.09
0.245,1000,244.880,29.980,2.450,-32.17,29.64,-53.65,-57.11,39.35,50.09
0.246,1000,246.010,30.260,2.480,-32.17,29.64,-53.65,-57.1,39.35,50.09
0.247,1000,246.900,30.480,2.510,-32.17,29.64,-53.65,-57.1,39.35,50.09
0.248,1000,248.040,30.760,2.540,-32.17,29.64,-53.65,-57.1,39.35,50.09
0.249,1000,248.950,30.990,2.570,-32.16,29.65,-53.65,-57.1,39.35,50.09
0.250,1000,249.840,31.210,2.600,-32.16,29.65,-53.65,-57.1,39.35,50.09
0.251,1000,251.000,31.500,2.640,-32.16,29.65,-53.65,-57.1,39.35,50.09
0.252,1000,251.900,31.730,2.660,-32.16,29.65,-53.65,-57.1,39.34,50.09
0.253,1000,253.020,32.010,2.700,-32.16,29.65,-53.65,-57.1,39.34,50.09
0.254,1000,253.910,32.240,2.730,-32.16,29.65,-53.65,-57.1,39.34,50.09
0.255,1000,255.050,32.530,2.770,-32.16,29.65,-53.66,-57.1,39.34,50.08
0.256,1000,255.970,32.760,2.800,-32.15,29.66,-53.66,-57.1,39.34,50.08
0.257,1000,256.870,32.990,2.820,-32.15,29.66,-53.66,-57.09,39.34,50.08
0.258,1000,258.000,33.280,2.860,-32.15,29.66,-53.66,-57.09,39.34,50.08
0.259,1000,258.920,33.520,2.890,-32.15,29.66,-53.66,-57.09,39.33,50.08
0.260,1000,260.050,33.810,2.930,-32.15,29.66,-53.66,-57.09,39.33,50.08
0.261,1000,260.980,34.050,2.960,-32.15,29.66,-53.66,-57.09,39.33,50.08
0.262,1000,261.860,34.280,2.990,-32.15,29.66,-53.66,-57.09,39.33,50.08
0.263,1000,263.010,34.590,3.030,-32.14,29.67,-53.66,-57.09,39.33,50.08
0.264,1000,263.930,34.830,3.060,-32.14,29.67,-53.66,-57.09,39.33,50.08
0.265,1000,265.060,35.130,3.100,-32.14,29.67,-53.67,-57.09,39.33,50.08
0.266,1000,265.990,35.380,3.140,-32.14,29.67,-53.67,-57.09,39.32,50.08
0.267,1000,266.900,35.620,3.170,-32.14,29.67,-53.67,-57.09,39.32,50.08
0.268,1000,268.040,35.920,3.210,-32.14,29.67,-53.67,-57.08,39.32,50.08
0.269,1000,268.950,36.170,3.240,-32.14,29.68,-53.67,-57.08,39.32,50.08
0.270,1000,270.110,36.480,3.280,-32.13,29.68,-53.67,-57.08,39.32,50.08
0.271,1000,271.010,36.720,3.320,-32.13,29.68,-53.67,-57.08,39.32,50.08
0.272,1000,271.910,36.970,3.350,-32.13,29.68,-53.67,-57.08,39.32,50.08
0.273,1000,273.030,37.270,3.390,-32.13,29.68,-53.67,-57.08,39.31,50.08
0.274,1000,273.940,37.520,3.430,-32.13,29.68,-53.67,-57.08,39.31,50.08
0.275,1000,275.050,37.830,3.470,-32.13,29.69,-53.68,-57.08,39.31,50.08
0.276,1000,275.970,38.080,3.500,-32.12,29.69,-53.68,-57.08,39.31,50.07
0.277,1000,277.120,38.400,3.550,-32.12,29.69,-53.68,-57.07,39.31,50.07
0.278,1000,278.020,38.650,3.580,-32.12,29.69,-53.68,-57.07,39.31,50.07
0.279,1000,278.940,38.900,3.620,-32.12,29.69,-53.68,-57.07,39.3,50.07
0.280,1000,280.070,39.220,3.660,-32.12,29.69,-53.68,-57.07,39.3,50.07
0.281,1000,280.980,39.480,3.700,-32.12,29.7,-53.68,-57.07,39.3,50.07
0.282,1000,281.870,39.730,3.730,-32.11,29.7,-53.68,-57.07,39.3,50.07
0.283,1000,283.060,40.060,3.780,-32.11,29.7,-53.68,-57.07,39.3,50.07
0.284,1000,283.970,40.320,3.820,-32.11,29.7,-53.69,-57.07,39.3,50.07
0.285,1000,285.130,40.650,3.860,-32.11,29.7,-53.69,-57.07,39.29,50.07
0.286,1000,286.030,40.910,3.900,-32.11,29.7,-53.69,-57.06,39.29,50.07
0.287,1000,286.920,41.160,3.940,-32.11,29.71,-53.69,-57.06,39.29,50.07
0.288,1000,288.050,41.490,3.980,-32.1,29.71,-53.69,-57.06,39.29,50.07
0.289,1000,288.950,41.740,4.020,-32.1,29.71,-53.69,-57.06,39.29,50.07
0.290,1000,290.110,42.080,4.070,-32.1,29.71,-53.69,-57.06,39.29,50.07
0.291,1000,291.020,42.350,4.110,-32.1,29.71,-53.69,-57.06,39.28,50.07
0.292,1000,291.910,42.600,4.160,-32.1,29.72,-53.7,-57.06,39.28,50.07
0.293,1000,293.050,42.940,4.190,-32.09,29.72,-53.7,-57.06,39.28,50.07
0.294,1000,293.950,43.200,4.230,-32.09,29.72,-53.7,-57.06,39.28,50.06
0.295,1000,295.110,43.550,4.280,-32.09,29.72,-53.7,-57.05,39.28,50.06
0.296,1000,296.040,43.820,4.320,-32.09,29.72,-53.7,-57.05,39.28,50.06
0.297,1000,296.920,44.080,4.360,-32.09,29.73,-53.7,-57.05,39.27,50.06
0.298,1000,298.060,44.420,4.410,-32.08,29.73,-53.7,-57.05,39.27,50.06
0.299,1000,298.970,44.690,4.450,-32.08,29.73,-53.7,-57.05,39.27,50.06
0.300,1000,300.110,45.030,4.500,-32.08,29.73,-53.71,-57.05,39.27,50.06
0.301,1000,301.010,45.300,4.550,-32.08,29.73,-53.71,-57.05,39.27,50.06
0.302,1000,302.150,45.650,4.600,-32.08,29.74,-53.71,-57.05,39.26,50.06
0.303,1000,303.050,45.920,4.640,-32.08,29.74,-53.71,-57.04,39.26,50.06
0.304,1000,303.960,46.200,4.680,-32.07,29.74,-53.71,-57.04,39.26,50.06
0.305,1000,305.100,46.540,4.730,-32.07,29.74,-53.71,-57.04,39.26,50.06
0.306,1000,306.010,46.820,4.780,-32.07,29.74,-53.71,-57.04,39.26,50.06
0.307,1000,307.150,47.170,4.830,-32.07,29.75,-53.72,-57.04,39.25,50.06
0.308,1000,308.070,47.450,4.870,-32.07,29.75,-53.72,-57.04,39.25,50.06
0.309,1000,308.940,47.720,4.910,-32.06,29.75,-53.72,-57.04,39.25,50.06
0.310,1000,310.070,48.070,4.970,-32.06,29.75,-53.72,-57.03,39.25,50.05
0.311,1000,310.950,48.350,5.010,-32.06,29.75,-53.72,-57.03,39.25,50.05
0.312,1000,312.110,48.710,5.070,-32.06,29.76,-53.72,-57.03,39.24,50.05
0.313,1000,313.000,48.980,5.110,-32.05,29.76,-53.72,-57.03,39.24,50.05
0.314,1000,314.140,49.340,5.170,-32.05,29.76,-53.73,-57.03,39.24,50.05
0.315,1000,315.050,49.630,5.210,-32.05,29.76,-53.73,-57.03,39.24,50.05
0.316,1000,315.940,49.910,5.260,-32.05,29.77,-53.73,-57.03,39.24,50.05
0.317,1000,317.110,50.280,5.310,-32.05,29.77,-53.73,-57.02,39.23,50.05
0.318,1000,318.010,50.560,5.360,-32.04,29.77,-53.73,-57.02,39.23,50.05
0.319,1000,319.170,50.930,5.420,-32.04,29.77,-53.73,-57.02,39.23,50.05
0.320,1000,320.090,51.230,5.470,-32.04,29.77,-53.73,-57.02,39.23,50.05
0.321,1000,321.010,51.520,5.510,-32.04,29.78,-53.74,-57.02,39.23,50.05
0.322,1000,322.140,51.890,5.570,-32.03,29.78,-53.74,-57.02,39.22,50.05
0.323,1000,323.060,52.180,5.620,-32.03,29.78,-53.74,-57.02,39.22,50.05
0.324,1000,324.180,52.550,5.680,-32.03,29.78,-53.74,-57.01,39.22,50.04
0.325,1000,325.070,52.840,5.730,-32.03,29.79,-53.74,-57.01,39.22,50.04
0.326,1000,325.990,53.130,5.770,-32.03,29.79,-53.74,-57.01,39.21,50.04
0.327,1000,327.120,53.500,5.830,-32.02,29.79,-53.74,-57.01,39.21,50.04
0.328,1000,328.020,53.800,5.880,-32.02,29.79,-53.75,-57.01,39.21,50.04
0.329,1000,329.170,54.180,5.940,-32.02,29.8,-53.75,-57.01,39.21,50.04
0.330,1000,330.080,54.480,5.990,-32.02,29.8,-53.75,-57.01,39.21,50.04
0.331,1000,330.990,54.780,6.040,-32.01,29.8,-53.75,-57,39.2,50.04
0.332,1000,332.130,55.150,6.110,-32.01,29.8,-53.75,-57,39.2,50.04
0.333,1000,333.020,55.450,6.160,-32.01,29.81,-53.75,-57,39.2,50.04
0.334,1000,334.190,55.840,6.220,-32.01,29.81,-53.76,-57,39.2,50.04
0.335,1000,335.110,56.150,6.270,-32,29.81,-53.76,-57,39.19,50.04
0.336,1000,336.000,56.450,6.320,-32,29.81,-53.76,-57,39.19,50.04
0.337,1000,337.150,56.830,6.390,-32,29.82,-53.76,-56.99,39.19,50.04
0.338,1000,338.050,57.140,6.440,-32,29.82,-53.76,-56.99,39.19,50.03
0.339,1000,339.210,57.530,6.500,-31.99,29.82,-53.76,-56.99,39.18,50.03
0.340,1000,340.130,57.840,6.560,-31.99,29.82,-53.77,-56.99,39.18,50.03
0.341,1000,341.020,58.150,6.610,-31.99,29.83,-53.77,-56.99,39.18,50.03
0.342,1000,342.170,58.540,6.680,-31.99,29.83,-53.77,-56.99,39.18,50.03
0.343,1000,343.090,58.850,6.730,-31.98,29.83,-53.77,-56.98,39.18,50.03
0.344,1000,343.990,59.160,6.780,-31.98,29.83,-53.77,-56.98,39.17,50.03
0.345,1000,345.140,59.560,6.850,-31.98,29.84,-53.77,-56.98,39.17,50.03
0.346,1000,346.040,59.870,6.910,-31.98,29.84,-53.78,-56.98,39.17,50.03
0.347,1000,347.170,60.260,6.970,-31.97,29.84,-53.78,-56.98,39.16,50.03
0.348,1000,348.080,60.580,7.030,-31.97,29.84,-53.78,-56.98,39.16,50.03
0.349,1000,348.980,60.890,7.080,-31.97,29.85,-53.78,-56.97,39.16,50.03
0.350,1000,350.140,61.300,7.150,-31.97,29.85,-53.78,-56.97,39.16,50.02
0.351,1000,351.050,61.620,7.210,-31.96,29.85,-53.79,-56.97,39.15,50.02
0.352,1000,352.190,62.020,7.280,-31.96,29.85,-53.79,-56.97,39.15,50.02
0.353,1000,353.110,62.340,7.340,-31.96,29.86,-53.79,-56.97,39.15,50.02
0.354,1000,354.000,62.660,7.390,-31.96,29.86,-53.79,-56.97,39.15,50.02
0.355,1000,355.170,63.070,7.470,-31.95,29.86,-53.79,-56.96,39.14,50.02
0.356,1000,356.060,63.390,7.520,-31.95,29.87,-53.79,-56.96,39.14,50.02
0.357,1000,356.970,63.720,7.580,-31.95,29.87,-53.8,-56.96,39.14,50.02
0.358,1000,358.130,64.130,7.660,-31.94,29.87,-53.8,-56.96,39.14,50.02
0.359,1000,359.040,64.460,7.710,-31.94,29.87,-53.8,-56.96,39.13,50.02
0.360,1000,360.210,64.870,7.790,-31.94,29.88,-53.8,-56.95,39.13,50.02
0.361,1000,361.120,65.200,7.850,-31.94,29.88,-53.8,-56.95,39.13,50.01
0.362,1000,362.020,65.530,7.910,-31.93,29.88,-53.81,-56.95,39.13,50.01
0.363,1000,363.190,65.950,7.980,-31.93,29.89,-53.81,-56.95,39.12,50.01
0.364,1000,364.120,66.290,8.050,-31.93,29.89,-53.81,-56.95,39.12,50.01
0.365,1000,365.000,66.610,8.100,-31.92,29.89,-53.81,-56.95,39.12,50.01
0.366,1000,366.160,67.040,8.180,-31.92,29.89,-53.81,-56.94,39.11,50.01
0.367,1000,367.030,67.360,8.240,-31.92,29.9,-53.82,-56.94,39.11,50.01
0.368,1000,368.200,67.790,8.320,-31.92,29.9,-53.82,-56.94,39.11,50.01
0.369,1000,369.130,68.130,8.380,-31.91,29.9,-53.82,-56.94,39.11,50.01
0.370,1000,370.030,68.460,8.440,-31.91,29.91,-53.82,-56.94,39.1,50.01
0.371,1000,371.170,68.880,8.520,-31.91,29.91,-53.82,-56.93,39.1,50.01
0.372,1000,372.080,69.220,8.590,-31.9,29.91,-53.83,-56.93,39.1,50
0.373,1000,373.230,69.650,8.660,-31.9,29.92,-53.83,-56.93,39.09,50
0.374,1000,374.150,70.000,8.730,-31.9,29.92,-53.83,-56.93,39.09,50
0.375,1000,375.030,70.320,8.790,-31.89,29.92,-53.83,-56.93,39.09,50
0.376,1000,376.190,70.760,8.870,-31.89,29.93,-53.83,-56.92,39.09,50
0.377,1000,377.070,71.090,8.940,-31.89,29.93,-53.84,-56.92,39.08,50
0.378,1000,378.250,71.540,9.020,-31.89,29.93,-53.84,-56.92,39.08,50
0.379,1000,379.170,71.890,9.090,-31.88,29.93,-53.84,-56.92,39.08,50
0.380,1000,380.070,72.230,9.150,-31.88,29.94,-53.84,-56.92,39.07,50
0.381,1000,381.190,72.650,9.230,-31.88,29.94,-53.84,-56.91,39.07,50
0.382,1000,382.080,72.990,9.300,-31.87,29.94,-53.85,-56.91,39.07,49.99
0.383,1000,383.240,73.440,9.380,-31.87,29.95,-53.85,-56.91,39.06,49.99
0.384,1000,384.170,73.790,9.450,-31.87,29.95,-53.85,-56.91,39.06,49.99
0.385,1000,385.070,74.140,9.520,-31.86,29.95,-53.85,-56.9,39.06,49.99
0.386,1000,386.240,74.590,9.600,-31.86,29.96,-53.85,-56.9,39.06,49.99
0.387,1000,387.200,74.960,9.670,-31.86,29.96,-53.86,-56.9,39.05,49.99
0.388,1000,388.100,75.310,9.740,-31.85,29.96,-53.86,-56.9,39.05,49.99
0.389,1000,389.250,75.760,9.830,-31.85,29.97,-53.86,-56.9,39.05,49.99
0.390,1000,390.210,76.130,9.900,-31.85,29.97,-53.86,-56.89,39.04,49.99
0.391,1000,391.120,76.490,9.970,-31.84,29.97,-53.87,-56.89,39.04,49.98
0.392,1000,392.250,76.930,10.060,-31.84,29.98,-53.87,-56.89,39.04,49.98
0.393,1000,393.190,77.300,10.130,-31.84,29.98,-53.87,-56.89,39.03,49.98
0.394,1000,394.110,77.660,10.200,-31.83,29.98,-53.87,-56.89,39.03,49.98
0.395,1000,395.250,78.110,10.290,-31.83,29.99,-53.87,-56.88,39.03,49.98
0.396,1000,396.190,78.480,10.360,-31.83,29.99,-53.88,-56.88,39.02,49.98
0.397,1000,397.090,78.840,10.440,-31.82,30,-53.88,-56.88,39.02,49.98
0.398,1000,398.240,79.300,10.530,-31.82,30,-53.88,-56.88,39.02,49.98
0.399,1000,399.150,79.660,10.600,-31.82,30,-53.88,-56.87,39.01,49.98
0.400,1000,400.040,80.020,10.670,-31.81,30.01,-53.89,-56.87,39.01,49.97
0.401,1000,401.220,80.490,10.760,-31.81,30.01,-53.89,-56.87,39.01,49.97
0.402,1000,402.120,80.850,10.840,-31.81,30.01,-53.89,-56.87,39,49.97
0.403,1000,403.250,81.310,10.930,-31.8,30.02,-53.89,-56.87,39,49.97
0.404,1000,404.190,81.680,11.010,-31.8,30.02,-53.9,-56.86,39,49.97
0.405,1000,405.080,82.050,11.080,-31.79,30.02,-53.9,-56.86,38.99,49.97
0.406,1000,406.270,82.530,11.180,-31.79,30.03,-53.9,-56.86,38.99,49.97
0.407,1000,407.200,82.910,11.250,-31.79,30.03,-53.9,-56.86,38.99,49.97
0.408,1000,408.110,83.280,11.330,-31.78,30.03,-53.9,-56.85,38.98,49.97
0.409,1000,409.230,83.730,11.420,-31.78,30.04,-53.91,-56.85,38.98,49.96
0.410,1000,410.160,84.120,11.500,-31.78,30.04,-53.91,-56.85,38.98,49.96
0.411,1000,411.290,84.580,11.600,-31.77,30.05,-53.91,-56.85,38.97,49.96
0.412,1000,412.210,84.960,11.670,-31.77,30.05,-53.91,-56.84,38.97,49.96
0.413,1000,413.110,85.330,11.750,-31.77,30.05,-53.92,-56.84,38.96,49.96
0.414,1000,414.240,85.800,11.850,-31.76,30.06,-53.92,-56.84,38.96,49.96
0.415,1000,415.170,86.180,11.930,-31.76,30.06,-53.92,-56.84,38.96,49.96
0.416,1000,416.290,86.650,12.020,-31.75,30.06,-53.92,-56.83,38.95,49.96
0.417,1000,417.200,87.030,12.100,-31.75,30.07,-53.93,-56.83,38.95,49.95
0.418,1000,418.130,87.410,12.180,-31.75,30.07,-53.93,-56.83,38.95,49.95
0.419,1000,419.260,87.890,12.280,-31.74,30.08,-53.93,-56.83,38.94,49.95
0.420,1000,420.200,88.280,12.370,-31.74,30.08,-53.93,-56.82,38.94,49.95
0.421,1000,421.110,88.670,12.450,-31.73,30.08,-53.94,-56.82,38.94,49.95
0.422,1000,422.270,89.160,12.550,-31.73,30.09,-53.94,-56.82,38.93,49.95
0.423,1000,423.190,89.550,12.630,-31.73,30.09,-53.94,-56.82,38.93,49.95
0.424,1000,424.080,89.920,12.710,-31.72,30.1,-53.94,-56.81,38.92,49.95
0.425,1000,425.260,90.420,12.820,-31.72,30.1,-53.95,-56.81,38.92,49.94
0.426,1000,426.170,90.810,12.900,-31.72,30.1,-53.95,-56.81,38.92,49.94
0.427,1000,427.320,91.300,13.000,-31.71,30.11,-53.95,-56.81,38.91,49.94
0.428,1000,428.230,91.690,13.090,-31.71,30.11,-53.96,-56.8,38.91,49.94
0.429,1000,429.130,92.070,13.170,-31.7,30.12,-53.96,-56.8,38.91,49.94
0.430,1000,430.250,92.560,13.270,-31.7,30.12,-53.96,-56.8,38.9,49.94
0.431,1000,431.150,92.950,13.360,-31.7,30.12,-53.96,-56.79,38.9,49.94
0.432,1000,432.290,93.440,13.460,-31.69,30.13,-53.97,-56.79,38.89,49.94
0.433,1000,433.200,93.830,13.550,-31.69,30.13,-53.97,-56.79,38.89,49.93
0.434,1000,434.080,94.210,13.630,-31.68,30.14,-53.97,-56.79,38.89,49.93
0.435,1000,435.270,94.730,13.740,-31.68,30.14,-53.97,-56.78,38.88,49.93
0.436,1000,436.170,95.120,13.830,-31.67,30.15,-53.98,-56.78,38.88,49.93
0.437,1000,437.310,95.620,13.940,-31.67,30.15,-53.98,-56.78,38.87,49.93
0.438,1000,438.250,96.030,14.030,-31.67,30.15,-53.98,-56.78,38.87,49.93
0.439,1000,439.170,96.440,14.120,-31.66,30.16,-53.99,-56.77,38.87,49.93
0.440,1000,440.330,96.940,14.230,-31.66,30.16,-53.99,-56.77,38.86,49.92
0.441,1000,441.270,97.360,14.320,-31.65,30.17,-53.99,-56.77,38.86,49.92
0.442,1000,442.190,97.770,14.410,-31.65,30.17,-53.99,-56.76,38.85,49.92
0.443,1000,443.310,98.260,14.520,-31.65,30.18,-54,-56.76,38.85,49.92
0.444,1000,444.250,98.680,14.610,-31.64,30.18,-54,-56.76,38.85,49.92
0.445,1000,445.160,99.080,14.700,-31.64,30.18,-54,-56.76,38.84,49.92
0.446,1000,446.280,99.580,14.810,-31.63,30.19,-54,-56.75,38.84,49.92
0.447,1000,447.190,99.990,14.900,-31.63,30.19,-54.01,-56.75,38.83,49.91
0.448,1000,448.340,100.500,15.020,-31.62,30.2,-54.01,-56.75,38.83,49.91
0.449,1000,449.240,100.910,15.110,-31.62,30.2,-54.01,-56.74,38.83,49.91
0.450,1000,450.150,101.320,15.200,-31.61,30.21,-54.02,-56.74,38.82,49.91
0.451,1000,451.290,101.830,15.320,-31.61,30.21,-54.02,-56.74,38.82,49.91
0.452,1000,452.190,102.240,15.410,-31.61,30.22,-54.02,-56.74,38.81,49.91
0.453,1000,453.310,102.740,15.520,-31.6,30.22,-54.02,-56.73,38.81,49.91
0.454,1000,454.220,103.160,15.620,-31.6,30.22,-54.03,-56.73,38.8,49.9
0.455,1000,455.360,103.680,15.740,-31.59,30.23,-54.03,-56.73,38.8,49.9
0.456,1000,456.270,104.090,15.830,-31.59,30.23,-54.03,-56.72,38.8,49.9
0.457,1000,457.180,104.510,15.930,-31.58,30.24,-54.04,-56.72,38.79,49.9
0.458,1000,458.320,105.030,16.050,-31.58,30.24,-54.04,-56.72,38.79,49.9
0.459,1000,459.230,105.440,16.140,-31.57,30.25,-54.04,-56.71,38.78,49.9
0.460,1000,460.130,105.860,16.240,-31.57,30.25,-54.05,-56.71,38.78,49.89
0.461,1000,461.290,106.390,16.360,-31.56,30.26,-54.05,-56.71,38.77,49.89
0.462,1000,462.210,106.820,16.460,-31.56,30.26,-54.05,-56.7,38.77,49.89
0.463,1000,463.350,107.350,16.580,-31.56,30.27,-54.06,-56.7,38.76,49.89
0.464,1000,464.280,107.780,16.680,-31.55,30.27,-54.06,-56.7,38.76,49.89
0.465,1000,465.180,108.200,16.780,-31.55,30.28,-54.06,-56.7,38.75,49.89
0.466,1000,466.340,108.740,16.900,-31.54,30.28,-54.06,-56.69,38.75,49.89
0.467,1000,467.270,109.170,17.000,-31.54,30.28,-54.07,-56.69,38.75,49.88
0.468,1000,468.190,109.600,17.100,-31.53,30.29,-54.07,-56.69,38.74,49.88
0.469,1000,469.310,110.130,17.230,-31.53,30.29,-54.07,-56.68,38.74,49.88
0.470,1000,470.210,110.550,17.330,-31.52,30.3,-54.08,-56.68,38.73,49.88
0.471,1000,471.370,111.090,17.460,-31.52,30.3,-54.08,-56.68,38.73,49.88
0.472,1000,472.290,111.530,17.560,-31.51,30.31,-54.08,-56.67,38.72,49.88
0.473,1000,473.200,111.960,17.660,-31.51,30.31,-54.09,-56.67,38.72,49.87
0.474,1000,474.330,112.500,17.790,-31.5,30.32,-54.09,-56.67,38.71,49.87
0.475,1000,475.250,112.930,17.890,-31.5,30.32,-54.09,-56.66,38.71,49.87
0.476,1000,476.170,113.370,17.990,-31.49,30.33,-54.1,-56.66,38.7,49.87
0.477,1000,477.330,113.920,18.130,-31.49,30.33,-54.1,-56.66,38.7,49.87
0.478,1000,478.250,114.360,18.230,-31.48,30.34,-54.1,-56.65,38.69,49.87
0.479,1000,479.150,114.790,18.330,-31.48,30.34,-54.11,-56.65,38.69,49.86
0.480,1000,480.320,115.350,18.470,-31.47,30.35,-54.11,-56.65,38.68,49.86
0.481,1000,481.230,115.790,18.570,-31.47,30.35,-54.11,-56.64,38.68,49.86
0.482,1000,482.350,116.330,18.700,-31.46,30.36,-54.12,-56.64,38.67,49.86
0.483,1000,483.250,116.770,18.810,-31.46,30.36,-54.12,-56.64,38.67,49.86
0.484,1000,484.370,117.310,18.940,-31.45,30.37,-54.12,-56.63,38.66,49.86
0.485,1000,485.300,117.760,19.050,-31.45,30.37,-54.13,-56.63,38.66,49.85
0.486,1000,486.210,118.200,19.160,-31.44,30.38,-54.13,-56.63,38.65,49.85
0.487,1000,487.370,118.760,19.290,-31.44,30.39,-54.13,-56.62,38.65,49.85
0.488,1000,488.290,119.220,19.400,-31.43,30.39,-54.14,-56.62,38.65,49.85
0.489,1000,489.200,119.660,19.510,-31.43,30.4,-54.14,-56.62,38.64,49.85
0.490,1000,490.330,120.210,19.650,-31.42,30.4,-54.14,-56.61,38.63,49.85
0.491,1000,491.250,120.660,19.760,-31.41,30.41,-54.15,-56.61,38.63,49.84
0.492,1000,492.390,121.220,19.900,-31.41,30.41,-54.15,-56.61,38.62,49.84
0.493,1000,493.320,121.680,20.010,-31.4,30.42,-54.15,-56.6,38.62,49.84
0.494,1000,494.210,122.120,20.120,-31.4,30.42,-54.16,-56.6,38.61,49.84
0.495,1000,495.360,122.690,20.260,-31.39,30.43,-54.16,-56.59,38.61,49.84
0.496,1000,496.260,123.140,20.370,-31.39,30.43,-54.16,-56.59,38.6,49.83
0.497,1000,497.390,123.700,20.510,-31.38,30.44,-54.17,-56.59,38.6,49.83
0.498,1000,498.330,124.170,20.630,-31.38,30.44,-54.17,-56.58,38.59,49.83
0.499,1000,499.240,124.620,20.740,-31.37,30.45,-54.17,-56.58,38.59,49.83
0.500,0,499.790,125.120,20.860,-31.37,30.45,-54.18,-56.58,38.58,49.83
0.501,0,499.790,125.630,20.990,-31.36,30.46,-54.18,-56.57,38.58,49.83
0.502,0,499.790,126.130,21.120,-31.36,30.47,-54.18,-56.57,38.57,49.82
0.503,0,499.790,126.630,21.240,-31.35,30.47,-54.19,-56.57,38.57,49.82
0.504,0,499.790,127.130,21.370,-31.34,30.48,-54.19,-56.56,38.56,49.82
0.505,0,499.790,127.630,21.500,-31.34,30.48,-54.2,-56.56,38.56,49.82
0.506,0,499.790,128.130,21.630,-31.33,30.49,-54.2,-56.55,38.55,49.82
0.507,0,499.790,128.630,21.760,-31.33,30.49,-54.2,-56.55,38.55,49.81
0.508,0,499.790,129.070,21.870,-31.32,30.5,-54.21,-56.55,38.54,49.81
0.509,0,499.790,129.580,22.000,-31.32,30.51,-54.21,-56.54,38.53,49.81
0.510,0,499.790,130.090,22.130,-31.31,30.51,-54.21,-56.54,38.53,49.81
0.511,0,499.790,130.590,22.260,-31.3,30.52,-54.22,-56.54,38.52,49.81
0.512,0,499.790,131.090,22.390,-31.3,30.52,-54.22,-56.53,38.52,49.8
0.513,0,499.790,131.600,22.530,-31.29,30.53,-54.23,-56.53,38.51,49.8
0.514,0,499.790,132.110,22.660,-31.29,30.53,-54.23,-56.52,38.51,49.8
0.515,0,499.790,132.620,22.800,-31.28,30.54,-54.23,-56.52,38.5,49.8
0.516,0,499.790,133.120,22.930,-31.28,30.55,-54.24,-56.52,38.5,49.8
0.517,0,499.790,133.620,23.060,-31.27,30.55,-54.24,-56.51,38.49,49.79
0.518,0,499.790,134.120,23.200,-31.26,30.56,-54.24,-56.51,38.49,49.79
0.519,0,499.790,134.620,23.330,-31.26,30.56,-54.25,-56.5,38.48,49.79
0.520,0,499.790,135.120,23.470,-31.25,30.57,-54.25,-56.5,38.47,49.79
0.521,0,499.790,135.620,23.600,-31.25,30.57,-54.26,-56.5,38.47,49.79
0.522,0,499.790,136.120,23.740,-31.24,30.58,-54.26,-56.49,38.46,49.78
0.523,0,499.790,136.620,23.870,-31.23,30.59,-54.26,-56.49,38.46,49.78
0.524,0,499.790,137.130,24.010,-31.23,30.59,-54.27,-56.48,38.45,49.78
0.525,0,499.790,137.630,24.150,-31.22,30.6,-54.27,-56.48,38.45,49.78
0.526,0,499.790,138.130,24.290,-31.22,30.6,-54.28,-56.48,38.44,49.78
0.527,0,499.790,138.640,24.430,-31.21,30.61,-54.28,-56.47,38.43,49.77
0.528,0,499.790,139.070,24.550,-31.2,30.62,-54.28,-56.47,38.43,49.77
0.529,0,499.790,139.580,24.690,-31.2,30.62,-54.29,-56.46,38.42,49.77
0.530,0,499.790,140.090,24.840,-31.19,30.63,-54.29,-56.46,38.42,49.77
0.531,0,499.790,140.600,24.980,-31.18,30.64,-54.3,-56.46,38.41,49.76
0.532,0,499.790,141.110,25.120,-31.18,30.64,-54.3,-56.45,38.4,49.76
0.533,0,499.790,141.610,25.260,-31.17,30.65,-54.3,-56.45,38.4,49.76
0.534,0,499.790,142.110,25.400,-31.17,30.65,-54.31,-56.44,38.39,49.76
0.535,0,499.790,142.620,25.550,-31.16,30.66,-54.31,-56.44,38.38,49.76
0.536,0,499.790,143.120,25.690,-31.15,30.67,-54.32,-56.43,38.38,49.75
0.537,0,499.790,143.630,25.840,-31.15,30.67,-54.32,-56.43,38.37,49.75
0.538,0,499.790,144.120,25.980,-31.14,30.68,-54.32,-56.43,38.37,49.75
0.539,0,499.790,144.630,26.130,-31.13,30.69,-54.33,-56.42,38.36,49.75
0.540,0,499.790,145.130,26.270,-31.13,30.69,-54.33,-56.42,38.36,49.74
0.541,0,499.790,145.630,26.420,-31.12,30.7,-54.34,-56.41,38.35,49.74
0.542,0,499.790,146.130,26.570,-31.12,30.7,-54.34,-56.41,38.34,49.74
0.543,0,499.790,146.630,26.710,-31.11,30.71,-54.34,-56.4,38.34,49.74
0.544,0,499.790,147.130,26.860,-31.1,30.72,-54.35,-56.4,38.33,49.74
0.545,0,499.790,147.630,27.010,-31.1,30.72,-54.35,-56.4,38.32,49.73
0.546,0,499.790,148.130,27.150,-31.09,30.73,-54.36,-56.39,38.32,49.73
0.547,0,499.790,148.630,27.300,-31.08,30.74,-54.36,-56.39,38.31,49.73
0.548,0,499.790,149.130,27.450,-31.08,30.74,-54.37,-56.38,38.31,49.73
0.549,0,499.790,149.630,27.600,-31.07,30.75,-54.37,-56.38,38.3,49.72
0.550,0,499.790,150.130,27.750,-31.06,30.76,-54.37,-56.37,38.29,49.72
0.551,0,499.790,150.630,27.900,-31.06,30.76,-54.38,-56.37,38.29,49.72
0.552,0,499.790,151.130,28.050,-31.05,30.77,-54.38,-56.36,38.28,49.72
0.553,0,499.790,151.630,28.200,-31.04,30.78,-54.39,-56.36,38.27,49.72
0.554,0,499.790,152.130,28.350,-31.04,30.78,-54.39,-56.36,38.27,49.71
0.555,0,499.790,152.630,28.510,-31.03,30.79,-54.39,-56.35,38.26,49.71
0.556,0,499.790,153.140,28.660,-31.02,30.8,-54.4,-56.35,38.25,49.71
0.557,0,499.790,153.630,28.810,-31.02,30.8,-54.4,-56.34,38.25,49.71
0.558,0,499.790,154.130,28.970,-31.01,30.81,-54.41,-56.34,38.24,49.7
0.559,0,499.790,154.630,29.120,-31,30.82,-54.41,-56.33,38.23,49.7
0.560,0,499.790,155.140,29.280,-30.99,30.82,-54.42,-56.33,38.23,49.7
0.561,0,499.790,155.630,29.430,-30.99,30.83,-54.42,-56.32,38.22,49.7
0.562,0,499.790,156.140,29.590,-30.98,30.84,-54.43,-56.32,38.21,49.69
0.563,0,499.790,156.640,29.750,-30.97,30.84,-54.43,-56.31,38.21,49.69
0.564,0,499.790,157.130,29.900,-30.97,30.85,-54.43,-56.31,38.2,49.69
0.565,0,499.790,157.640,30.060,-30.96,30.86,-54.44,-56.3,38.19,49.69
0.566,0,499.790,158.140,30.220,-30.95,30.86,-54.44,-56.3,38.19,49.68
0.567,0,499.790,158.640,30.380,-30.95,30.87,-54.45,-56.29,38.18,49.68
0.568,0,499.790,159.140,30.540,-30.94,30.88,-54.45,-56.29,38.17,49.68
0.569,0,499.790,159.640,30.700,-30.93,30.88,-54.46,-56.28,38.17,49.68
0.570,0,499.790,160.140,30.860,-30.92,30.89,-54.46,-56.28,38.16,49.67
0.571,0,499.790,160.640,31.020,-30.92,30.9,-54.47,-56.28,38.15,49.67
0.572,0,499.790,161.140,31.180,-30.91,30.91,-54.47,-56.27,38.15,49.67
0.573,0,499.790,161.640,31.340,-30.9,30.91,-54.47,-56.27,38.14,49.67
0.574,0,499.790,162.140,31.500,-30.9,30.92,-54.48,-56.26,38.13,49.66
0.575,0,499.790,162.640,31.670,-30.89,30.93,-54.48,-56.26,38.13,49.66
0.576,0,499.790,163.140,31.830,-30.88,30.93,-54.49,-56.25,38.12,49.66
0.577,0,499.790,163.640,31.990,-30.87,30.94,-54.49,-56.25,38.11,49.66
0.578,0,499.790,164.140,32.160,-30.87,30.95,-54.5,-56.24,38.1,49.65
0.579,0,499.790,164.640,32.320,-30.86,30.96,-54.5,-56.24,38.1,49.65
0.580,0,499.790,165.150,32.490,-30.85,30.96,-54.51,-56.23,38.09,49.65
0.581,0,499.790,165.640,32.650,-30.84,30.97,-54.51,-56.23,38.08,49.65
0.582,0,499.790,166.140,32.820,-30.84,30.98,-54.52,-56.22,38.08,49.64
0.583,0,499.790,166.650,32.980,-30.83,30.98,-54.52,-56.22,38.07,49.64
0.584,0,499.790,167.140,33.150,-30.82,30.99,-54.53,-56.21,38.06,49.64
0.585,0,499.790,167.650,33.320,-30.82,31,-54.53,-56.21,38.06,49.64
0.586,0,499.790,168.140,33.490,-30.81,31.01,-54.53,-56.2,38.05,49.63
0.587,0,499.790,168.650,33.660,-30.8,31.01,-54.54,-56.2,38.04,49.63
0.588,0,499.790,169.140,33.820,-30.79,31.02,-54.54,-56.19,38.03,49.63
0.589,0,499.790,169.650,33.990,-30.79,31.03,-54.55,-56.19,38.03,49.62
0.590,0,499.790,170.150,34.160,-30.78,31.04,-54.55,-56.18,38.02,49.62
0.591,0,499.790,170.650,34.330,-30.77,31.04,-54.56,-56.18,38.01,49.62
0.592,0,499.790,171.150,34.510,-30.76,31.05,-54.56,-56.17,38.01,49.62
0.593,0,499.790,171.650,34.680,-30.75,31.06,-54.57,-56.16,38,49.61
0.594,0,499.790,172.150,34.850,-30.75,31.07,-54.57,-56.16,37.99,49.61
0.595,0,499.790,172.650,35.020,-30.74,31.07,-54.58,-56.15,37.98,49.61
0.596,0,499.790,173.150,35.200,-30.73,31.08,-54.58,-56.15,37.98,49.6
0.597,0,499.790,173.650,35.370,-30.72,31.09,-54.59,-56.14,37.97,49.6
0.598,0,499.790,174.150,35.540,-30.72,31.1,-54.59,-56.14,37.96,49.6
0.599,0,499.790,174.660,35.720,-30.71,31.1,-54.6,-56.13,37.95,49.6
0.600,0,499.790,175.150,35.890,-30.7,31.11,-54.6,-56.13,37.95,49.59
0.601,0,499.790,175.650,36.070,-30.69,31.12,-54.61,-56.12,37.94,49.59
0.602,0,499.790,176.150,36.250,-30.68,31.13,-54.61,-56.12,37.93,49.59
0.603,0,499.790,176.660,36.420,-30.68,31.13,-54.62,-56.11,37.92,49.59
0.604,0,499.790,177.150,36.600,-30.67,31.14,-54.62,-56.11,37.92,49.58
0.605,0,499.790,177.660,36.780,-30.66,31.15,-54.63,-56.1,37.91,49.58
0.606,0,499.790,178.150,36.950,-30.65,31.16,-54.63,-56.1,37.9,49.58
0.607,0,499.790,178.650,37.130,-30.65,31.16,-54.64,-56.09,37.89,49.57
0.608,0,499.790,179.160,37.310,-30.64,31.17,-54.64,-56.08,37.89,49.57
0.609,0,499.790,179.660,37.490,-30.63,31.18,-54.65,-56.08,37.88,49.57
0.610,0,499.790,180.160,37.670,-30.62,31.19,-54.65,-56.07,37.87,49.56
0.611,0,499.790,180.660,37.850,-30.61,31.2,-54.66,-56.07,37.86,49.56
0.612,0,499.790,181.160,38.030,-30.6,31.2,-54.66,-56.06,37.85,49.56
0.613,0,499.790,181.660,38.220,-30.6,31.21,-54.67,-56.06,37.85,49.56
0.614,0,499.790,182.160,38.400,-30.59,31.22,-54.67,-56.05,37.84,49.55
0.615,0,499.790,182.660,38.580,-30.58,31.23,-54.68,-56.05,37.83,49.55
0.616,0,499.790,183.160,38.760,-30.57,31.24,-54.68,-56.04,37.82,49.55
0.617,0,499.790,183.660,38.950,-30.56,31.24,-54.69,-56.03,37.82,49.54
0.618,0,499.790,184.170,39.130,-30.56,31.25,-54.69,-56.03,37.81,49.54
0.619,0,499.790,184.660,39.320,-30.55,31.26,-54.7,-56.02,37.8,49.54
0.620,0,499.790,185.160,39.500,-30.54,31.27,-54.7,-56.02,37.79,49.54
0.621,0,499.790,185.670,39.690,-30.53,31.28,-54.71,-56.01,37.79,49.53
0.622,0,499.790,186.160,39.870,-30.52,31.28,-54.71,-56.01,37.78,49.53
0.623,0,499.790,186.660,40.060,-30.51,31.29,-54.72,-56,37.77,49.53
0.624,0,499.790,187.170,40.250,-30.51,31.3,-54.72,-55.99,37.76,49.52
0.625,0,499.790,187.670,40.430,-30.5,31.31,-54.73,-55.99,37.75,49.52
0.626,0,499.790,188.170,40.620,-30.49,31.32,-54.73,-55.98,37.75,49.52
0.627,0,499.790,188.670,40.810,-30.48,31.32,-54.74,-55.98,37.74,49.51
0.628,0,499.790,189.170,41.000,-30.47,31.33,-54.74,-55.97,37.73,49.51
0.629,0,499.790,189.660,41.190,-30.46,31.34,-54.75,-55.97,37.72,49.51
0.630,0,499.790,190.170,41.380,-30.45,31.35,-54.75,-55.96,37.71,49.5
0.631,0,499.790,190.670,41.570,-30.45,31.36,-54.76,-55.95,37.7,49.5
0.632,0,499.790,191.170,41.760,-30.44,31.37,-54.77,-55.95,37.7,49.5
0.633,0,499.790,191.670,41.950,-30.43,31.37,-54.77,-55.94,37.69,49.49
0.634,0,499.790,192.170,42.150,-30.42,31.38,-54.78,-55.94,37.68,49.49
0.635,0,499.790,192.670,42.340,-30.41,31.39,-54.78,-55.93,37.67,49.49
0.636,0,499.790,193.170,42.530,-30.4,31.4,-54.79,-55.92,37.66,49.49
0.637,0,499.790,193.670,42.730,-30.39,31.41,-54.79,-55.92,37.65,49.48
0.638,0,499.790,194.170,42.920,-30.39,31.42,-54.8,-55.91,37.65,49.48
0.639,0,499.790,194.670,43.110,-30.38,31.42,-54.8,-55.91,37.64,49.48
0.640,0,499.790,195.180,43.310,-30.37,31.43,-54.81,-55.9,37.63,49.47
0.641,0,499.790,195.670,43.510,-30.36,31.44,-54.81,-55.89,37.62,49.47
0.642,0,499.790,196.180,43.700,-30.35,31.45,-54.82,-55.89,37.61,49.47
0.643,0,499.790,196.670,43.900,-30.34,31.46,-54.82,-55.88,37.6,49.46
0.644,0,499.790,197.170,44.100,-30.33,31.47,-54.83,-55.88,37.6,49.46
0.645,0,499.790,197.680,44.290,-30.32,31.47,-54.84,-55.87,37.59,49.46
0.646,0,499.790,198.180,44.490,-30.32,31.48,-54.84,-55.86,37.58,49.45
0.647,0,499.790,198.680,44.690,-30.31,31.49,-54.85,-55.86,37.57,49.45
0.648,0,499.790,199.180,44.890,-30.3,31.5,-54.85,-55.85,37.56,49.45
0.649,0,499.790,199.680,45.090,-30.29,31.51,-54.86,-55.84,37.55,49.44
0.650,0,499.790,200.180,45.290,-30.28,31.52,-54.86,-55.84,37.54,49.44
0.651,0,499.790,200.680,45.490,-30.27,31.53,-54.87,-55.83,37.54,49.44
0.652,0,499.790,201.180,45.690,-30.26,31.53,-54.87,-55.83,37.53,49.43
0.653,0,499.790,201.680,45.890,-30.25,31.54,-54.88,-55.82,37.52,49.43
0.654,0,499.790,202.180,46.100,-30.24,31.55,-54.88,-55.81,37.51,49.43
0.655,0,499.790,202.680,46.300,-30.23,31.56,-54.89,-55.81,37.5,49.42
0.656,0,499.790,203.180,46.500,-30.22,31.57,-54.9,-55.8,37.49,49.42
0.657,0,499.790,203.680,46.710,-30.22,31.58,-54.9,-55.79,37.48,49.42
0.658,0,499.790,204.180,46.910,-30.21,31.59,-54.91,-55.79,37.47,49.41
0.659,0,499.790,204.690,47.120,-30.2,31.6,-54.91,-55.78,37.47,49.41
0.660,0,499.790,205.190,47.320,-30.19,31.6,-54.92,-55.77,37.46,49.4
0.661,0,499.790,205.680,47.520,-30.18,31.61,-54.92,-55.77,37.45,49.4
0.662,0,499.790,206.190,47.730,-30.17,31.62,-54.93,-55.76,37.44,49.4
0.663,0,499.790,206.680,47.940,-30.16,31.63,-54.94,-55.76,37.43,49.39
0.664,0,499.790,207.190,48.150,-30.15,31.64,-54.94,-55.75,37.42,49.39
0.665,0,499.790,207.690,48.360,-30.14,31.65,-54.95,-55.74,37.41,49.39
0.666,0,499.790,208.190,48.560,-30.13,31.66,-54.95,-55.74,37.4,49.38
0.667,0,499.790,208.680,48.770,-30.12,31.67,-54.96,-55.73,37.39,49.38
0.668,0,499.790,209.190,48.980,-30.11,31.68,-54.96,-55.72,37.39,49.38
0.669,0,499.790,209.690,49.190,-30.1,31.68,-54.97,-55.72,37.38,49.37
0.670,0,499.790,210.190,49.400,-30.09,31.69,-54.98,-55.71,37.37,49.37
0.671,0,499.790,210.690,49.610,-30.08,31.7,-54.98,-55.7,37.36,49.36
0.672,0,499.790,211.190,49.820,-30.07,31.71,-54.99,-55.7,37.35,49.36
0.673,0,499.790,211.690,50.030,-30.07,31.72,-54.99,-55.69,37.34,49.36
0.674,0,499.790,212.190,50.250,-30.06,31.73,-55,-55.68,37.33,49.35
0.675,0,499.790,212.690,50.460,-30.05,31.74,-55,-55.68,37.32,49.35
0.676,0,499.790,213.190,50.670,-30.04,31.75,-55.01,-55.67,37.31,49.35
0.677,0,499.790,213.690,50.890,-30.03,31.76,-55.02,-55.66,37.3,49.34
0.678,0,499.790,214.190,51.100,-30.02,31.77,-55.02,-55.66,37.29,49.34
0.679,0,499.790,214.690,51.310,-30.01,31.78,-55.03,-55.65,37.28,49.34
0.680,0,499.790,215.190,51.530,-30,31.79,-55.03,-55.64,37.28,49.33
0.681,0,499.790,215.690,51.740,-29.99,31.79,-55.04,-55.63,37.27,49.33
0.682,0,499.790,216.200,51.960,-29.98,31.8,-55.05,-55.63,37.26,49.32
0.683,0,499.790,216.690,52.180,-29.97,31.81,-55.05,-55.62,37.25,49.32
0.684,0,499.790,217.200,52.400,-29.96,31.82,-55.06,-55.61,37.24,49.32
0.685,0,499.790,217.690,52.610,-29.95,31.83,-55.06,-55.61,37.23,49.31
0.686,0,499.790,218.190,52.830,-29.94,31.84,-55.07,-55.6,37.22,49.31
0.687,0,499.790,218.690,53.050,-29.93,31.85,-55.07,-55.59,37.21,49.3
0.688,0,499.790,219.200,53.270,-29.92,31.86,-55.08,-55.59,37.2,49.3
0.689,0,499.790,219.690,53.490,-29.91,31.87,-55.09,-55.58,37.19,49.3
0.690,0,499.790,220.200,53.710,-29.9,31.88,-55.09,-55.57,37.18,49.29
0.691,0,499.790,220.690,53.930,-29.89,31.89,-55.1,-55.57,37.17,49.29
0.692,0,499.790,221.200,54.150,-29.88,31.9,-55.1,-55.56,37.16,49.29
0.693,0,499.790,221.700,54.370,-29.87,31.91,-55.11,-55.55,37.15,49.28
0.694,0,499.790,222.200,54.600,-29.86,31.92,-55.12,-55.54,37.14,49.28
0.695,0,499.790,222.700,54.820,-29.85,31.93,-55.12,-55.54,37.13,49.27
0.696,0,499.790,223.200,55.040,-29.84,31.94,-55.13,-55.53,37.13,49.27
0.697,0,499.790,223.700,55.260,-29.83,31.95,-55.13,-55.52,37.11,49.27
0.698,0,499.790,224.200,55.490,-29.82,31.95,-55.14,-55.52,37.1,49.26
0.699,0,499.790,224.700,55.710,-29.81,31.96,-55.15,-55.51,37.09,49.26
0.700,0,499.790,225.200,55.940,-29.8,31.97,-55.15,-55.5,37.08,49.25
0.701,0,499.790,225.700,56.160,-29.79,31.98,-55.16,-55.49,37.08,49.25
0.702,0,499.790,226.200,56.390,-29.78,31.99,-55.17,-55.49,37.07,49.25
0.703,0,499.790,226.700,56.620,-29.77,32,-55.17,-55.48,37.06,49.24
0.704,0,499.790,227.200,56.840,-29.76,32.01,-55.18,-55.47,37.05,49.24
0.705,0,499.790,227.700,57.070,-29.75,32.02,-55.18,-55.46,37.04,49.23
0.706,0,499.790,228.200,57.300,-29.74,32.03,-55.19,-55.46,37.03,49.23
0.707,0,499.790,228.700,57.530,-29.73,32.04,-55.2,-55.45,37.02,49.23
0.708,0,499.790,229.200,57.760,-29.72,32.05,-55.2,-55.44,37.01,49.22
0.709,0,499.790,229.700,57.990,-29.7,32.06,-55.21,-55.43,37,49.22
0.710,0,499.790,230.200,58.220,-29.69,32.07,-55.21,-55.43,36.99,49.21
0.711,0,499.790,230.700,58.450,-29.68,32.08,-55.22,-55.42,36.98,49.21
0.712,0,499.790,231.210,58.680,-29.67,32.09,-55.23,-55.41,36.97,49.2
0.713,0,499.790,231.700,58.910,-29.66,32.1,-55.23,-55.41,36.96,49.2
0.714,0,499.790,232.200,59.140,-29.65,32.11,-55.24,-55.4,36.95,49.2
0.715,0,499.790,232.700,59.370,-29.64,32.12,-55.25,-55.39,36.94,49.19
0.716,0,499.790,233.210,59.610,-29.63,32.13,-55.25,-55.38,36.93,49.19
0.717,0,499.790,233.710,59.840,-29.62,32.14,-55.26,-55.37,36.92,49.18
0.718,0,499.790,234.200,60.080,-29.61,32.15,-55.26,-55.37,36.91,49.18
0.719,0,499.790,234.710,60.310,-29.6,32.16,-55.27,-55.36,36.9,49.17
0.720,0,499.790,235.210,60.550,-29.59,32.17,-55.28,-55.35,36.88,49.17
0.721,0,499.790,235.710,60.790,-29.58,32.18,-55.28,-55.34,36.87,49.17
0.722,0,499.790,236.210,61.020,-29.57,32.19,-55.29,-55.34,36.86,49.16
0.723,0,499.790,236.710,61.260,-29.56,32.2,-55.3,-55.33,36.85,49.16
0.724,0,499.790,237.210,61.500,-29.54,32.21,-55.3,-55.32,36.84,49.15
0.725,0,499.790,237.710,61.730,-29.53,32.22,-55.31,-55.31,36.83,49.15
0.726,0,499.790,238.210,61.970,-29.52,32.23,-55.32,-55.31,36.82,49.14
0.727,0,499.790,238.710,62.210,-29.51,32.24,-55.32,-55.3,36.81,49.14
0.728,0,499.790,239.210,62.450,-29.5,32.25,-55.33,-55.29,36.8,49.14
0.729,0,499.790,239.710,62.690,-29.49,32.26,-55.33,-55.28,36.79,49.13
0.730,0,499.790,240.210,62.930,-29.48,32.27,-55.34,-55.27,36.78,49.13
0.731,0,499.790,240.720,63.170,-29.47,32.28,-55.35,-55.27,36.77,49.12
0.732,0,499.790,241.210,63.410,-29.46,32.29,-55.35,-55.26,36.76,49.12
0.733,0,499.790,241.720,63.650,-29.45,32.3,-55.36,-55.25,36.75,49.11
0.734,0,499.790,242.210,63.890,-29.44,32.31,-55.37,-55.24,36.74,49.11
0.735,0,499.790,242.710,64.130,-29.42,32.32,-55.37,-55.23,36.73,49.1
0.736,0,499.790,243.200,64.370,-29.41,32.33,-55.38,-55.23,36.72,49.1
0.737,0,499.790,243.700,64.620,-29.4,32.34,-55.39,-55.22,36.71,49.1
0.738,0,499.790,244.200,64.860,-29.39,32.35,-55.39,-55.21,36.7,49.09
0.739,0,499.790,244.700,65.100,-29.38,32.36,-55.4,-55.2,36.69,49.09
0.740,0,499.790,245.200,65.350,-29.37,32.37,-55.41,-55.19,36.68,49.08
0.741,0,499.790,245.700,65.600,-29.36,32.38,-55.41,-55.19,36.67,49.08
0.742,0,499.790,246.200,65.840,-29.35,32.39,-55.42,-55.18,36.65,49.07
0.743,0,499.790,246.710,66.090,-29.33,32.41,-55.43,-55.17,36.64,49.07
0.744,0,499.790,247.210,66.340,-29.32,32.42,-55.43,-55.16,36.63,49.06
0.745,0,499.790,247.720,66.590,-29.31,32.43,-55.44,-55.15,36.62,49.06
0.746,0,499.790,248.220,66.840,-29.3,32.44,-55.45,-55.15,36.61,49.05
0.747,0,499.790,248.720,67.090,-29.29,32.45,-55.45,-55.14,36.6,49.05
0.748,0,499.790,249.220,67.340,-29.28,32.46,-55.46,-55.13,36.59,49.04
0.749,0,499.790,249.720,67.590,-29.27,32.47,-55.47,-55.12,36.58,49.04
0.750,0,499.790,250.220,67.840,-29.25,32.48,-55.47,-55.11,36.57,49.03
0.751,0,499.790,250.720,68.090,-29.24,32.49,-55.48,-55.1,36.56,49.03
0.752,0,499.790,251.220,68.340,-29.23,32.5,-55.49,-55.1,36.55,49.03
0.753,0,499.790,251.720,68.590,-29.22,32.51,-55.49,-55.09,36.53,49.02
0.754,0,499.790,252.220,68.840,-29.21,32.52,-55.5,-55.08,36.52,49.02
0.755,0,499.790,252.720,69.100,-29.2,32.53,-55.51,-55.07,36.51,49.01
0.756,0,499.790,253.220,69.350,-29.18,32.54,-55.51,-55.06,36.5,49.01
0.757,0,499.790,253.720,69.600,-29.17,32.55,-55.52,-55.05,36.49,49
0.758,0,499.790,254.220,69.860,-29.16,32.56,-55.53,-55.05,36.48,49
0.759,0,499.790,254.720,70.110,-29.15,32.58,-55.53,-55.04,36.47,48.99
0.760,0,499.790,255.220,70.370,-29.14,32.59,-55.54,-55.03,36.46,48.99
0.761,0,499.790,255.720,70.620,-29.13,32.6,-55.55,-55.02,36.45,48.98
0.762,0,499.790,256.220,70.880,-29.11,32.61,-55.55,-55.01,36.43,48.98
0.763,0,499.790,256.720,71.140,-29.1,32.62,-55.56,-55,36.42,48.97
0.764,0,499.790,257.220,71.390,-29.09,32.63,-55.57,-54.99,36.41,48.97
0.765,0,499.790,257.720,71.650,-29.08,32.64,-55.57,-54.99,36.4,48.96
0.766,0,499.790,258.230,71.910,-29.07,32.65,-55.58,-54.98,36.39,48.96
0.767,0,499.790,258.730,72.170,-29.06,32.66,-55.59,-54.97,36.38,48.95
0.768,0,499.790,259.230,72.430,-29.04,32.67,-55.59,-54.96,36.37,48.95
0.769,0,499.790,259.730,72.690,-29.03,32.68,-55.6,-54.95,36.36,48.94
0.770,0,499.790,260.240,72.950,-29.02,32.69,-55.61,-54.94,36.35,48.94
0.771,0,499.790,260.730,73.210,-29.01,32.71,-55.61,-54.93,36.33,48.93
0.772,0,499.790,261.230,73.470,-28.99,32.72,-55.62,-54.92,36.32,48.93
0.773,0,499.790,261.730,73.740,-28.98,32.73,-55.63,-54.92,36.31,48.92
0.774,0,499.790,262.230,74.000,-28.97,32.74,-55.63,-54.91,36.3,48.92
0.775,0,499.790,262.730,74.260,-28.96,32.75,-55.64,-54.9,36.29,48.91
0.776,0,499.790,263.240,74.530,-28.95,32.76,-55.65,-54.89,36.28,48.91
0.777,0,499.790,263.730,74.790,-28.93,32.77,-55.66,-54.88,36.26,48.9
0.778,0,499.790,264.240,75.050,-28.92,32.78,-55.66,-54.87,36.25,48.89
0.779,0,499.790,264.740,75.320,-28.91,32.79,-55.67,-54.86,36.24,48.89
0.780,0,499.790,265.240,75.580,-28.9,32.81,-55.68,-54.85,36.23,48.88
0.781,0,499.790,265.740,75.850,-28.89,32.82,-55.68,-54.84,36.22,48.88
0.782,0,499.790,266.240,76.120,-28.87,32.83,-55.69,-54.83,36.21,48.87
0.783,0,499.790,266.730,76.380,-28.86,32.84,-55.7,-54.83,36.19,48.87
0.784,0,499.790,267.240,76.650,-28.85,32.85,-55.7,-54.82,36.18,48.86
0.785,0,499.790,267.740,76.910,-28.84,32.86,-55.71,-54.81,36.17,48.86
0.786,0,499.790,268.240,77.190,-28.82,32.87,-55.72,-54.8,36.16,48.85
0.787,0,499.790,268.740,77.450,-28.81,32.88,-55.73,-54.79,36.15,48.85
0.788,0,499.790,269.240,77.720,-28.8,32.89,-55.73,-54.78,36.14,48.84
0.789,0,499.790,269.740,77.990,-28.79,32.91,-55.74,-54.77,36.12,48.84
0.790,0,499.790,270.240,78.260,-28.77,32.92,-55.75,-54.76,36.11,48.83
0.791,0,499.790,270.740,78.530,-28.76,32.93,-55.75,-54.75,36.1,48.83
0.792,0,499.790,271.250,78.810,-28.75,32.94,-55.76,-54.74,36.09,48.82
0.793,0,499.790,271.750,79.080,-28.74,32.95,-55.77,-54.73,36.08,48.82
0.794,0,499.790,272.240,79.350,-28.72,32.96,-55.78,-54.72,36.06,48.81
0.795,0,499.790,272.740,79.620,-28.71,32.97,-55.78,-54.71,36.05,48.8
0.796,0,499.790,273.250,79.900,-28.7,32.99,-55.79,-54.71,36.04,48.8
0.797,0,499.790,273.740,80.170,-28.68,33,-55.8,-54.7,36.03,48.79
0.798,0,499.790,274.240,80.440,-28.67,33.01,-55.8,-54.69,36.02,48.79
0.799,0,499.790,274.740,80.710,-28.66,33.02,-55.81,-54.68,36,48.78
0.800,-1000,498.980,275.220,80.980,-28.65,33.03,-55.82,-54.67,35.99,48.78
0.801,-1000,498.020,275.700,81.240,-28.64,33.04,-55.82,-54.66,35.98,48.77
0.802,-1000,497.040,276.190,81.520,-28.62,33.05,-55.83,-54.65,35.97,48.77
0.803,-1000,496.070,276.670,81.780,-28.61,33.06,-55.84,-54.64,35.96,48.76
0.804,-1000,495.100,277.150,82.050,-28.6,33.08,-55.85,-54.63,35.95,48.76
0.805,-1000,494.150,277.620,82.320,-28.58,33.09,-55.85,-54.62,35.93,48.75
0.806,-1000,493.210,278.080,82.580,-28.57,33.1,-55.86,-54.61,35.92,48.74
0.807,-1000,491.940,278.710,82.930,-28.56,33.11,-55.87,-54.6,35.91,48.74
0.808,-1000,490.980,279.180,83.200,-28.55,33.12,-55.87,-54.59,35.9,48.73
0.809,-1000,490.020,279.650,83.470,-28.53,33.13,-55.88,-54.58,35.88,48.73
0.810,-1000,489.030,280.140,83.740,-28.52,33.15,-55.89,-54.57,35.87,48.72
0.811,-1000,488.050,280.620,84.020,-28.51,33.16,-55.9,-54.56,35.86,48.71
0.812,-1000,487.050,281.100,84.300,-28.5,33.17,-55.9,-54.55,35.85,48.71
0.813,-1000,486.070,281.580,84.570,-28.48,33.18,-55.91,-54.54,35.84,48.7
0.814,-1000,485.100,282.050,84.850,-28.47,33.19,-55.92,-54.53,35.82,48.7
0.815,-1000,484.140,282.520,85.120,-28.45,33.21,-55.93,-54.52,35.81,48.69
0.816,-1000,483.170,282.980,85.390,-28.44,33.22,-55.93,-54.51,35.8,48.68
0.817,-1000,482.190,283.460,85.670,-28.43,33.23,-55.94,-54.5,35.78,48.68
0.818,-1000,480.930,284.060,86.030,-28.41,33.24,-55.95,-54.49,35.77,48.67
0.819,-1000,479.960,284.530,86.310,-28.4,33.25,-55.95,-54.48,35.76,48.67
0.820,-1000,478.980,285.000,86.580,-28.39,33.26,-55.96,-54.47,35.75,48.66
0.821,-1000,478.000,285.470,86.860,-28.38,33.28,-55.97,-54.46,35.73,48.66
0.822,-1000,477.010,285.940,87.150,-28.36,33.29,-55.98,-54.45,35.72,48.65
0.823,-1000,476.030,286.410,87.430,-28.35,33.3,-55.98,-54.44,35.71,48.64
0.824,-1000,475.040,286.880,87.710,-28.34,33.31,-55.99,-54.43,35.7,48.64
0.825,-1000,474.070,287.340,87.990,-28.32,33.32,-56,-54.42,35.68,48.63
0.826,-1000,473.100,287.800,88.270,-28.31,33.33,-56.01,-54.41,35.67,48.62
0.827,-1000,472.160,288.250,88.540,-28.29,33.35,-56.01,-54.4,35.66,48.62
0.828,-1000,470.910,288.830,88.900,-28.28,33.36,-56.02,-54.39,35.64,48.61
0.829,-1000,469.940,289.290,89.180,-28.27,33.37,-56.03,-54.38,35.63,48.61
0.830,-1000,468.970,289.750,89.460,-28.25,33.38,-56.04,-54.37,35.62,48.6
0.831,-1000,468.010,290.190,89.740,-28.24,33.39,-56.04,-54.36,35.61,48.59
0.832,-1000,467.040,290.650,90.020,-28.23,33.41,-56.05,-54.35,35.59,48.59
0.833,-1000,466.060,291.110,90.310,-28.21,33.42,-56.06,-54.34,35.58,48.58
0.834,-1000,465.100,291.550,90.580,-28.2,33.43,-56.07,-54.33,35.57,48.57
0.835,-1000,463.900,292.110,90.930,-28.18,33.44,-56.07,-54.32,35.55,48.57
0.836,-1000,462.910,292.570,91.220,-28.17,33.46,-56.08,-54.31,35.54,48.56
0.837,-1000,461.940,293.020,91.510,-28.16,33.47,-56.09,-54.3,35.53,48.56
0.838,-1000,460.960,293.470,91.790,-28.14,33.48,-56.1,-54.29,35.52,48.55
0.839,-1000,460.000,293.910,92.080,-28.13,33.49,-56.1,-54.28,35.5,48.54
0.840,-1000,459.030,294.360,92.360,-28.11,33.5,-56.11,-54.27,35.49,48.54
0.841,-1000,458.060,294.800,92.650,-28.1,33.51,-56.12,-54.26,35.47,48.53
0.842,-1000,457.100,295.240,92.930,-28.09,33.53,-56.13,-54.25,35.46,48.52
0.843,-1000,456.120,295.690,93.220,-28.07,33.54,-56.13,-54.24,35.45,48.52
0.844,-1000,455.120,296.140,93.520,-28.06,33.55,-56.14,-54.23,35.44,48.51
0.845,-1000,454.130,296.590,93.810,-28.05,33.57,-56.15,-54.21,35.42,48.51
0.846,-1000,453.140,297.040,94.100,-28.03,33.58,-56.16,-54.2,35.41,48.5
0.847,-1000,452.150,297.490,94.400,-28.02,33.59,-56.16,-54.19,35.4,48.49
0.848,-1000,451.160,297.940,94.690,-28,33.6,-56.17,-54.18,35.38,48.49
0.849,-1000,449.890,298.510,95.070,-27.99,33.61,-56.18,-54.17,35.37,48.48
0.850,-1000,448.900,298.950,95.370,-27.98,33.63,-56.19,-54.16,35.36,48.47
0.851,-1000,447.930,299.390,95.660,-27.96,33.64,-56.19,-54.15,35.34,48.47
0.852,-1000,446.970,299.820,95.950,-27.95,33.65,-56.2,-54.14,35.33,48.46
0.853,-1000,446.010,300.250,96.230,-27.93,33.66,-56.21,-54.13,35.32,48.45
0.854,-1000,445.040,300.680,96.530,-27.92,33.67,-56.22,-54.12,35.31,48.45
0.855,-1000,444.060,301.120,96.820,-27.9,33.69,-56.22,-54.11,35.29,48.44
0.856,-1000,443.090,301.550,97.110,-27.89,33.7,-56.23,-54.1,35.28,48.43
0.857,-1000,442.100,301.980,97.410,-27.88,33.71,-56.24,-54.09,35.26,48.43
0.858,-1000,441.130,302.420,97.710,-27.86,33.73,-56.25,-54.07,35.25,48.42
0.859,-1000,439.880,302.960,98.080,-27.85,33.74,-56.25,-54.06,35.24,48.41
0.860,-1000,438.910,303.390,98.380,-27.84,33.75,-56.26,-54.05,35.22,48.41
0.861,-1000,437.920,303.820,98.680,-27.82,33.76,-56.27,-54.04,35.21,48.4
0.862,-1000,436.930,304.260,98.980,-27.81,33.77,-56.28,-54.03,35.2,48.39
0.863,-1000,435.960,304.680,99.270,-27.79,33.79,-56.28,-54.02,35.18,48.39
0.864,-1000,434.980,305.110,99.570,-27.78,33.8,-56.29,-54.01,35.17,48.38
0.865,-1000,434.000,305.540,99.870,-27.76,33.81,-56.3,-54,35.16,48.37
0.866,-1000,433.020,305.960,100.170,-27.75,33.82,-56.31,-53.99,35.14,48.36
0.867,-1000,432.040,306.380,100.470,-27.73,33.84,-56.32,-53.98,35.13,48.36
0.868,-1000,431.080,306.800,100.770,-27.72,33.85,-56.32,-53.96,35.11,48.35
0.869,-1000,430.100,307.220,101.070,-27.7,33.86,-56.33,-53.95,35.1,48.34
0.870,-1000,429.110,307.640,101.370,-27.69,33.88,-56.34,-53.94,35.09,48.34
0.871,-1000,427.850,308.180,101.760,-27.68,33.89,-56.35,-53.93,35.07,48.33
0.872,-1000,426.870,308.600,102.060,-27.66,33.9,-56.36,-53.92,35.06,48.32
0.873,-1000,425.890,309.020,102.360,-27.65,33.91,-56.36,-53.91,35.05,48.32
0.874,-1000,424.910,309.440,102.670,-27.63,33.93,-56.37,-53.9,35.03,48.31
0.875,-1000,423.940,309.850,102.970,-27.62,33.94,-56.38,-53.89,35.02,48.3
0.876,-1000,422.950,310.270,103.270,-27.6,33.95,-56.39,-53.87,35.01,48.3
0.877,-1000,421.980,310.680,103.570,-27.59,33.96,-56.4,-53.86,34.99,48.29
0.878,-1000,420.990,311.090,103.880,-27.57,33.97,-56.4,-53.85,34.98,48.28
0.879,-1000,419.980,311.520,104.200,-27.56,33.99,-56.41,-53.84,34.96,48.27
0.880,-1000,418.980,311.940,104.510,-27.55,34,-56.42,-53.83,34.95,48.27
0.881,-1000,417.980,312.360,104.820,-27.53,34.01,-56.43,-53.82,34.94,48.26
0.882,-1000,416.990,312.770,105.130,-27.51,34.03,-56.43,-53.81,34.92,48.25
0.883,-1000,415.980,313.190,105.450,-27.5,34.04,-56.44,-53.79,34.91,48.25
0.884,-1000,414.980,313.610,105.760,-27.48,34.05,-56.45,-53.78,34.89,48.24
0.885,-1000,413.980,314.020,106.080,-27.47,34.06,-56.46,-53.77,34.88,48.23
0.886,-1000,412.980,314.440,106.390,-27.45,34.08,-56.47,-53.76,34.87,48.22
0.887,-1000,411.980,314.850,106.700,-27.44,34.09,-56.47,-53.75,34.85,48.22
0.888,-1000,410.980,315.260,107.020,-27.42,34.1,-56.48,-53.74,34.84,48.21
0.889,-1000,409.980,315.670,107.340,-27.41,34.12,-56.49,-53.72,34.82,48.2
0.890,-1000,408.970,316.080,107.650,-27.39,34.13,-56.5,-53.71,34.81,48.19
0.891,-1000,407.980,316.490,107.970,-27.38,34.14,-56.5,-53.7,34.8,48.19
0.892,-1000,406.990,316.890,108.280,-27.36,34.15,-56.51,-53.69,34.78,48.18
0.893,-1000,405.990,317.300,108.600,-27.35,34.17,-56.52,-53.68,34.77,48.17
0.894,-1000,405.020,317.690,108.910,-27.33,34.18,-56.53,-53.67,34.75,48.16
0.895,-1000,404.020,318.090,109.220,-27.32,34.19,-56.54,-53.65,34.74,48.16
0.896,-1000,403.060,318.480,109.530,-27.3,34.21,-56.54,-53.64,34.72,48.15
0.897,-1000,401.840,318.970,109.920,-27.29,34.22,-56.55,-53.63,34.71,48.14
0.898,-1000,400.870,319.360,110.230,-27.27,34.23,-56.56,-53.62,34.69,48.13
0.899,-1000,399.900,319.750,110.540,-27.26,34.24,-56.57,-53.6,34.68,48.13
0.900,-1000,398.940,320.140,110.850,-27.24,34.26,-56.57,-53.59,34.67,48.12
0.901,-1000,397.960,320.530,111.160,-27.23,34.27,-56.58,-53.58,34.65,48.11
0.902,-1000,397.000,320.910,111.460,-27.21,34.28,-56.59,-53.57,34.64,48.1
0.903,-1000,396.060,321.280,111.770,-27.2,34.3,-56.6,-53.55,34.62,48.09
0.904,-1000,395.070,321.670,112.090,-27.18,34.31,-56.61,-53.54,34.61,48.09
0.905,-1000,393.810,322.170,112.490,-27.17,34.32,-56.61,-53.53,34.59,48.08
0.906,-1000,392.820,322.560,112.810,-27.15,34.34,-56.62,-53.52,34.58,48.07
0.907,-1000,391.840,322.940,113.130,-27.14,34.35,-56.63,-53.51,34.56,48.06
0.908,-1000,390.870,323.320,113.440,-27.12,34.36,-56.64,-53.49,34.55,48.06
0.909,-1000,389.910,323.700,113.750,-27.11,34.37,-56.65,-53.48,34.54,48.05
0.910,-1000,388.960,324.070,114.060,-27.09,34.39,-56.66,-53.47,34.52,48.04
0.911,-1000,387.990,324.440,114.370,-27.07,34.4,-56.66,-53.46,34.5,48.03
0.912,-1000,387.030,324.820,114.680,-27.06,34.42,-56.67,-53.44,34.49,48.02
0.913,-1000,386.060,325.190,115.000,-27.04,34.43,-56.68,-53.43,34.48,48.02
0.914,-1000,384.810,325.670,115.410,-27.03,34.44,-56.69,-53.42,34.46,48.01
0.915,-1000,383.830,326.050,115.730,-27.01,34.45,-56.69,-53.41,34.45,48
0.916,-1000,382.850,326.420,116.050,-27,34.47,-56.7,-53.39,34.43,47.99
0.917,-1000,381.890,326.790,116.360,-26.98,34.48,-56.71,-53.38,34.42,47.99
0.918,-1000,380.920,327.160,116.680,-26.97,34.49,-56.72,-53.37,34.41,47.98
0.919,-1000,379.940,327.540,117.000,-26.95,34.5,-56.73,-53.36,34.39,47.97
0.920,-1000,378.960,327.910,117.320,-26.93,34.52,-56.74,-53.35,34.38,47.96
0.921,-1000,377.970,328.280,117.640,-26.91,34.53,-56.74,-53.33,34.36,47.95
0.922,-1000,377.000,328.650,117.960,-26.9,34.54,-56.75,-53.32,34.34,47.94
0.923,-1000,376.010,329.020,118.290,-26.88,34.56,-56.76,-53.3,34.33,47.94
0.924,-1000,375.040,329.390,118.610,-26.87,34.57,-56.77,-53.29,34.31,47.93
0.925,-1000,374.060,329.750,118.930,-26.85,34.59,-56.77,-53.28,34.3,47.92
0.926,-1000,372.780,330.230,119.350,-26.84,34.6,-56.78,-53.27,34.28,47.91
0.927,-1000,371.800,330.600,119.680,-26.82,34.61,-56.79,-53.25,34.27,47.9
0.928,-1000,370.840,330.950,119.990,-26.81,34.62,-56.8,-53.24,34.26,47.9
0.929,-1000,369.890,331.300,120.310,-26.79,34.64,-56.81,-53.23,34.24,47.89
0.930,-1000,368.960,331.650,120.620,-26.77,34.65,-56.82,-53.22,34.22,47.88
0.931,-1000,368.000,332.000,120.940,-26.76,34.67,-56.82,-53.2,34.21,47.87
0.932,-1000,366.770,332.450,121.340,-26.74,34.68,-56.83,-53.19,34.2,47.86
0.933,-1000,365.810,332.800,121.660,-26.73,34.69,-56.84,-53.18,34.18,47.85
0.934,-1000,364.840,333.160,121.980,-26.71,34.7,-56.85,-53.16,34.17,47.85
0.935,-1000,363.880,333.510,122.310,-26.69,34.72,-56.85,-53.15,34.15,47.84
0.936,-1000,362.910,333.860,122.630,-26.67,34.73,-56.86,-53.14,34.14,47.83
0.937,-1000,361.950,334.210,122.950,-26.66,34.75,-56.87,-53.13,34.12,47.82
0.938,-1000,360.760,334.640,123.350,-26.64,34.76,-56.88,-53.11,34.1,47.81
0.939,-1000,359.800,334.980,123.670,-26.63,34.77,-56.89,-53.1,34.09,47.8
0.940,-1000,358.840,335.330,123.990,-26.61,34.78,-56.9,-53.09,34.08,47.79
0.941,-1000,357.910,335.660,124.300,-26.59,34.8,-56.9,-53.07,34.06,47.78
0.942,-1000,356.970,336.000,124.620,-26.58,34.81,-56.91,-53.06,34.04,47.78
0.943,-1000,356.010,336.340,124.940,-26.56,34.83,-56.92,-53.05,34.03,47.77
0.944,-1000,354.780,336.780,125.360,-26.55,34.84,-56.93,-53.03,34.01,47.76
0.945,-1000,353.820,337.120,125.680,-26.53,34.85,-56.94,-53.02,34,47.75
0.946,-1000,352.890,337.450,125.990,-26.51,34.86,-56.95,-53.01,33.99,47.74
0.947,-1000,351.950,337.780,126.310,-26.5,34.88,-56.95,-52.99,33.97,47.73
0.948,-1000,351.000,338.110,126.630,-26.48,34.89,-56.96,-52.98,33.95,47.72
0.949,-1000,349.750,338.550,127.050,-26.47,34.91,-56.97,-52.96,33.94,47.72
0.950,-1000,348.780,338.890,127.380,-26.45,34.92,-56.98,-52.95,33.92,47.71
0.951,-1000,347.820,339.220,127.710,-26.43,34.93,-56.98,-52.94,33.91,47.7
0.952,-1000,346.880,339.550,128.030,-26.41,34.94,-56.99,-52.93,33.89,47.69
0.953,-1000,345.920,339.880,128.350,-26.4,34.96,-57,-52.91,33.88,47.68
0.954,-1000,344.980,340.210,128.670,-26.38,34.97,-57.01,-52.9,33.86,47.67
0.955,-1000,344.010,340.540,129.000,-26.37,34.99,-57.02,-52.88,33.85,47.66
0.956,-1000,342.750,340.970,129.430,-26.35,35,-57.03,-52.87,33.83,47.65
0.957,-1000,341.810,341.300,129.750,-26.34,35.01,-57.03,-52.86,33.82,47.64
0.958,-1000,340.860,341.620,130.080,-26.32,35.03,-57.04,-52.84,33.8,47.64
0.959,-1000,339.910,341.940,130.400,-26.3,35.04,-57.05,-52.83,33.78,47.63
0.960,-1000,338.990,342.260,130.720,-26.28,35.05,-57.06,-52.81,33.77,47.62
0.961,-1000,337.750,342.670,131.140,-26.27,35.07,-57.07,-52.8,33.75,47.61
0.962,-1000,336.780,343.000,131.480,-26.25,35.08,-57.07,-52.79,33.74,47.6
0.963,-1000,335.830,343.320,131.800,-26.24,35.09,-57.08,-52.78,33.72,47.59
0.964,-1000,334.880,343.640,132.130,-26.22,35.11,-57.09,-52.76,33.7,47.58
0.965,-1000,333.930,343.960,132.450,-26.2,35.12,-57.1,-52.74,33.69,47.57
0.966,-1000,332.970,344.280,132.780,-26.18,35.14,-57.11,-52.73,33.67,47.56
0.967,-1000,331.990,344.600,133.120,-26.17,35.15,-57.12,-52.72,33.66,47.55
0.968,-1000,330.760,345.010,133.550,-26.15,35.16,-57.12,-52.7,33.64,47.54
0.969,-1000,329.780,345.330,133.880,-26.13,35.18,-57.13,-52.69,33.63,47.53
0.970,-1000,328.830,345.650,134.210,-26.12,35.19,-57.14,-52.68,33.61,47.53
0.971,-1000,327.870,345.960,134.540,-26.1,35.2,-57.15,-52.66,33.6,47.52
0.972,-1000,326.900,346.280,134.880,-26.08,35.21,-57.16,-52.65,33.58,47.51
0.973,-1000,325.920,346.600,135.220,-26.07,35.23,-57.17,-52.64,33.56,47.5
0.974,-1000,324.940,346.920,135.560,-26.05,35.24,-57.17,-52.62,33.55,47.49
0.975,-1000,323.960,347.240,135.900,-26.03,35.26,-57.18,-52.61,33.53,47.48
0.976,-1000,322.740,347.630,136.320,-26.02,35.27,-57.19,-52.59,33.52,47.47
0.977,-1000,321.790,347.940,136.650,-26,35.28,-57.2,-52.58,33.5,47.46
0.978,-1000,320.810,348.250,136.990,-25.98,35.3,-57.21,-52.56,33.49,47.45
0.979,-1000,319.870,348.550,137.320,-25.96,35.31,-57.22,-52.55,33.47,47.44
0.980,-1000,318.950,348.850,137.640,-25.95,35.33,-57.22,-52.53,33.45,47.43
0.981,-1000,317.720,349.240,138.070,-25.93,35.34,-57.23,-52.52,33.44,47.42
0.982,-1000,316.720,349.560,138.420,-25.91,35.35,-57.24,-52.51,33.42,47.41
0.983,-1000,315.750,349.860,138.760,-25.9,35.37,-57.25,-52.49,33.41,47.4
0.984,-1000,314.800,350.160,139.090,-25.88,35.38,-57.25,-52.48,33.39,47.39
0.985,-1000,313.870,350.450,139.420,-25.86,35.39,-57.26,-52.46,33.37,47.38
0.986,-1000,312.940,350.750,139.740,-25.84,35.41,-57.27,-52.45,33.36,47.37
0.987,-1000,311.710,351.130,140.180,-25.83,35.42,-57.28,-52.43,33.34,47.36
0.988,-1000,310.750,351.430,140.510,-25.81,35.43,-57.29,-52.42,33.33,47.35
0.989,-1000,309.800,351.720,140.850,-25.8,35.45,-57.3,-52.4,33.31,47.34
0.990,-1000,308.850,352.020,141.180,-25.77,35.46,-57.31,-52.39,33.29,47.33
0.991,-1000,307.880,352.320,141.520,-25.76,35.48,-57.31,-52.38,33.28,47.32
0.992,-1000,306.910,352.620,141.870,-25.74,35.49,-57.32,-52.36,33.26,47.31
0.993,-1000,305.930,352.920,142.210,-25.72,35.5,-57.33,-52.34,33.25,47.3
0.994,-1000,304.680,353.300,142.650,-25.71,35.52,-57.34,-52.33,33.23,47.29
0.995,-1000,303.720,353.590,142.990,-25.69,35.53,-57.35,-52.32,33.22,47.28
0.996,-1000,302.780,353.880,143.330,-25.67,35.54,-57.35,-52.3,33.2,47.27
0.997,-1000,301.800,354.170,143.670,-25.66,35.56,-57.36,-52.29,33.18,47.26
0.998,-1000,300.810,354.470,144.020,-25.64,35.57,-57.37,-52.27,33.17,47.25
0.999,-1000,299.850,354.760,144.360,-25.62,35.58,-57.38,-52.26,33.15,47.24
0.100,-1000,298.880,355.050,144.710,-25.6,35.6,-57.39,-52.24,33.13,47.23
0.100,-1000,297.680,355.400,145.130,-25.59,35.61,-57.4,-52.23,33.12,47.22
0.100,-1000,296.720,355.690,145.480,-25.57,35.63,-57.4,-52.21,33.1,47.21
0.100,-1000,295.780,355.970,145.810,-25.55,35.64,-57.41,-52.2,33.09,47.2
0.100,-1000,294.840,356.250,146.140,-25.53,35.65,-57.42,-52.18,33.07,47.19
0.101,-1000,293.890,356.530,146.480,-25.51,35.67,-57.43,-52.16,33.05,47.18
0.101,-1000,292.920,356.810,146.830,-25.5,35.68,-57.44,-52.15,33.04,47.17
0.101,-1000,291.690,357.170,147.270,-25.48,35.7,-57.45,-52.13,33.02,47.16
0.101,-1000,290.740,357.450,147.610,-25.46,35.71,-57.45,-52.12,33,47.15
0.101,-1000,289.790,357.720,147.950,-25.44,35.72,-57.46,-52.11,32.99,47.14
0.101,-1000,288.860,357.990,148.280,-25.43,35.74,-57.47,-52.09,32.97,47.13
0.101,-1000,287.660,358.340,148.710,-25.41,35.75,-57.48,-52.07,32.95,47.12
0.101,-1000,286.710,358.610,149.050,-25.39,35.77,-57.49,-52.06,32.94,47.11
0.101,-1000,285.760,358.880,149.390,-25.38,35.78,-57.49,-52.04,32.92,47.1
0.101,-1000,284.810,359.150,149.730,-25.35,35.79,-57.5,-52.03,32.9,47.09
0.102,-1000,283.870,359.420,150.070,-25.34,35.81,-57.51,-52.01,32.89,47.08
0.102,-1000,282.920,359.690,150.410,-25.32,35.82,-57.52,-52,32.87,47.07
0.102,-1000,281.710,360.030,150.850,-25.3,35.83,-57.53,-51.98,32.86,47.06
0.102,-1000,280.770,360.300,151.180,-25.28,35.85,-57.54,-51.97,32.84,47.05
0.102,-1000,279.820,360.560,151.530,-25.27,35.86,-57.55,-51.95,32.82,47.03
0.102,-1000,278.850,360.830,151.880,-25.25,35.88,-57.55,-51.93,32.81,47.02
0.102,-1000,277.910,361.100,152.220,-25.23,35.89,-57.56,-51.92,32.79,47.01
0.102,-1000,276.710,361.430,152.650,-25.22,35.9,-57.57,-51.9,32.77,47
0.102,-1000,275.770,361.690,152.990,-25.19,35.92,-57.58,-51.89,32.76,46.99
0.102,-1000,274.810,361.950,153.340,-25.18,35.93,-57.59,-51.87,32.74,46.98
0.103,-1000,273.840,362.220,153.690,-25.16,35.95,-57.59,-51.86,32.72,46.97
0.103,-1000,272.880,362.480,154.030,-25.14,35.96,-57.6,-51.84,32.71,46.96
0.103,-1000,271.670,362.810,154.480,-25.13,35.97,-57.61,-51.82,32.69,46.95
0.103,-1000,270.730,363.070,154.820,-25.11,35.99,-57.62,-51.81,32.68,46.94
0.103,-1000,269.790,363.320,155.160,-25.09,36,-57.63,-51.8,32.66,46.92
0.103,-1000,268.840,363.580,155.500,-25.07,36.02,-57.64,-51.78,32.64,46.91
0.103,-1000,267.890,363.830,155.850,-25.05,36.03,-57.64,-51.76,32.62,46.9
0.103,-1000,266.650,364.160,156.300,-25.04,36.04,-57.65,-51.75,32.61,46.89
0.103,-1000,265.710,364.410,156.640,-25.02,36.06,-57.66,-51.73,32.59,46.88
0.103,-1000,264.780,364.660,156.980,-25,36.07,-57.67,-51.72,32.57,46.87
0.104,-1000,263.860,364.900,157.320,-24.98,36.09,-57.68,-51.7,32.56,46.86
0.104,-1000,262.640,365.220,157.760,-24.96,36.1,-57.69,-51.68,32.54,46.85
0.104,-1000,261.670,365.480,158.120,-24.95,36.11,-57.69,-51.67,32.53,46.84
0.104,-1000,260.730,365.720,158.460,-24.93,36.13,-57.7,-51.65,32.51,46.83
0.104,-1000,259.770,365.970,158.810,-24.91,36.14,-57.71,-51.63,32.49,46.81
0.104,-1000,258.830,366.210,159.150,-24.89,36.16,-57.72,-51.62,32.47,46.8
0.104,-1000,257.870,366.460,159.510,-24.87,36.17,-57.73,-51.6,32.46,46.79
0.104,-1000,256.620,366.790,159.970,-24.85,36.18,-57.73,-51.58,32.44,46.78
0.104,-1000,255.660,367.030,160.320,-24.84,36.2,-57.74,-51.57,32.42,46.77
0.104,-1000,254.740,367.270,160.650,-24.81,36.21,-57.75,-51.55,32.4,46.76
0.105,-1000,253.810,367.500,161.000,-24.8,36.23,-57.76,-51.53,32.39,46.75
0.105,-1000,252.870,367.740,161.340,-24.78,36.24,-57.77,-51.52,32.37,46.73
0.105,-1000,251.640,368.050,161.800,-24.76,36.25,-57.78,-51.5,32.36,46.72
0.105,-1000,250.720,368.280,162.130,-24.74,36.27,-57.79,-51.49,32.34,46.71
0.105,-1000,249.760,368.520,162.490,-24.72,36.28,-57.79,-51.47,32.32,46.7
0.105,-1000,248.810,368.760,162.840,-24.71,36.3,-57.8,-51.45,32.3,46.69
0.105,-1000,247.590,369.060,163.290,-24.69,36.31,-57.81,-51.44,32.29,46.68
0.105,-1000,246.650,369.290,163.630,-24.67,36.32,-57.82,-51.42,32.27,46.67
0.105,-1000,245.710,369.530,163.980,-24.65,36.34,-57.83,-51.4,32.26,46.65
0.105,-1000,244.750,369.760,164.340,-24.63,36.35,-57.84,-51.39,32.24,46.64
0.106,-1000,243.830,369.990,164.680,-24.61,36.37,-57.84,-51.37,32.22,46.63
0.106,-1000,242.590,370.290,165.140,-24.6,36.38,-57.85,-51.35,32.2,46.62
0.106,-1000,241.640,370.520,165.490,-24.58,36.39,-57.86,-51.34,32.19,46.61
0.106,-1000,240.710,370.740,165.830,-24.56,36.4,-57.87,-51.32,32.17,46.6
0.106,-1000,239.750,370.970,166.190,-24.54,36.42,-57.88,-51.3,32.15,46.58
0.106,-1000,238.810,371.200,166.540,-24.52,36.44,-57.88,-51.28,32.13,46.57
0.106,-1000,237.580,371.490,167.000,-24.5,36.45,-57.89,-51.27,32.12,46.56
0.106,-1000,236.610,371.720,167.360,-24.49,36.46,-57.9,-51.25,32.1,46.55
0.106,-1000,235.650,371.950,167.710,-24.47,36.48,-57.91,-51.23,32.09,46.54
0.106,-1000,234.720,372.160,168.060,-24.45,36.49,-57.92,-51.22,32.07,46.52
0.107,-1000,233.790,372.380,168.400,-24.43,36.51,-57.93,-51.2,32.05,46.51
0.107,-1000,232.580,372.670,168.860,-24.41,36.52,-57.93,-51.18,32.03,46.5
0.107,-1000,231.620,372.890,169.210,-24.39,36.53,-57.94,-51.17,32.02,46.49
0.107,-1000,230.710,373.100,169.550,-24.37,36.54,-57.95,-51.15,32,46.48
0.107,-1000,229.770,373.310,169.900,-24.35,36.56,-57.96,-51.13,31.98,46.46
0.107,-1000,228.840,373.530,170.250,-24.34,36.57,-57.97,-51.11,31.96,46.45
0.107,-1000,227.580,373.810,170.720,-24.32,36.59,-57.97,-51.1,31.95,46.44
0.107,-1000,226.610,374.040,171.080,-24.3,36.6,-57.98,-51.08,31.93,46.43
0.107,-1000,225.670,374.250,171.440,-24.28,36.61,-57.99,-51.06,31.91,46.41
0.107,-1000,224.760,374.450,171.780,-24.26,36.63,-58,-51.04,31.89,46.4
0.108,-1000,223.840,374.660,172.120,-24.24,36.64,-58.01,-51.03,31.88,46.39
0.108,-1000,222.590,374.940,172.590,-24.22,36.66,-58.02,-51.01,31.86,46.38
0.108,-1000,221.660,375.150,172.940,-24.2,36.67,-58.03,-50.99,31.85,46.36
0.108,-1000,220.750,375.350,173.280,-24.18,36.69,-58.03,-50.97,31.83,46.35
0.108,-1000,219.800,375.560,173.640,-24.17,36.7,-58.04,-50.96,31.81,46.34
0.108,-1000,218.830,375.770,174.000,-24.15,36.71,-58.05,-50.94,31.79,46.33
0.108,-1000,217.590,376.040,174.470,-24.13,36.73,-58.06,-50.92,31.78,46.31
0.108,-1000,216.650,376.240,174.820,-24.11,36.74,-58.06,-50.91,31.76,46.3
0.108,-1000,215.720,376.450,175.170,-24.09,36.75,-58.07,-50.89,31.74,46.29
0.108,-1000,214.780,376.650,175.520,-24.07,36.77,-58.08,-50.87,31.72,46.27
0.109,-1000,213.540,376.910,175.990,-24.05,36.78,-58.09,-50.85,31.71,46.26
0.109,-1000,212.590,377.110,176.350,-24.03,36.8,-58.1,-50.83,31.69,46.25
0.109,-1000,211.660,377.310,176.700,-24.01,36.81,-58.11,-50.82,31.67,46.24
0.109,-1000,210.710,377.510,177.060,-23.99,36.82,-58.12,-50.8,31.65,46.22
0.109,-1000,209.770,377.710,177.410,-23.98,36.84,-58.12,-50.78,31.64,46.21
0.109,-1000,208.540,377.970,177.880,-23.96,36.85,-58.13,-50.76,31.62,46.2
0.109,-1000,207.590,378.170,178.240,-23.94,36.87,-58.14,-50.75,31.6,46.19
0.109,-1000,206.640,378.360,178.600,-23.92,36.88,-58.15,-50.73,31.59,46.17
0.109,-1000,205.690,378.560,178.960,-23.9,36.89,-58.16,-50.71,31.56,46.16
0.109,-1000,204.740,378.750,179.310,-23.88,36.91,-58.16,-50.69,31.55,46.15
0.110,-1000,203.780,378.950,179.680,-23.86,36.92,-58.17,-50.67,31.53,46.13
0.110,-1000,202.580,379.190,180.130,-23.84,36.94,-58.18,-50.66,31.51,46.12
0.110,-1000,201.660,379.380,180.480,-23.82,36.95,-58.19,-50.64,31.49,46.11
0.110,-1000,200.740,379.560,180.830,-23.8,36.97,-58.2,-50.62,31.48,46.09
0.110,-1000,199.780,379.760,181.200,-23.78,36.98,-58.21,-50.6,31.46,46.08
0.110,-1000,198.530,380.000,181.670,-23.77,36.99,-58.21,-50.58,31.44,46.07
0.110,-1000,197.560,380.200,182.040,-23.75,37.01,-58.22,-50.56,31.43,46.05
0.110,-1000,196.630,380.380,182.400,-23.72,37.02,-58.23,-50.55,31.41,46.04
0.110,-1000,195.690,380.570,182.750,-23.71,37.03,-58.24,-50.53,31.39,46.03
0.110,-1000,194.750,380.750,183.110,-23.69,37.05,-58.25,-50.51,31.37,46.01
0.111,-1000,193.790,380.930,183.470,-23.67,37.06,-58.25,-50.49,31.36,46
0.111,-1000,192.560,381.170,183.950,-23.65,37.08,-58.26,-50.47,31.34,45.99
0.111,-1000,191.630,381.350,184.300,-23.63,37.09,-58.27,-50.45,31.32,45.98
0.111,-1000,190.700,381.530,184.650,-23.61,37.11,-58.28,-50.43,31.3,45.96
0.111,-1000,189.510,381.750,185.110,-23.59,37.12,-58.29,-50.42,31.29,45.95
0.111,-1000,188.550,381.940,185.470,-23.57,37.13,-58.3,-50.4,31.27,45.93
0.111,-1000,187.620,382.110,185.830,-23.55,37.15,-58.3,-50.38,31.25,45.92
0.111,-1000,186.680,382.290,186.190,-23.53,37.16,-58.31,-50.36,31.23,45.9
0.111,-1000,185.760,382.460,186.540,-23.51,37.18,-58.32,-50.34,31.21,45.89
0.111,-1000,184.500,382.690,187.020,-23.5,37.19,-58.33,-50.32,31.2,45.88
0.112,-1000,183.530,382.870,187.390,-23.48,37.2,-58.34,-50.3,31.18,45.86
0.112,-1000,182.600,383.040,187.750,-23.45,37.22,-58.35,-50.29,31.16,45.85
0.112,-1000,181.660,383.210,188.110,-23.44,37.23,-58.35,-50.26,31.14,45.84
0.112,-1000,180.740,383.380,188.460,-23.42,37.25,-58.36,-50.25,31.13,45.82
0.112,-1000,179.480,383.610,188.950,-23.4,37.26,-58.37,-50.23,31.11,45.81
0.112,-1000,178.500,383.780,189.320,-23.38,37.27,-58.38,-50.21,31.09,45.8
0.112,-1000,177.540,383.950,189.690,-23.36,37.29,-58.38,-50.19,31.07,45.78
0.112,-1000,176.600,384.120,190.050,-23.34,37.3,-58.39,-50.17,31.06,45.77
0.112,-1000,175.630,384.290,190.430,-23.32,37.31,-58.4,-50.15,31.04,45.75
0.112,-1000,174.670,384.460,190.790,-23.3,37.33,-58.41,-50.13,31.02,45.74
0.113,-1000,173.740,384.620,191.150,-23.28,37.34,-58.42,-50.11,31,45.72
0.113,-1000,172.480,384.840,191.640,-23.26,37.36,-58.43,-50.09,30.99,45.71
0.113,-1000,171.520,385.000,192.010,-23.24,37.37,-58.43,-50.08,30.97,45.7
0.113,-1000,170.600,385.160,192.360,-23.22,37.38,-58.44,-50.06,30.95,45.68
0.113,-1000,169.670,385.320,192.720,-23.2,37.4,-58.45,-50.04,30.93,45.67
0.113,-1000,168.490,385.520,193.170,-23.18,37.41,-58.46,-50.02,30.91,45.65
0.113,-1000,167.520,385.680,193.550,-23.16,37.43,-58.47,-50,30.9,45.64
0.113,-1000,166.610,385.830,193.900,-23.14,37.44,-58.48,-49.98,30.88,45.62
0.113,-1000,165.710,385.980,194.240,-23.12,37.46,-58.48,-49.96,30.86,45.61
0.113,-1000,164.460,386.190,194.730,-23.1,37.47,-58.49,-49.94,30.84,45.6
0.114,-1000,163.490,386.350,195.100,-23.08,37.48,-58.5,-49.92,30.83,45.58
0.114,-1000,162.560,386.500,195.460,-23.07,37.5,-58.51,-49.9,30.81,45.57
0.114,-1000,161.610,386.650,195.830,-23.04,37.51,-58.52,-49.88,30.79,45.55
0.114,-1000,160.660,386.810,196.190,-23.02,37.53,-58.52,-49.86,30.77,45.54
0.114,-1000,159.460,387.000,196.660,-23,37.54,-58.53,-49.84,30.75,45.52
0.114,-1000,158.490,387.150,197.040,-22.99,37.55,-58.54,-49.82,30.74,45.51
0.114,-1000,157.530,387.300,197.410,-22.97,37.57,-58.55,-49.8,30.72,45.5
0.114,-1000,156.590,387.450,197.770,-22.94,37.58,-58.56,-49.79,30.7,45.48
0.114,-1000,155.680,387.590,198.120,-22.92,37.59,-58.56,-49.76,30.68,45.46
0.114,-1000,154.450,387.780,198.600,-22.91,37.61,-58.57,-49.74,30.66,45.45
0.115,-1000,153.500,387.930,198.970,-22.89,37.62,-58.58,-49.72,30.65,45.44
0.115,-1000,152.560,388.070,199.330,-22.86,37.63,-58.59,-49.71,30.63,45.42
0.115,-1000,151.620,388.220,199.700,-22.84,37.65,-58.6,-49.68,30.61,45.4
0.115,-1000,150.440,388.400,200.160,-22.83,37.66,-58.6,-49.66,30.59,45.39
0.115,-1000,149.480,388.540,200.530,-22.81,37.68,-58.61,-49.64,30.57,45.38
0.115,-1000,148.540,388.680,200.900,-22.78,37.69,-58.62,-49.63,30.56,45.36
0.115,-1000,147.600,388.820,201.260,-22.76,37.71,-58.63,-49.6,30.54,45.34
0.115,-1000,146.670,388.960,201.620,-22.75,37.72,-58.64,-49.58,30.52,45.33
0.115,-1000,145.430,389.140,202.100,-22.73,37.73,-58.64,-49.56,30.5,45.32
0.115,-1000,144.460,389.280,202.480,-22.71,37.75,-58.65,-49.54,30.48,45.3
0.116,-1000,143.510,389.410,202.850,-22.69,37.76,-58.66,-49.52,30.47,45.29
0.116,-1000,142.560,389.550,203.220,-22.66,37.77,-58.67,-49.5,30.45,45.27
0.116,-1000,141.610,389.690,203.590,-22.64,37.79,-58.68,-49.48,30.43,45.25
0.116,-1000,140.680,389.820,203.950,-22.63,37.8,-58.68,-49.46,30.41,45.24
0.116,-1000,139.450,389.990,204.440,-22.61,37.82,-58.69,-49.44,30.39,45.22
0.116,-1000,138.490,390.120,204.810,-22.59,37.83,-58.7,-49.42,30.38,45.21
0.116,-1000,137.560,390.250,205.170,-22.56,37.84,-58.71,-49.4,30.36,45.19
0.116,-1000,136.660,390.370,205.530,-22.54,37.86,-58.72,-49.38,30.34,45.18
0.116,-1000,135.450,390.540,206.000,-22.53,37.87,-58.72,-49.36,30.32,45.16
0.116,-1000,134.500,390.670,206.370,-22.51,37.88,-58.73,-49.34,30.31,45.15
0.117,-1000,133.570,390.790,206.730,-22.48,37.9,-58.74,-49.32,30.28,45.13
0.117,-1000,132.630,390.920,207.100,-22.46,37.91,-58.75,-49.3,30.27,45.11
0.117,-1000,131.410,391.080,207.570,-22.44,37.93,-58.76,-49.28,30.25,45.1
0.117,-1000,130.450,391.200,207.950,-22.43,37.94,-58.76,-49.26,30.23,45.08
0.117,-1000,129.530,391.320,208.310,-22.4,37.95,-58.77,-49.24,30.22,45.07
0.117,-1000,128.600,391.440,208.680,-22.38,37.97,-58.78,-49.21,30.19,45.05
0.117,-1000,127.410,391.600,209.140,-22.36,37.98,-58.79,-49.19,30.18,45.04
0.117,-1000,126.450,391.720,209.520,-22.34,37.99,-58.8,-49.17,30.16,45.02
0.117,-1000,125.500,391.840,209.890,-22.32,38.01,-58.81,-49.15,30.14,45.01
0.117,-1000,124.570,391.950,210.250,-22.3,38.02,-58.81,-49.13,30.12,44.99
0.118,-1000,123.640,392.070,210.620,-22.28,38.04,-58.82,-49.11,30.1,44.97
0.118,-1000,122.410,392.220,211.100,-22.26,38.05,-58.83,-49.09,30.09,44.96
0.118,-1000,121.450,392.340,211.480,-22.24,38.06,-58.84,-49.07,30.07,44.94
0.118,-1000,120.530,392.450,211.840,-22.22,38.08,-58.84,-49.05,30.05,44.92
0.118,-1000,119.610,392.560,212.200,-22.2,38.09,-58.85,-49.02,30.03,44.91
0.118,-1000,118.400,392.700,212.680,-22.18,38.11,-58.86,-49,30.01,44.89
0.118,-1000,117.440,392.820,213.050,-22.16,38.12,-58.87,-48.98,30,44.88
0.118,-1000,116.520,392.920,213.410,-22.14,38.13,-58.88,-48.96,29.98,44.86
0.118,-1000,115.580,393.030,213.780,-22.12,38.15,-58.88,-48.94,29.96,44.84
0.118,-1000,114.390,393.170,214.250,-22.1,38.16,-58.89,-48.92,29.94,44.83
0.119,-1000,113.440,393.280,214.620,-22.08,38.17,-58.9,-48.9,29.92,44.81
0.119,-1000,112.490,393.390,215.000,-22.06,38.19,-58.91,-48.88,29.91,44.8
0.119,-1000,111.520,393.490,215.380,-22.04,38.2,-58.92,-48.86,29.88,44.78
0.119,-1000,110.600,393.600,215.740,-22.02,38.21,-58.92,-48.83,29.87,44.76
0.119,-1000,109.380,393.730,216.220,-22,38.23,-58.93,-48.81,29.85,44.75
0.119,-1000,108.430,393.830,216.600,-21.98,38.24,-58.94,-48.79,29.83,44.73
0.119,-1000,107.480,393.940,216.970,-21.95,38.25,-58.95,-48.77,29.82,44.71
0.119,-1000,106.530,394.040,217.340,-21.93,38.27,-58.95,-48.75,29.79,44.69
0.119,-1000,105.590,394.140,217.710,-21.91,38.28,-58.96,-48.72,29.78,44.68
0.119,-1000,104.370,394.270,218.200,-21.9,38.3,-58.97,-48.7,29.76,44.66
0.120,-1000,103.400,394.370,218.580,-21.88,38.31,-58.98,-48.68,29.74,44.65
0.120,-1000,102.470,394.460,218.940,-21.85,38.32,-58.99,-48.66,29.72,44.63
0.120,-1000,101.510,394.560,219.320,-21.83,38.34,-58.99,-48.64,29.7,44.61
0.120,-1000,100.580,394.650,219.690,-21.81,38.35,-59,-48.62,29.69,44.59
0.120,-1000,99.620,394.780,220.170,-21.79,38.36,-59.01,-48.59,29.67,44.58
0.120,-1000,98.390,394.870,220.550,-21.77,38.38,-59.02,-48.57,29.65,44.56
0.120,-1000,97.460,394.960,220.920,-21.75,38.39,-59.03,-48.55,29.63,44.55
0.120,-1000,96.530,395.050,221.290,-21.73,38.4,-59.03,-48.53,29.61,44.53
0.120,-1000,95.570,395.150,221.670,-21.71,38.42,-59.04,-48.51,29.59,44.51
0.120,-1000,94.610,395.240,222.050,-21.69,38.43,-59.05,-48.48,29.58,44.49
0.121,-1000,93.380,395.350,222.530,-21.67,38.45,-59.06,-48.46,29.56,44.48
0.121,-1000,92.430,395.440,222.910,-21.65,38.46,-59.06,-48.44,29.54,44.46
0.121,-1000,91.480,395.530,223.280,-21.63,38.47,-59.07,-48.42,29.52,44.44
0.121,-1000,90.540,395.610,223.660,-21.61,38.49,-59.08,-48.39,29.5,44.42
0.121,-1000,89.610,395.700,224.030,-21.59,38.5,-59.09,-48.37,29.48,44.41
0.121,-1000,88.390,395.810,224.510,-21.57,38.51,-59.09,-48.35,29.47,44.39
0.121,-1000,87.440,395.890,224.880,-21.55,38.53,-59.1,-48.33,29.45,44.37
0.121,-1000,86.490,395.970,225.260,-21.52,38.54,-59.11,-48.31,29.43,44.35
0.121,-1000,85.520,396.050,225.640,-21.5,38.56,-59.12,-48.28,29.41,44.34
0.121,-1000,84.580,396.140,226.020,-21.48,38.57,-59.13,-48.26,29.39,44.32
0.122,-1000,83.360,396.240,226.500,-21.46,38.58,-59.13,-48.24,29.38,44.3
0.122,-1000,82.400,396.320,226.880,-21.44,38.59,-59.14,-48.22,29.36,44.29
0.122,-1000,81.450,396.390,227.250,-21.42,38.61,-59.15,-48.2,29.34,44.27
0.122,-1000,80.500,396.470,227.630,-21.4,38.62,-59.16,-48.17,29.32,44.25
0.122,-1000,79.550,396.550,228.010,-21.38,38.64,-59.16,-48.15,29.3,44.23
0.122,-1000,78.340,396.640,228.490,-21.36,38.65,-59.17,-48.12,29.28,44.21
0.122,-1000,77.390,396.720,228.870,-21.34,38.66,-59.18,-48.1,29.27,44.2
0.122,-1000,76.460,396.790,229.240,-21.31,38.67,-59.19,-48.08,29.24,44.18
0.122,-1000,75.510,396.860,229.610,-21.29,38.69,-59.2,-48.06,29.23,44.16
0.122,-1000,74.560,396.930,229.990,-21.27,38.7,-59.2,-48.03,29.21,44.14
0.123,-1000,73.340,397.020,230.480,-21.25,38.72,-59.21,-48.01,29.19,44.12
0.123,-1000,72.390,397.090,230.850,-21.23,38.73,-59.22,-47.99,29.17,44.11
0.123,-1000,71.450,397.160,231.230,-21.21,38.74,-59.23,-47.97,29.15,44.09
0.123,-1000,70.510,397.230,231.600,-21.19,38.76,-59.23,-47.94,29.14,44.07
0.123,-1000,69.580,397.290,231.970,-21.17,38.77,-59.24,-47.92,29.12,44.05
0.123,-1000,68.340,397.380,232.460,-21.15,38.78,-59.25,-47.89,29.1,44.03
0.123,-1000,67.380,397.440,232.840,-21.13,38.8,-59.26,-47.87,29.08,44.02
0.123,-1000,66.420,397.510,233.220,-21.11,38.81,-59.26,-47.85,29.06,44
0.123,-1000,65.440,397.570,233.610,-21.09,38.82,-59.27,-47.83,29.04,43.98
0.123,-1000,64.500,397.630,233.990,-21.07,38.84,-59.28,-47.8,29.03,43.96
0.124,-1000,63.310,397.710,234.460,-21.05,38.85,-59.29,-47.78,29.01,43.94
0.124,-1000,62.340,397.770,234.850,-21.03,38.86,-59.29,-47.76,28.99,43.92
0.124,-1000,61.390,397.830,235.220,-21.01,38.88,-59.3,-47.73,28.97,43.91
0.124,-1000,60.440,397.890,235.600,-20.98,38.89,-59.31,-47.71,28.95,43.89
0.124,-1000,59.530,397.940,235.960,-20.96,38.9,-59.32,-47.68,28.93,43.87
0.124,-1000,58.300,398.010,236.450,-20.94,38.92,-59.32,-47.66,28.92,43.85
0.124,-1000,57.350,398.070,236.830,-20.92,38.93,-59.33,-47.64,28.9,43.83
0.124,-1000,56.410,398.120,237.210,-20.9,38.94,-59.34,-47.62,28.88,43.81
0.124,-1000,55.490,398.170,237.570,-20.88,38.96,-59.35,-47.59,28.86,43.79
0.124,-1000,54.550,398.220,237.950,-20.86,38.97,-59.35,-47.56,28.84,43.77
0.125,-1000,53.300,398.290,238.440,-20.84,38.98,-59.36,-47.54,28.82,43.76
0.125,-1000,52.340,398.340,238.830,-20.82,39,-59.37,-47.52,28.81,43.74
0.125,-1000,51.410,398.390,239.200,-20.79,39.01,-59.38,-47.5,28.79,43.72
0.125,-1000,50.480,398.440,239.570,-20.77,39.02,-59.39,-47.47,28.77,43.7
0.125,-1000,49.290,398.500,240.040,-20.75,39.04,-59.39,-47.45,28.75,43.68
0.125,-1000,48.330,398.540,240.420,-20.73,39.05,-59.4,-47.42,28.73,43.66
0.125,-1000,47.400,398.590,240.790,-20.71,39.06,-59.41,-47.4,28.72,43.64
0.125,-1000,46.440,398.630,241.180,-20.69,39.07,-59.42,-47.38,28.69,43.62
0.125,-1000,45.490,398.680,241.560,-20.67,39.09,-59.42,-47.35,28.68,43.6
0.125,-1000,44.540,398.720,241.940,-20.65,39.1,-59.43,-47.33,28.66,43.58
0.126,-1000,43.280,398.780,242.440,-20.63,39.11,-59.44,-47.3,28.64,43.57
0.126,-1000,42.320,398.820,242.820,-20.61,39.13,-59.44,-47.28,28.62,43.55
0.126,-1000,41.370,398.860,243.200,-20.58,39.14,-59.45,-47.26,28.61,43.53
0.126,-1000,40.440,398.890,243.570,-20.56,39.15,-59.46,-47.23,28.58,43.51
0.126,-1000,39.500,398.930,243.950,-20.54,39.17,-59.47,-47.2,28.57,43.49
0.126,-1000,38.260,398.980,244.440,-20.52,39.18,-59.47,-47.18,28.55,43.47
0.126,-1000,37.310,399.020,244.820,-20.5,39.19,-59.48,-47.16,28.53,43.45
0.126,-1000,36.370,399.050,245.190,-20.47,39.21,-59.49,-47.13,28.51,43.43
0.126,-1000,35.450,399.080,245.560,-20.46,39.22,-59.5,-47.1,28.49,43.41
0.126,-1000,34.260,399.130,246.030,-20.44,39.23,-59.5,-47.08,28.47,43.39
0.127,-1000,33.300,399.160,246.420,-20.41,39.25,-59.51,-47.06,28.46,43.37
0.127,-1000,32.360,399.190,246.790,-20.39,39.26,-59.52,-47.03,28.44,43.35
0.127,-1000,31.430,399.220,247.160,-20.37,39.27,-59.53,-47.01,28.42,43.33
0.127,-1000,30.520,399.250,247.530,-20.35,39.29,-59.53,-46.98,28.4,43.31
0.127,-1000,29.290,399.280,248.020,-20.33,39.3,-59.54,-46.96,28.38,43.29
0.127,-1000,28.370,399.310,248.390,-20.31,39.31,-59.55,-46.94,28.36,43.27
0.127,-1000,27.450,399.340,248.760,-20.29,39.32,-59.56,-46.91,28.34,43.25
0.127,-1000,26.260,399.370,249.230,-20.27,39.34,-59.56,-46.88,28.33,43.23
0.127,-1000,25.310,399.390,249.610,-20.25,39.35,-59.57,-46.86,28.31,43.21
0.127,-1000,24.370,399.420,249.980,-20.22,39.36,-59.58,-46.84,28.29,43.19
0.128,-1000,23.440,399.440,250.350,-20.2,39.38,-59.59,-46.81,28.27,43.17
0.128,-1000,22.240,399.460,250.840,-20.18,39.39,-59.59,-46.78,28.25,43.15
0.128,-1000,21.280,399.490,251.220,-20.16,39.4,-59.6,-46.76,28.24,43.13
0.128,-1000,20.350,399.500,251.590,-20.14,39.41,-59.61,-46.74,28.21,43.11
0.128,-1000,19.440,399.520,251.950,-20.12,39.43,-59.61,-46.71,28.2,43.09
0.128,-1000,18.260,399.550,252.430,-20.1,39.44,-59.62,-46.68,28.18,43.07
0.128,-1000,17.310,399.560,252.810,-20.08,39.45,-59.63,-46.66,28.16,43.05
0.128,-1000,16.380,399.580,253.180,-20.05,39.46,-59.64,-46.64,28.14,43.03
0.128,-1000,15.450,399.590,253.550,-20.03,39.48,-59.64,-46.61,28.12,43.01
0.128,-1000,14.480,399.610,253.940,-20.01,39.49,-59.65,-46.58,28.11,42.99
0.129,-1000,13.270,399.620,254.420,-19.99,39.5,-59.66,-46.56,28.09,42.97
0.129,-1000,12.360,399.640,254.780,-19.97,39.52,-59.67,-46.53,28.07,42.94
0.129,-1000,11.420,399.650,255.160,-19.95,39.53,-59.67,-46.5,28.05,42.93
0.129,-1000,10.240,399.660,255.630,-19.93,39.54,-59.68,-46.48,28.03,42.91
0.129,-1000,9.280,399.670,256.020,-19.9,39.56,-59.69,-46.45,28.02,42.89
0.129,-1000,8.360,399.680,256.380,-19.88,39.57,-59.69,-46.43,27.99,42.87
0.129,-1000,7.410,399.680,256.760,-19.86,39.58,-59.7,-46.41,27.98,42.84
0.129,-1000,6.210,399.690,257.240,-19.84,39.6,-59.71,-46.38,27.96,42.82
0.129,-1000,5.260,399.700,257.620,-19.82,39.61,-59.72,-46.35,27.94,42.8
0.129,-1000,4.340,399.700,257.990,-19.79,39.62,-59.72,-46.33,27.92,42.78
0.130,-1000,3.420,399.710,258.350,-19.77,39.63,-59.73,-46.3,27.9,42.76
0.130,-1000,2.240,399.710,258.830,-19.75,39.65,-59.74,-46.27,27.89,42.74
0.130,-1000,1.300,399.710,259.200,-19.73,39.66,-59.74,-46.25,27.87,42.72
0.130,-1000,0.370,399.710,259.570,-19.71,39.67,-59.75,-46.22,27.85,42.69
0.130,0,0.000,399.710,260.030,-19.69,39.68,-59.76,-46.19,27.83,42.68
0.130,0,0.000,399.710,260.430,-19.67,39.7,-59.77,-46.17,27.81,42.65
0.130,0,0.000,399.710,260.810,-19.64,39.71,-59.77,-46.14,27.79,42.63
0.130,0,0.000,399.710,261.220,-19.62,39.72,-59.78,-46.12,27.77,42.61
0.130,0,0.000,399.710,261.620,-19.6,39.73,-59.79,-46.09,27.76,42.59
0.130,0,0.000,399.710,262.020,-19.58,39.75,-59.8,-46.06,27.74,42.57
0.131,0,0.000,399.710,262.420,-19.56,39.76,-59.8,-46.04,27.72,42.54
0.131,0,0.000,399.710,262.820,-19.54,39.77,-59.81,-46.01,27.7,42.52
0.131,0,0.000,399.710,263.230,-19.52,39.78,-59.82,-45.98,27.68,42.5
0.131,0,0.000,399.710,263.630,-19.49,39.8,-59.82,-45.96,27.66,42.48
0.131,0,0.000,399.710,264.030,-19.47,39.81,-59.83,-45.93,27.65,42.46
0.131,0,0.000,399.710,264.430,-19.45,39.82,-59.84,-45.91,27.63,42.44
0.131,0,0.000,399.710,264.830,-19.43,39.84,-59.84,-45.88,27.61,42.42
0.131,0,0.000,399.710,265.230,-19.41,39.85,-59.85,-45.85,27.59,42.4
0.131,0,0.000,399.710,265.640,-19.39,39.86,-59.86,-45.82,27.57,42.37
0.131,0,0.000,399.710,266.040,-19.37,39.87,-59.86,-45.8,27.56,42.35
0.132,0,0.000,399.710,266.450,-19.35,39.89,-59.87,-45.77,27.54,42.33
0.132,0,0.000,399.710,266.840,-19.33,39.9,-59.88,-45.74,27.52,42.31
0.132,0,0.000,399.710,267.240,-19.3,39.91,-59.89,-45.72,27.5,42.29
0.132,0,0.000,399.710,267.650,-19.28,39.92,-59.89,-45.69,27.48,42.26
0.132,0,0.000,399.710,267.990,-19.26,39.94,-59.9,-45.66,27.46,42.24
0.132,0,0.000,399.710,268.400,-19.24,39.95,-59.91,-45.64,27.45,42.22
0.132,0,0.000,399.710,268.810,-19.22,39.96,-59.91,-45.61,27.43,42.2
0.132,0,0.000,399.710,269.210,-19.19,39.97,-59.92,-45.58,27.41,42.17
0.132,0,0.000,399.710,269.620,-19.17,39.98,-59.93,-45.55,27.39,42.15
0.132,0,0.000,399.710,270.020,-19.15,40,-59.94,-45.53,27.37,42.13
0.133,0,0.000,399.710,270.420,-19.13,40.01,-59.94,-45.5,27.35,42.11
0.133,0,0.000,399.710,270.810,-19.11,40.02,-59.95,-45.47,27.34,42.08
0.133,0,0.000,399.710,271.210,-19.09,40.03,-59.96,-45.44,27.32,42.06
0.133,0,0.000,399.710,271.610,-19.07,40.05,-59.96,-45.42,27.3,42.04
0.133,0,0.000,399.710,272.010,-19.04,40.06,-59.97,-45.39,27.28,42.02
0.133,0,0.000,399.710,272.420,-19.02,40.07,-59.98,-45.36,27.26,41.99
0.133,0,0.000,399.710,272.820,-19,40.08,-59.98,-45.34,27.24,41.97
0.133,0,0.000,399.710,273.220,-18.98,40.1,-59.99,-45.31,27.23,41.95
0.133,0,0.000,399.710,273.620,-18.96,40.11,-60,-45.28,27.21,41.93
0.133,0,0.000,399.710,274.020,-18.94,40.12,-60,-45.25,27.19,41.9
0.134,0,0.000,399.710,274.430,-18.91,40.13,-60.01,-45.23,27.17,41.88
0.134,0,0.000,399.710,274.830,-18.89,40.15,-60.02,-45.2,27.15,41.86
0.134,0,0.000,399.710,275.230,-18.87,40.16,-60.03,-45.17,27.13,41.83
0.134,0,0.000,399.710,275.630,-18.85,40.17,-60.03,-45.14,27.12,41.81
0.134,0,0.000,399.710,276.030,-18.83,40.18,-60.04,-45.12,27.1,41.79
0.134,0,0.000,399.710,276.430,-18.81,40.19,-60.05,-45.09,27.08,41.76
0.134,0,0.000,399.710,276.830,-18.78,40.21,-60.05,-45.06,27.06,41.74
0.134,0,0.000,399.710,277.220,-18.76,40.22,-60.06,-45.03,27.04,41.72
0.134,0,0.000,399.710,277.620,-18.74,40.23,-60.07,-45,27.02,41.69
0.134,0,0.000,399.710,278.020,-18.72,40.24,-60.07,-44.98,27.01,41.67
0.135,0,0.000,399.710,278.430,-18.7,40.26,-60.08,-44.95,26.99,41.65
0.135,0,0.000,399.710,278.820,-18.68,40.27,-60.09,-44.92,26.97,41.62
0.135,0,0.000,399.710,279.220,-18.65,40.28,-60.09,-44.89,26.95,41.6
0.135,0,0.000,399.710,279.620,-18.63,40.29,-60.1,-44.86,26.93,41.58
0.135,0,0.000,399.710,280.030,-18.61,40.3,-60.11,-44.83,26.92,41.55
0.135,0,0.000,399.710,280.430,-18.59,40.32,-60.11,-44.81,26.9,41.53
0.135,0,0.000,399.710,280.830,-18.57,40.33,-60.12,-44.78,26.88,41.51
0.135,0,0.000,399.710,281.230,-18.55,40.34,-60.13,-44.75,26.86,41.48
0.135,0,0.000,399.710,281.630,-18.52,40.35,-60.13,-44.72,26.84,41.46
0.135,0,0.000,399.710,282.030,-18.5,40.36,-60.14,-44.69,26.82,41.44
0.136,0,0.000,399.710,282.430,-18.48,40.38,-60.15,-44.66,26.81,41.41
0.136,0,0.000,399.710,282.830,-18.46,40.39,-60.15,-44.63,26.79,41.39
0.136,0,0.000,399.710,283.230,-18.44,40.4,-60.16,-44.61,26.77,41.36
0.136,0,0.000,399.710,283.630,-18.42,40.41,-60.17,-44.58,26.75,41.34
0.136,0,0.000,399.710,284.030,-18.39,40.42,-60.17,-44.55,26.73,41.32
0.136,0,0.000,399.710,284.430,-18.37,40.44,-60.18,-44.52,26.72,41.29
0.136,0,0.000,399.710,284.830,-18.35,40.45,-60.19,-44.49,26.7,41.27
0.136,0,0.000,399.710,285.230,-18.33,40.46,-60.19,-44.46,26.68,41.24
0.136,0,0.000,399.710,285.630,-18.31,40.47,-60.2,-44.43,26.66,41.22
0.136,0,0.000,399.710,286.030,-18.28,40.48,-60.21,-44.4,26.64,41.19
0.137,0,0.000,399.710,286.430,-18.26,40.5,-60.21,-44.37,26.62,41.17
0.137,0,0.000,399.710,286.840,-18.24,40.51,-60.22,-44.34,26.61,41.15
0.137,0,0.000,399.710,287.240,-18.22,40.52,-60.23,-44.32,26.59,41.12
0.137,0,0.000,399.710,287.640,-18.2,40.53,-60.23,-44.29,26.57,41.1
0.137,0,0.000,399.710,288.040,-18.18,40.54,-60.24,-44.26,26.55,41.07
0.137,0,0.000,399.710,288.440,-18.15,40.56,-60.25,-44.23,26.53,41.05
0.137,0,0.000,399.710,288.840,-18.13,40.57,-60.25,-44.2,26.52,41.02
0.137,0,0.000,399.710,289.240,-18.11,40.58,-60.26,-44.17,26.5,41
0.137,0,0.000,399.710,289.640,-18.09,40.59,-60.27,-44.14,26.48,40.97
0.137,0,0.000,399.710,290.030,-18.07,40.6,-60.27,-44.11,26.46,40.95
0.138,0,0.000,399.710,290.430,-18.05,40.62,-60.28,-44.08,26.44,40.92
0.138,0,0.000,399.710,290.830,-18.02,40.63,-60.29,-44.05,26.43,40.9
0.138,0,0.000,399.710,291.240,-18,40.64,-60.29,-44.02,26.41,40.87
0.138,0,0.000,399.710,291.640,-17.98,40.65,-60.3,-43.99,26.39,40.85
0.138,0,0.000,399.710,292.040,-17.96,40.66,-60.31,-43.96,26.37,40.82
0.138,0,0.000,399.710,292.430,-17.94,40.67,-60.31,-43.93,26.35,40.8
0.138,0,0.000,399.710,292.830,-17.91,40.69,-60.32,-43.9,26.34,40.77
0.138,0,0.000,399.710,293.230,-17.89,40.7,-60.33,-43.87,26.32,40.75
0.138,0,0.000,399.710,293.640,-17.87,40.71,-60.33,-43.84,26.3,40.72
0.138,0,0.000,399.710,294.040,-17.85,40.72,-60.34,-43.81,26.28,40.7
0.139,0,0.000,399.710,294.440,-17.83,40.73,-60.34,-43.78,26.26,40.67
0.139,0,0.000,399.710,294.840,-17.8,40.74,-60.35,-43.75,26.25,40.65
0.139,0,0.000,399.710,295.240,-17.78,40.76,-60.36,-43.72,26.23,40.62
0.139,0,0.000,399.710,295.640,-17.76,40.77,-60.36,-43.69,26.21,40.59
0.139,0,0.000,399.710,296.040,-17.74,40.78,-60.37,-43.66,26.19,40.57
0.139,0,0.000,399.710,296.440,-17.72,40.79,-60.38,-43.63,26.17,40.54
0.139,0,0.000,399.710,296.840,-17.7,40.8,-60.38,-43.6,26.16,40.52
0.139,0,0.000,399.710,297.240,-17.67,40.81,-60.39,-43.57,26.14,40.49
0.139,0,0.000,399.710,297.640,-17.65,40.83,-60.4,-43.54,26.12,40.47
0.139,0,0.000,399.710,298.040,-17.63,40.84,-60.4,-43.51,26.1,40.44
0.140,0,0.000,399.710,298.440,-17.61,40.85,-60.41,-43.48,26.08,40.41
0.140,0,0.000,399.710,298.840,-17.59,40.86,-60.42,-43.45,26.07,40.39
0.140,0,0.000,399.710,299.240,-17.56,40.87,-60.42,-43.42,26.05,40.36
0.140,0,0.000,399.710,299.630,-17.54,40.88,-60.43,-43.38,26.03,40.34
0.140,0,0.000,399.710,300.030,-17.52,40.9,-60.43,-43.35,26.01,40.31
0.140,0,0.000,399.710,300.430,-17.5,40.91,-60.44,-43.32,25.99,40.28
0.140,0,0.000,399.710,300.830,-17.48,40.92,-60.45,-43.29,25.98,40.26
0.140,0,0.000,399.710,301.230,-17.45,40.93,-60.45,-43.26,25.96,40.23
