vineef/FanucJournal/data_files/data_trajectory.csv
Time,Jerk,Acceleration,Velocity,Position,J1,J2,J3,J4,J5,J6
0.0,0,0.0,0.0,0.0,-32.28,29.53,-53.57,-57.17,39.45,50.12
0.001,1000,0.73,0.0,0.0,-32.28,29.53,-53.57,-57.17,39.45,50.12
0.002,1000,1.63,0.0,0.0,-32.28,29.53,-53.57,-57.17,39.45,50.12
0.003,1000,2.55,0.0,0.0,-32.28,29.53,-53.57,-57.17,39.45,50.12
0.004,1000,3.7,0.01,0.0,-32.28,29.53,-53.57,-57.17,39.45,50.12
0.005,1000,4.59,0.01,0.0,-32.28,29.53,-53.57,-57.17,39.45,50.12
0.006,1000,5.74,0.02,0.0,-32.28,29.53,-53.57,-57.17,39.45,50.12
0.007,1000,6.63,0.02,0.0,-32.28,29.53,-53.57,-57.17,39.45,50.12
0.008,1000,7.76,0.03,0.0,-32.28,29.53,-53.57,-57.17,39.45,50.12
0.009,1000,8.65,0.04,0.0,-32.28,29.53,-53.57,-57.17,39.45,50.12
0.01,1000,9.55,0.05,0.0,-32.28,29.53,-53.57,-57.17,39.45,50.12
0.011,1000,10.69,0.06,0.0,-32.28,29.53,-53.57,-57.17,39.45,50.12
0.012,1000,11.59,0.07,0.0,-32.28,29.53,-53.57,-57.17,39.45,50.12
0.013,1000,12.71,0.08,0.0,-32.28,29.53,-53.57,-57.17,39.45,50.12
0.014,1000,13.62,0.09,0.0,-32.28,29.53,-53.57,-57.17,39.45,50.12
0.015,1000,14.75,0.11,0.0,-32.28,29.53,-53.57,-57.17,39.45,50.12
0.016,1000,15.64,0.12,0.0,-32.28,29.53,-53.57,-57.17,39.45,50.12
0.017,1000,16.75,0.14,0.0,-32.28,29.53,-53.57,-57.17,39.45,50.12
0.018,1000,17.64,0.16,0.0,-32.28,29.53,-53.57,-57.17,39.45,50.12
0.019,1000,18.76,0.18,0.0,-32.28,29.53,-53.57,-57.17,39.45,50.12
0.02,1000,19.68,0.19,0.0,-32.28,29.53,-53.57,-57.17,39.45,50.12
0.021,1000,20.58,0.21,0.0,-32.28,29.53,-53.57,-57.17,39.45,50.12
0.022,1000,21.73,0.24,0.0,-32.28,29.53,-53.57,-57.17,39.45,50.12
0.023,1000,22.62,0.26,0.0,-32.28,29.53,-53.57,-57.17,39.45,50.12
0.024,1000,23.77,0.28,0.0,-32.28,29.53,-53.57,-57.17,39.45,50.12
0.025,1000,24.69,0.3,0.0,-32.28,29.53,-53.57,-57.17,39.45,50.12
0.026,1000,25.8,0.33,0.0,-32.28,29.53,-53.57,-57.17,39.45,50.12
0.027,1000,26.72,0.36,0.0,-32.28,29.53,-53.57,-57.17,39.45,50.12
0.028,1000,27.61,0.38,0.0,-32.28,29.53,-53.57,-57.17,39.45,50.12
0.029,1000,28.75,0.41,0.0,-32.28,29.53,-53.57,-57.17,39.45,50.12
0.03,1000,29.63,0.44,0.0,-32.28,29.53,-53.57,-57.17,39.45,50.12
0.031,1000,30.76,0.47,0.0,-32.28,29.53,-53.57,-57.17,39.45,50.12
0.032,1000,31.67,0.5,0.01,-32.28,29.53,-53.57,-57.17,39.45,50.12
0.033,1000,32.79,0.54,0.01,-32.28,29.53,-53.57,-57.17,39.45,50.12
0.034,1000,33.7,0.57,0.01,-32.28,29.53,-53.57,-57.17,39.45,50.12
0.035,1000,34.61,0.6,0.01,-32.28,29.53,-53.57,-57.17,39.45,50.12
0.036,1000,35.74,0.64,0.01,-32.28,29.53,-53.57,-57.17,39.45,50.12
0.037,1000,36.62,0.67,0.01,-32.28,29.53,-53.57,-57.17,39.45,50.12
0.038,1000,37.77,0.71,0.01,-32.28,29.53,-53.57,-57.17,39.45,50.12
0.039,1000,38.68,0.75,0.01,-32.28,29.53,-53.57,-57.17,39.45,50.12
0.04,1000,39.8,0.79,0.01,-32.28,29.53,-53.57,-57.17,39.45,50.12
0.041,1000,40.7,0.83,0.01,-32.28,29.53,-53.57,-57.17,39.45,50.12
0.042,1000,41.82,0.87,0.01,-32.28,29.53,-53.57,-57.17,39.45,50.12
0.043,1000,42.73,0.91,0.01,-32.28,29.53,-53.57,-57.17,39.45,50.12
0.044,1000,43.62,0.95,0.01,-32.28,29.53,-53.57,-57.17,39.45,50.12
0.045,1000,44.74,1.0,0.01,-32.28,29.53,-53.57,-57.17,39.45,50.12
0.046,1000,45.63,1.04,0.02,-32.27,29.53,-53.57,-57.17,39.45,50.12
0.047,1000,46.75,1.09,0.02,-32.27,29.53,-53.57,-57.17,39.45,50.12
0.048,1000,47.63,1.13,0.02,-32.27,29.53,-53.57,-57.17,39.45,50.12
0.049,1000,48.76,1.19,0.02,-32.27,29.53,-53.57,-57.17,39.45,50.12
0.05,1000,49.65,1.23,0.02,-32.27,29.53,-53.57,-57.17,39.45,50.12
0.051,1000,50.78,1.29,0.02,-32.27,29.53,-53.57,-57.17,39.45,50.12
0.052,1000,51.68,1.34,0.02,-32.27,29.53,-53.57,-57.17,39.45,50.12
0.053,1000,52.8,1.39,0.02,-32.27,29.53,-53.57,-57.17,39.45,50.12
0.054,1000,53.7,1.44,0.03,-32.27,29.53,-53.58,-57.17,39.45,50.12
0.055,1000,54.8,1.5,0.03,-32.27,29.53,-53.58,-57.17,39.45,50.12
0.056,1000,55.7,1.55,0.03,-32.27,29.53,-53.58,-57.17,39.45,50.12
0.057,1000,56.82,1.61,0.03,-32.27,29.53,-53.58,-57.17,39.45,50.12
0.058,1000,57.71,1.67,0.03,-32.27,29.53,-53.58,-57.17,39.45,50.12
0.059,1000,58.83,1.73,0.03,-32.27,29.53,-53.58,-57.17,39.45,50.12
0.06,1000,59.73,1.78,0.04,-32.27,29.53,-53.58,-57.17,39.45,50.12
0.061,1000,60.63,1.84,0.04,-32.27,29.53,-53.58,-57.17,39.45,50.12
0.062,1000,61.75,1.91,0.04,-32.27,29.53,-53.58,-57.17,39.45,50.12
0.063,1000,62.67,1.96,0.04,-32.27,29.53,-53.58,-57.17,39.45,50.12
0.064,1000,63.81,2.04,0.04,-32.27,29.53,-53.58,-57.17,39.45,50.12
0.065,1000,64.74,2.1,0.05,-32.27,29.53,-53.58,-57.17,39.45,50.12
0.066,1000,65.63,2.15,0.05,-32.27,29.53,-53.58,-57.17,39.45,50.12
0.067,1000,66.76,2.23,0.05,-32.27,29.53,-53.58,-57.17,39.45,50.12
0.068,1000,67.67,2.29,0.05,-32.27,29.53,-53.58,-57.17,39.45,50.12
0.069,1000,68.8,2.37,0.05,-32.27,29.53,-53.58,-57.17,39.45,50.12
0.07,1000,69.71,2.43,0.06,-32.27,29.53,-53.58,-57.17,39.45,50.12
0.071,1000,70.84,2.51,0.06,-32.27,29.53,-53.58,-57.17,39.45,50.12
0.072,1000,71.75,2.57,0.06,-32.27,29.53,-53.58,-57.17,39.45,50.12
0.073,1000,72.63,2.64,0.06,-32.27,29.53,-53.58,-57.17,39.45,50.12
0.074,1000,73.77,2.72,0.07,-32.27,29.53,-53.58,-57.17,39.45,50.12
0.075,1000,74.66,2.79,0.07,-32.27,29.53,-53.58,-57.17,39.45,50.12
0.076,1000,75.8,2.87,0.07,-32.27,29.53,-53.58,-57.17,39.45,50.12
0.077,1000,76.68,2.94,0.08,-32.27,29.53,-53.58,-57.17,39.45,50.12
0.078,1000,77.81,3.03,0.08,-32.27,29.53,-53.58,-57.17,39.45,50.12
0.079,1000,78.68,3.1,0.08,-32.27,29.53,-53.58,-57.17,39.45,50.12
0.08,1000,79.81,3.18,0.08,-32.27,29.53,-53.58,-57.17,39.45,50.12
0.081,1000,80.7,3.26,0.09,-32.27,29.53,-53.58,-57.17,39.45,50.12
0.082,1000,81.81,3.35,0.09,-32.27,29.54,-53.58,-57.17,39.45,50.12
0.083,1000,82.7,3.42,0.09,-32.27,29.54,-53.58,-57.17,39.45,50.12
0.084,1000,83.82,3.51,0.1,-32.27,29.54,-53.58,-57.17,39.45,50.12
0.085,1000,84.71,3.59,0.1,-32.27,29.54,-53.58,-57.17,39.45,50.12
0.086,1000,85.82,3.68,0.11,-32.27,29.54,-53.58,-57.17,39.45,50.12
0.087,1000,86.71,3.76,0.11,-32.27,29.54,-53.58,-57.17,39.45,50.12
0.088,1000,87.82,3.86,0.11,-32.27,29.54,-53.58,-57.17,39.45,50.12
0.089,1000,88.69,3.93,0.12,-32.27,29.54,-53.58,-57.17,39.45,50.12
0.09,1000,89.81,4.03,0.12,-32.27,29.54,-53.58,-57.17,39.45,50.12
0.091,1000,90.71,4.11,0.12,-32.27,29.54,-53.58,-57.17,39.45,50.12
0.092,1000,91.83,4.22,0.13,-32.27,29.54,-53.58,-57.17,39.45,50.12
0.093,1000,92.71,4.3,0.13,-32.27,29.54,-53.58,-57.17,39.45,50.12
0.094,1000,93.83,4.4,0.14,-32.27,29.54,-53.58,-57.17,39.45,50.12
0.095,1000,94.73,4.49,0.14,-32.27,29.54,-53.58,-57.17,39.45,50.12
0.096,1000,95.84,4.59,0.15,-32.27,29.54,-53.58,-57.17,39.45,50.12
0.097,1000,96.73,4.68,0.15,-32.27,29.54,-53.58,-57.17,39.45,50.12
0.098,1000,97.87,4.79,0.16,-32.27,29.54,-53.58,-57.17,39.45,50.12
0.099,1000,98.78,4.88,0.16,-32.27,29.54,-53.58,-57.17,39.45,50.12
0.1,1000,99.69,4.97,0.17,-32.27,29.54,-53.58,-57.17,39.45,50.12
0.101,1000,100.81,5.08,0.17,-32.27,29.54,-53.58,-57.17,39.45,50.12
0.102,1000,101.72,5.17,0.18,-32.27,29.54,-53.58,-57.17,39.45,50.12
0.103,1000,102.85,5.29,0.18,-32.27,29.54,-53.58,-57.17,39.45,50.12
0.104,1000,103.78,5.38,0.19,-32.27,29.54,-53.58,-57.17,39.45,50.12
0.105,1000,104.9,5.5,0.19,-32.27,29.54,-53.58,-57.17,39.45,50.12
0.106,1000,105.77,5.59,0.2,-32.27,29.54,-53.58,-57.17,39.45,50.12
0.107,1000,106.69,5.69,0.2,-32.27,29.54,-53.58,-57.17,39.45,50.12
0.108,1000,107.81,5.81,0.21,-32.27,29.54,-53.58,-57.17,39.45,50.12
0.109,1000,108.72,5.91,0.21,-32.27,29.54,-53.58,-57.17,39.45,50.12
0.11,1000,109.85,6.03,0.22,-32.27,29.54,-53.58,-57.17,39.45,50.12
0.111,1000,110.75,6.13,0.23,-32.27,29.54,-53.58,-57.17,39.44,50.12
0.112,1000,111.87,6.26,0.23,-32.27,29.54,-53.58,-57.17,39.44,50.12
0.113,1000,112.78,6.36,0.24,-32.27,29.54,-53.58,-57.17,39.44,50.12
0.114,1000,113.89,6.49,0.25,-32.27,29.54,-53.58,-57.17,39.44,50.12
0.115,1000,114.78,6.59,0.25,-32.26,29.54,-53.58,-57.17,39.44,50.12
0.116,1000,115.9,6.72,0.26,-32.26,29.54,-53.58,-57.17,39.44,50.12
0.117,1000,116.78,6.82,0.27,-32.26,29.54,-53.58,-57.17,39.44,50.12
0.118,1000,117.7,6.93,0.27,-32.26,29.54,-53.58,-57.17,39.44,50.12
0.119,1000,118.84,7.06,0.28,-32.26,29.54,-53.58,-57.17,39.44,50.12
0.12,1000,119.73,7.17,0.29,-32.26,29.54,-53.58,-57.17,39.44,50.12
0.121,1000,120.86,7.3,0.29,-32.26,29.54,-53.58,-57.17,39.44,50.12
0.122,1000,121.76,7.41,0.3,-32.26,29.54,-53.58,-57.17,39.44,50.12
0.123,1000,122.89,7.55,0.31,-32.26,29.54,-53.58,-57.17,39.44,50.12
0.124,1000,123.83,7.67,0.32,-32.26,29.55,-53.58,-57.17,39.44,50.12
0.125,1000,124.73,7.78,0.32,-32.26,29.55,-53.58,-57.17,39.44,50.12
0.126,1000,125.87,7.92,0.33,-32.26,29.55,-53.58,-57.16,39.44,50.12
0.127,1000,126.76,8.03,0.34,-32.26,29.55,-53.58,-57.16,39.44,50.12
0.128,1000,127.89,8.18,0.35,-32.26,29.55,-53.58,-57.16,39.44,50.12
0.129,1000,128.79,8.29,0.36,-32.26,29.55,-53.58,-57.16,39.44,50.12
0.13,1000,129.93,8.44,0.37,-32.26,29.55,-53.58,-57.16,39.44,50.12
0.131,1000,130.85,8.56,0.37,-32.26,29.55,-53.59,-57.16,39.44,50.12
0.132,1000,131.75,8.68,0.38,-32.26,29.55,-53.59,-57.16,39.44,50.12
0.133,1000,132.87,8.83,0.39,-32.26,29.55,-53.59,-57.16,39.44,50.12
0.134,1000,133.76,8.95,0.4,-32.26,29.55,-53.59,-57.16,39.44,50.12
0.135,1000,134.89,9.1,0.41,-32.26,29.55,-53.59,-57.16,39.44,50.12
0.136,1000,135.78,9.22,0.42,-32.26,29.55,-53.59,-57.16,39.44,50.12
0.137,1000,136.93,9.37,0.43,-32.26,29.55,-53.59,-57.16,39.44,50.12
0.138,1000,137.83,9.5,0.44,-32.26,29.55,-53.59,-57.16,39.44,50.12
0.139,1000,138.72,9.62,0.44,-32.26,29.55,-53.59,-57.16,39.44,50.12
0.14,1000,139.89,9.78,0.46,-32.26,29.55,-53.59,-57.16,39.44,50.12
0.141,1000,140.8,9.91,0.47,-32.26,29.55,-53.59,-57.16,39.43,50.12
0.142,1000,141.93,10.07,0.48,-32.26,29.55,-53.59,-57.16,39.43,50.12
0.143,1000,142.85,10.2,0.49,-32.25,29.55,-53.59,-57.16,39.43,50.12
0.144,1000,143.76,10.33,0.5,-32.25,29.55,-53.59,-57.16,39.43,50.12
0.145,1000,144.88,10.5,0.51,-32.25,29.55,-53.59,-57.16,39.43,50.12
0.146,1000,145.8,10.63,0.52,-32.25,29.55,-53.59,-57.16,39.43,50.12
0.147,1000,146.92,10.79,0.53,-32.25,29.55,-53.59,-57.16,39.43,50.12
0.148,1000,147.81,10.92,0.54,-32.25,29.55,-53.59,-57.16,39.43,50.12
0.149,1000,148.94,11.09,0.55,-32.25,29.56,-53.59,-57.16,39.43,50.11
0.15,1000,149.85,11.23,0.56,-32.25,29.56,-53.59,-57.16,39.43,50.11
0.151,1000,150.73,11.36,0.57,-32.25,29.56,-53.59,-57.16,39.43,50.11
0.152,1000,151.88,11.53,0.58,-32.25,29.56,-53.59,-57.16,39.43,50.11
0.153,1000,152.78,11.67,0.59,-32.25,29.56,-53.59,-57.16,39.43,50.11
0.154,1000,153.92,11.85,0.61,-32.25,29.56,-53.59,-57.16,39.43,50.11
0.155,1000,154.85,11.99,0.62,-32.25,29.56,-53.59,-57.16,39.43,50.11
0.156,1000,155.75,12.13,0.63,-32.25,29.56,-53.59,-57.16,39.43,50.11
0.157,1000,156.88,12.31,0.64,-32.25,29.56,-53.59,-57.16,39.43,50.11
0.158,1000,157.78,12.45,0.65,-32.25,29.56,-53.59,-57.16,39.43,50.11
0.159,1000,158.9,12.63,0.67,-32.25,29.56,-53.59,-57.16,39.43,50.11
0.16,1000,159.82,12.77,0.68,-32.25,29.56,-53.59,-57.16,39.43,50.11
0.161,1000,160.95,12.95,0.69,-32.25,29.56,-53.59,-57.15,39.43,50.11
0.162,1000,161.85,13.1,0.71,-32.25,29.56,-53.6,-57.15,39.43,50.11
0.163,1000,162.96,13.28,0.72,-32.24,29.56,-53.6,-57.15,39.42,50.11
0.164,1000,163.87,13.43,0.73,-32.24,29.56,-53.6,-57.15,39.42,50.11
0.165,1000,164.76,13.57,0.75,-32.24,29.56,-53.6,-57.15,39.42,50.11
0.166,1000,165.89,13.76,0.76,-32.24,29.56,-53.6,-57.15,39.42,50.11
0.167,1000,166.8,13.91,0.77,-32.24,29.57,-53.6,-57.15,39.42,50.11
0.168,1000,167.9,14.1,0.79,-32.24,29.57,-53.6,-57.15,39.42,50.11
0.169,1000,168.83,14.25,0.8,-32.24,29.57,-53.6,-57.15,39.42,50.11
0.17,1000,169.94,14.44,0.82,-32.24,29.57,-53.6,-57.15,39.42,50.11
0.171,1000,170.85,14.59,0.83,-32.24,29.57,-53.6,-57.15,39.42,50.11
0.172,1000,171.97,14.79,0.85,-32.24,29.57,-53.6,-57.15,39.42,50.11
0.173,1000,172.88,14.94,0.86,-32.24,29.57,-53.6,-57.15,39.42,50.11
0.174,1000,173.77,15.1,0.87,-32.24,29.57,-53.6,-57.15,39.42,50.11
0.175,1000,174.89,15.29,0.89,-32.24,29.57,-53.6,-57.15,39.42,50.11
0.176,1000,175.78,15.45,0.91,-32.24,29.57,-53.6,-57.15,39.42,50.11
0.177,1000,176.91,15.65,0.92,-32.24,29.57,-53.6,-57.15,39.42,50.11
0.178,1000,177.81,15.81,0.94,-32.24,29.57,-53.6,-57.15,39.42,50.11
0.179,1000,178.92,16.01,0.95,-32.23,29.57,-53.6,-57.15,39.41,50.11
0.18,1000,179.81,16.17,0.97,-32.23,29.57,-53.6,-57.15,39.41,50.11
0.181,1000,180.92,16.37,0.99,-32.23,29.57,-53.6,-57.15,39.41,50.11
0.182,1000,181.82,16.53,1.0,-32.23,29.58,-53.6,-57.15,39.41,50.11
0.183,1000,182.95,16.73,1.02,-32.23,29.58,-53.6,-57.15,39.41,50.11
0.184,1000,183.82,16.9,1.04,-32.23,29.58,-53.6,-57.15,39.41,50.11
0.185,1000,184.95,17.1,1.05,-32.23,29.58,-53.61,-57.14,39.41,50.11
0.186,1000,185.83,17.27,1.07,-32.23,29.58,-53.61,-57.14,39.41,50.11
0.187,1000,186.94,17.47,1.09,-32.23,29.58,-53.61,-57.14,39.41,50.11
0.188,1000,187.82,17.64,1.1,-32.23,29.58,-53.61,-57.14,39.41,50.11
0.189,1000,188.93,17.85,1.12,-32.23,29.58,-53.61,-57.14,39.41,50.11
0.19,1000,189.82,18.02,1.14,-32.23,29.58,-53.61,-57.14,39.41,50.11
0.191,1000,190.98,18.24,1.16,-32.23,29.58,-53.61,-57.14,39.41,50.11
0.192,1000,191.89,18.41,1.18,-32.22,29.58,-53.61,-57.14,39.41,50.11
0.193,1000,192.8,18.59,1.19,-32.22,29.58,-53.61,-57.14,39.4,50.11
0.194,1000,193.94,18.81,1.22,-32.22,29.59,-53.61,-57.14,39.4,50.11
0.195,1000,194.84,18.98,1.23,-32.22,29.59,-53.61,-57.14,39.4,50.11
0.196,1000,195.97,19.2,1.25,-32.22,29.59,-53.61,-57.14,39.4,50.11
0.197,1000,196.89,19.38,1.27,-32.22,29.59,-53.61,-57.14,39.4,50.11
0.198,1000,198.01,19.6,1.29,-32.22,29.59,-53.61,-57.14,39.4,50.1
0.199,1000,198.94,19.79,1.31,-32.22,29.59,-53.61,-57.14,39.4,50.1
0.2,1000,199.83,19.97,1.33,-32.22,29.59,-53.61,-57.14,39.4,50.1
0.201,1000,200.96,20.19,1.35,-32.22,29.59,-53.61,-57.14,39.4,50.1
0.202,1000,201.85,20.37,1.37,-32.22,29.59,-53.61,-57.14,39.4,50.1
0.203,1000,202.99,20.6,1.39,-32.22,29.59,-53.62,-57.14,39.4,50.1
0.204,1000,203.91,20.79,1.41,-32.21,29.59,-53.62,-57.13,39.4,50.1
0.205,1000,204.8,20.97,1.43,-32.21,29.59,-53.62,-57.13,39.39,50.1
0.206,1000,205.94,21.21,1.46,-32.21,29.6,-53.62,-57.13,39.39,50.1
0.207,1000,206.83,21.39,1.47,-32.21,29.6,-53.62,-57.13,39.39,50.1
0.208,1000,207.96,21.62,1.5,-32.21,29.6,-53.62,-57.13,39.39,50.1
0.209,1000,208.86,21.81,1.52,-32.21,29.6,-53.62,-57.13,39.39,50.1
0.21,1000,210.0,22.05,1.54,-32.21,29.6,-53.62,-57.13,39.39,50.1
0.211,1000,210.92,22.24,1.56,-32.21,29.6,-53.62,-57.13,39.39,50.1
0.212,1000,212.03,22.48,1.59,-32.21,29.6,-53.62,-57.13,39.39,50.1
0.213,1000,212.93,22.67,1.61,-32.21,29.6,-53.62,-57.13,39.39,50.1
0.214,1000,213.83,22.86,1.63,-32.21,29.6,-53.62,-57.13,39.39,50.1
0.215,1000,214.96,23.1,1.66,-32.2,29.6,-53.62,-57.13,39.39,50.1
0.216,1000,215.88,23.3,1.68,-32.2,29.61,-53.62,-57.13,39.38,50.1
0.217,1000,217.0,23.54,1.7,-32.2,29.61,-53.62,-57.13,39.38,50.1
0.218,1000,217.9,23.74,1.72,-32.2,29.61,-53.62,-57.13,39.38,50.1
0.219,1000,219.02,23.98,1.75,-32.2,29.61,-53.63,-57.13,39.38,50.1
0.22,1000,219.94,24.19,1.77,-32.2,29.61,-53.63,-57.12,39.38,50.1
0.221,1000,220.83,24.38,1.79,-32.2,29.61,-53.63,-57.12,39.38,50.1
0.222,1000,221.97,24.64,1.82,-32.2,29.61,-53.63,-57.12,39.38,50.1
0.223,1000,222.87,24.83,1.84,-32.2,29.61,-53.63,-57.12,39.38,50.1
0.224,1000,224.0,25.09,1.87,-32.19,29.61,-53.63,-57.12,39.38,50.1
0.225,1000,224.93,25.3,1.9,-32.19,29.62,-53.63,-57.12,39.38,50.1
0.226,1000,225.83,25.5,1.92,-32.19,29.62,-53.63,-57.12,39.37,50.1
0.227,1000,226.96,25.76,1.95,-32.19,29.62,-53.63,-57.12,39.37,50.1
0.228,1000,227.87,25.96,1.97,-32.19,29.62,-53.63,-57.12,39.37,50.1
0.229,1000,229.02,26.22,2.0,-32.19,29.62,-53.63,-57.12,39.37,50.1
0.23,1000,229.93,26.43,2.03,-32.19,29.62,-53.63,-57.12,39.37,50.09
0.231,1000,230.82,26.64,2.05,-32.19,29.62,-53.63,-57.12,39.37,50.09
0.232,1000,231.95,26.9,2.08,-32.19,29.62,-53.64,-57.12,39.37,50.09
0.233,1000,232.85,27.11,2.1,-32.18,29.62,-53.64,-57.12,39.37,50.09
0.234,1000,233.97,27.37,2.13,-32.18,29.63,-53.64,-57.11,39.37,50.09
0.235,1000,234.9,27.59,2.16,-32.18,29.63,-53.64,-57.11,39.36,50.09
0.236,1000,236.03,27.85,2.19,-32.18,29.63,-53.64,-57.11,39.36,50.09
0.237,1000,236.95,28.07,2.22,-32.18,29.63,-53.64,-57.11,39.36,50.09
0.238,1000,238.06,28.34,2.25,-32.18,29.63,-53.64,-57.11,39.36,50.09
0.239,1000,238.96,28.55,2.27,-32.18,29.63,-53.64,-57.11,39.36,50.09
0.24,1000,239.87,28.77,2.3,-32.18,29.63,-53.64,-57.11,39.36,50.09
0.241,1000,241.0,29.04,2.33,-32.17,29.63,-53.64,-57.11,39.36,50.09
0.242,1000,241.89,29.26,2.36,-32.17,29.64,-53.64,-57.11,39.36,50.09
0.243,1000,243.04,29.53,2.39,-32.17,29.64,-53.64,-57.11,39.36,50.09
0.244,1000,243.96,29.76,2.42,-32.17,29.64,-53.65,-57.11,39.35,50.09
0.245,1000,244.88,29.98,2.45,-32.17,29.64,-53.65,-57.11,39.35,50.09
0.246,1000,246.01,30.26,2.48,-32.17,29.64,-53.65,-57.1,39.35,50.09
0.247,1000,246.9,30.48,2.51,-32.17,29.64,-53.65,-57.1,39.35,50.09
0.248,1000,248.04,30.76,2.54,-32.17,29.64,-53.65,-57.1,39.35,50.09
0.249,1000,248.95,30.99,2.57,-32.16,29.65,-53.65,-57.1,39.35,50.09
0.25,1000,249.84,31.21,2.6,-32.16,29.65,-53.65,-57.1,39.35,50.09
0.251,1000,251.0,31.5,2.64,-32.16,29.65,-53.65,-57.1,39.35,50.09
0.252,1000,251.9,31.73,2.66,-32.16,29.65,-53.65,-57.1,39.34,50.09
0.253,1000,253.02,32.01,2.7,-32.16,29.65,-53.65,-57.1,39.34,50.09
0.254,1000,253.91,32.24,2.73,-32.16,29.65,-53.65,-57.1,39.34,50.09
0.255,1000,255.05,32.53,2.77,-32.16,29.65,-53.66,-57.1,39.34,50.08
0.256,1000,255.97,32.76,2.8,-32.15,29.66,-53.66,-57.1,39.34,50.08
0.257,1000,256.87,32.99,2.82,-32.15,29.66,-53.66,-57.09,39.34,50.08
0.258,1000,258.0,33.28,2.86,-32.15,29.66,-53.66,-57.09,39.34,50.08
0.259,1000,258.92,33.52,2.89,-32.15,29.66,-53.66,-57.09,39.33,50.08
0.26,1000,260.05,33.81,2.93,-32.15,29.66,-53.66,-57.09,39.33,50.08
0.261,1000,260.98,34.05,2.96,-32.15,29.66,-53.66,-57.09,39.33,50.08
0.262,1000,261.86,34.28,2.99,-32.15,29.66,-53.66,-57.09,39.33,50.08
0.263,1000,263.01,34.59,3.03,-32.14,29.67,-53.66,-57.09,39.33,50.08
0.264,1000,263.93,34.83,3.06,-32.14,29.67,-53.66,-57.09,39.33,50.08
0.265,1000,265.06,35.13,3.1,-32.14,29.67,-53.67,-57.09,39.33,50.08
0.266,1000,265.99,35.38,3.14,-32.14,29.67,-53.67,-57.09,39.32,50.08
0.267,1000,266.9,35.62,3.17,-32.14,29.67,-53.67,-57.09,39.32,50.08
0.268,1000,268.04,35.92,3.21,-32.14,29.67,-53.67,-57.08,39.32,50.08
0.269,1000,268.95,36.17,3.24,-32.14,29.68,-53.67,-57.08,39.32,50.08
0.27,1000,270.11,36.48,3.28,-32.13,29.68,-53.67,-57.08,39.32,50.08
0.271,1000,271.01,36.72,3.32,-32.13,29.68,-53.67,-57.08,39.32,50.08
0.272,1000,271.91,36.97,3.35,-32.13,29.68,-53.67,-57.08,39.32,50.08
0.273,1000,273.03,37.27,3.39,-32.13,29.68,-53.67,-57.08,39.31,50.08
0.274,1000,273.94,37.52,3.43,-32.13,29.68,-53.67,-57.08,39.31,50.08
0.275,1000,275.05,37.83,3.47,-32.13,29.69,-53.68,-57.08,39.31,50.08
0.276,1000,275.97,38.08,3.5,-32.12,29.69,-53.68,-57.08,39.31,50.07
0.277,1000,277.12,38.4,3.55,-32.12,29.69,-53.68,-57.07,39.31,50.07
0.278,1000,278.02,38.65,3.58,-32.12,29.69,-53.68,-57.07,39.31,50.07
0.279,1000,278.94,38.9,3.62,-32.12,29.69,-53.68,-57.07,39.3,50.07
0.28,1000,280.07,39.22,3.66,-32.12,29.69,-53.68,-57.07,39.3,50.07
0.281,1000,280.98,39.48,3.7,-32.12,29.7,-53.68,-57.07,39.3,50.07
0.282,1000,281.87,39.73,3.73,-32.11,29.7,-53.68,-57.07,39.3,50.07
0.283,1000,283.06,40.06,3.78,-32.11,29.7,-53.68,-57.07,39.3,50.07
0.284,1000,283.97,40.32,3.82,-32.11,29.7,-53.69,-57.07,39.3,50.07
0.285,1000,285.13,40.65,3.86,-32.11,29.7,-53.69,-57.07,39.29,50.07
0.286,1000,286.03,40.91,3.9,-32.11,29.7,-53.69,-57.06,39.29,50.07
0.287,1000,286.92,41.16,3.94,-32.11,29.71,-53.69,-57.06,39.29,50.07
0.288,1000,288.05,41.49,3.98,-32.1,29.71,-53.69,-57.06,39.29,50.07
0.289,1000,288.95,41.74,4.02,-32.1,29.71,-53.69,-57.06,39.29,50.07
0.29,1000,290.11,42.08,4.07,-32.1,29.71,-53.69,-57.06,39.29,50.07
0.291,1000,291.02,42.35,4.11,-32.1,29.71,-53.69,-57.06,39.28,50.07
0.292,1000,291.91,42.6,4.16,-32.1,29.72,-53.7,-57.06,39.28,50.07
0.293,1000,293.05,42.94,4.19,-32.09,29.72,-53.7,-57.06,39.28,50.07
0.294,1000,293.95,43.2,4.23,-32.09,29.72,-53.7,-57.06,39.28,50.06
0.295,1000,295.11,43.55,4.28,-32.09,29.72,-53.7,-57.05,39.28,50.06
0.296,1000,296.04,43.82,4.32,-32.09,29.72,-53.7,-57.05,39.28,50.06
0.297,1000,296.92,44.08,4.36,-32.09,29.73,-53.7,-57.05,39.27,50.06
0.298,1000,298.06,44.42,4.41,-32.08,29.73,-53.7,-57.05,39.27,50.06
0.299,1000,298.97,44.69,4.45,-32.08,29.73,-53.7,-57.05,39.27,50.06
0.3,1000,300.11,45.03,4.5,-32.08,29.73,-53.71,-57.05,39.27,50.06
0.301,1000,301.01,45.3,4.55,-32.08,29.73,-53.71,-57.05,39.27,50.06
0.302,1000,302.15,45.65,4.6,-32.08,29.74,-53.71,-57.05,39.26,50.06
0.303,1000,303.05,45.92,4.64,-32.08,29.74,-53.71,-57.04,39.26,50.06
0.304,1000,303.96,46.2,4.68,-32.07,29.74,-53.71,-57.04,39.26,50.06
0.305,1000,305.1,46.54,4.73,-32.07,29.74,-53.71,-57.04,39.26,50.06
0.306,1000,306.01,46.82,4.78,-32.07,29.74,-53.71,-57.04,39.26,50.06
0.307,1000,307.15,47.17,4.83,-32.07,29.75,-53.72,-57.04,39.25,50.06
0.308,1000,308.07,47.45,4.87,-32.07,29.75,-53.72,-57.04,39.25,50.06
0.309,1000,308.94,47.72,4.91,-32.06,29.75,-53.72,-57.04,39.25,50.06
0.31,1000,310.07,48.07,4.97,-32.06,29.75,-53.72,-57.03,39.25,50.05
0.311,1000,310.95,48.35,5.01,-32.06,29.75,-53.72,-57.03,39.25,50.05
0.312,1000,312.11,48.71,5.07,-32.06,29.76,-53.72,-57.03,39.24,50.05
0.313,1000,313.0,48.98,5.11,-32.05,29.76,-53.72,-57.03,39.24,50.05
0.314,1000,314.14,49.34,5.17,-32.05,29.76,-53.73,-57.03,39.24,50.05
0.315,1000,315.05,49.63,5.21,-32.05,29.76,-53.73,-57.03,39.24,50.05
0.316,1000,315.94,49.91,5.26,-32.05,29.77,-53.73,-57.03,39.24,50.05
0.317,1000,317.11,50.28,5.31,-32.05,29.77,-53.73,-57.02,39.23,50.05
0.318,1000,318.01,50.56,5.36,-32.04,29.77,-53.73,-57.02,39.23,50.05
0.319,1000,319.17,50.93,5.42,-32.04,29.77,-53.73,-57.02,39.23,50.05
0.32,1000,320.09,51.23,5.47,-32.04,29.77,-53.73,-57.02,39.23,50.05
0.321,1000,321.01,51.52,5.51,-32.04,29.78,-53.74,-57.02,39.23,50.05
0.322,1000,322.14,51.89,5.57,-32.03,29.78,-53.74,-57.02,39.22,50.05
0.323,1000,323.06,52.18,5.62,-32.03,29.78,-53.74,-57.02,39.22,50.05
0.324,1000,324.18,52.55,5.68,-32.03,29.78,-53.74,-57.01,39.22,50.04
0.325,1000,325.07,52.84,5.73,-32.03,29.79,-53.74,-57.01,39.22,50.04
0.326,1000,325.99,53.13,5.77,-32.03,29.79,-53.74,-57.01,39.21,50.04
0.327,1000,327.12,53.5,5.83,-32.02,29.79,-53.74,-57.01,39.21,50.04
0.328,1000,328.02,53.8,5.88,-32.02,29.79,-53.75,-57.01,39.21,50.04
0.329,1000,329.17,54.18,5.94,-32.02,29.8,-53.75,-57.01,39.21,50.04
0.33,1000,330.08,54.48,5.99,-32.02,29.8,-53.75,-57.01,39.21,50.04
0.331,1000,330.99,54.78,6.04,-32.01,29.8,-53.75,-57.0,39.2,50.04
0.332,1000,332.13,55.15,6.11,-32.01,29.8,-53.75,-57.0,39.2,50.04
0.333,1000,333.02,55.45,6.16,-32.01,29.81,-53.75,-57.0,39.2,50.04
0.334,1000,334.19,55.84,6.22,-32.01,29.81,-53.76,-57.0,39.2,50.04
0.335,1000,335.11,56.15,6.27,-32.0,29.81,-53.76,-57.0,39.19,50.04
0.336,1000,336.0,56.45,6.32,-32.0,29.81,-53.76,-57.0,39.19,50.04
0.337,1000,337.15,56.83,6.39,-32.0,29.82,-53.76,-56.99,39.19,50.04
0.338,1000,338.05,57.14,6.44,-32.0,29.82,-53.76,-56.99,39.19,50.03
0.339,1000,339.21,57.53,6.5,-31.99,29.82,-53.76,-56.99,39.18,50.03
0.34,1000,340.13,57.84,6.56,-31.99,29.82,-53.77,-56.99,39.18,50.03
0.341,1000,341.02,58.15,6.61,-31.99,29.83,-53.77,-56.99,39.18,50.03
0.342,1000,342.17,58.54,6.68,-31.99,29.83,-53.77,-56.99,39.18,50.03
0.343,1000,343.09,58.85,6.73,-31.98,29.83,-53.77,-56.98,39.18,50.03
0.344,1000,343.99,59.16,6.78,-31.98,29.83,-53.77,-56.98,39.17,50.03
0.345,1000,345.14,59.56,6.85,-31.98,29.84,-53.77,-56.98,39.17,50.03
0.346,1000,346.04,59.87,6.91,-31.98,29.84,-53.78,-56.98,39.17,50.03
0.347,1000,347.17,60.26,6.97,-31.97,29.84,-53.78,-56.98,39.16,50.03
0.348,1000,348.08,60.58,7.03,-31.97,29.84,-53.78,-56.98,39.16,50.03
0.349,1000,348.98,60.89,7.08,-31.97,29.85,-53.78,-56.97,39.16,50.03
0.35,1000,350.14,61.3,7.15,-31.97,29.85,-53.78,-56.97,39.16,50.02
0.351,1000,351.05,61.62,7.21,-31.96,29.85,-53.79,-56.97,39.15,50.02
0.352,1000,352.19,62.02,7.28,-31.96,29.85,-53.79,-56.97,39.15,50.02
0.353,1000,353.11,62.34,7.34,-31.96,29.86,-53.79,-56.97,39.15,50.02
0.354,1000,354.0,62.66,7.39,-31.96,29.86,-53.79,-56.97,39.15,50.02
0.355,1000,355.17,63.07,7.47,-31.95,29.86,-53.79,-56.96,39.14,50.02
0.356,1000,356.06,63.39,7.52,-31.95,29.87,-53.79,-56.96,39.14,50.02
0.357,1000,356.97,63.72,7.58,-31.95,29.87,-53.8,-56.96,39.14,50.02
0.358,1000,358.13,64.13,7.66,-31.94,29.87,-53.8,-56.96,39.14,50.02
0.359,1000,359.04,64.46,7.71,-31.94,29.87,-53.8,-56.96,39.13,50.02
0.36,1000,360.21,64.87,7.79,-31.94,29.88,-53.8,-56.95,39.13,50.02
0.361,1000,361.12,65.2,7.85,-31.94,29.88,-53.8,-56.95,39.13,50.01
0.362,1000,362.02,65.53,7.91,-31.93,29.88,-53.81,-56.95,39.13,50.01
0.363,1000,363.19,65.95,7.98,-31.93,29.89,-53.81,-56.95,39.12,50.01
0.364,1000,364.12,66.29,8.05,-31.93,29.89,-53.81,-56.95,39.12,50.01
0.365,1000,365.0,66.61,8.1,-31.92,29.89,-53.81,-56.95,39.12,50.01
0.366,1000,366.16,67.04,8.18,-31.92,29.89,-53.81,-56.94,39.11,50.01
0.367,1000,367.03,67.36,8.24,-31.92,29.9,-53.82,-56.94,39.11,50.01
0.368,1000,368.2,67.79,8.32,-31.92,29.9,-53.82,-56.94,39.11,50.01
0.369,1000,369.13,68.13,8.38,-31.91,29.9,-53.82,-56.94,39.11,50.01
0.37,1000,370.03,68.46,8.44,-31.91,29.91,-53.82,-56.94,39.1,50.01
0.371,1000,371.17,68.88,8.52,-31.91,29.91,-53.82,-56.93,39.1,50.01
0.372,1000,372.08,69.22,8.59,-31.9,29.91,-53.83,-56.93,39.1,50.0
0.373,1000,373.23,69.65,8.66,-31.9,29.92,-53.83,-56.93,39.09,50.0
0.374,1000,374.15,70.0,8.73,-31.9,29.92,-53.83,-56.93,39.09,50.0
0.375,1000,375.03,70.32,8.79,-31.89,29.92,-53.83,-56.93,39.09,50.0
0.376,1000,376.19,70.76,8.87,-31.89,29.93,-53.83,-56.92,39.09,50.0
0.377,1000,377.07,71.09,8.94,-31.89,29.93,-53.84,-56.92,39.08,50.0
0.378,1000,378.25,71.54,9.02,-31.89,29.93,-53.84,-56.92,39.08,50.0
0.379,1000,379.17,71.89,9.09,-31.88,29.93,-53.84,-56.92,39.08,50.0
0.38,1000,380.07,72.23,9.15,-31.88,29.94,-53.84,-56.92,39.07,50.0
0.381,1000,381.19,72.65,9.23,-31.88,29.94,-53.84,-56.91,39.07,50.0
0.382,1000,382.08,72.99,9.3,-31.87,29.94,-53.85,-56.91,39.07,49.99
0.383,1000,383.24,73.44,9.38,-31.87,29.95,-53.85,-56.91,39.06,49.99
0.384,1000,384.17,73.79,9.45,-31.87,29.95,-53.85,-56.91,39.06,49.99
0.385,1000,385.07,74.14,9.52,-31.86,29.95,-53.85,-56.9,39.06,49.99
0.386,1000,386.24,74.59,9.6,-31.86,29.96,-53.85,-56.9,39.06,49.99
0.387,1000,387.2,74.96,9.67,-31.86,29.96,-53.86,-56.9,39.05,49.99
0.388,1000,388.1,75.31,9.74,-31.85,29.96,-53.86,-56.9,39.05,49.99
0.389,1000,389.25,75.76,9.83,-31.85,29.97,-53.86,-56.9,39.05,49.99
0.39,1000,390.21,76.13,9.9,-31.85,29.97,-53.86,-56.89,39.04,49.99
0.391,1000,391.12,76.49,9.97,-31.84,29.97,-53.87,-56.89,39.04,49.98
0.392,1000,392.25,76.93,10.06,-31.84,29.98,-53.87,-56.89,39.04,49.98
0.393,1000,393.19,77.3,10.13,-31.84,29.98,-53.87,-56.89,39.03,49.98
0.394,1000,394.11,77.66,10.2,-31.83,29.98,-53.87,-56.89,39.03,49.98
0.395,1000,395.25,78.11,10.29,-31.83,29.99,-53.87,-56.88,39.03,49.98
0.396,1000,396.19,78.48,10.36,-31.83,29.99,-53.88,-56.88,39.02,49.98
0.397,1000,397.09,78.84,10.44,-31.82,30.0,-53.88,-56.88,39.02,49.98
0.398,1000,398.24,79.3,10.53,-31.82,30.0,-53.88,-56.88,39.02,49.98
0.399,1000,399.15,79.66,10.6,-31.82,30.0,-53.88,-56.87,39.01,49.98
0.4,1000,400.04,80.02,10.67,-31.81,30.01,-53.89,-56.87,39.01,49.97
0.401,1000,401.22,80.49,10.76,-31.81,30.01,-53.89,-56.87,39.01,49.97
0.402,1000,402.12,80.85,10.84,-31.81,30.01,-53.89,-56.87,39.0,49.97
0.403,1000,403.25,81.31,10.93,-31.8,30.02,-53.89,-56.87,39.0,49.97
0.404,1000,404.19,81.68,11.01,-31.8,30.02,-53.9,-56.86,39.0,49.97
0.405,1000,405.08,82.05,11.08,-31.79,30.02,-53.9,-56.86,38.99,49.97
0.406,1000,406.27,82.53,11.18,-31.79,30.03,-53.9,-56.86,38.99,49.97
0.407,1000,407.2,82.91,11.25,-31.79,30.03,-53.9,-56.86,38.99,49.97
0.408,1000,408.11,83.28,11.33,-31.78,30.03,-53.9,-56.85,38.98,49.97
0.409,1000,409.23,83.73,11.42,-31.78,30.04,-53.91,-56.85,38.98,49.96
0.41,1000,410.16,84.12,11.5,-31.78,30.04,-53.91,-56.85,38.98,49.96
0.411,1000,411.29,84.58,11.6,-31.77,30.05,-53.91,-56.85,38.97,49.96
0.412,1000,412.21,84.96,11.67,-31.77,30.05,-53.91,-56.84,38.97,49.96
0.413,1000,413.11,85.33,11.75,-31.77,30.05,-53.92,-56.84,38.96,49.96
0.414,1000,414.24,85.8,11.85,-31.76,30.06,-53.92,-56.84,38.96,49.96
0.415,1000,415.17,86.18,11.93,-31.76,30.06,-53.92,-56.84,38.96,49.96
0.416,1000,416.29,86.65,12.02,-31.75,30.06,-53.92,-56.83,38.95,49.96
0.417,1000,417.2,87.03,12.1,-31.75,30.07,-53.93,-56.83,38.95,49.95
0.418,1000,418.13,87.41,12.18,-31.75,30.07,-53.93,-56.83,38.95,49.95
0.419,1000,419.26,87.89,12.28,-31.74,30.08,-53.93,-56.83,38.94,49.95
0.42,1000,420.2,88.28,12.37,-31.74,30.08,-53.93,-56.82,38.94,49.95
0.421,1000,421.11,88.67,12.45,-31.73,30.08,-53.94,-56.82,38.94,49.95
0.422,1000,422.27,89.16,12.55,-31.73,30.09,-53.94,-56.82,38.93,49.95
0.423,1000,423.19,89.55,12.63,-31.73,30.09,-53.94,-56.82,38.93,49.95
0.424,1000,424.08,89.92,12.71,-31.72,30.1,-53.94,-56.81,38.92,49.95
0.425,1000,425.26,90.42,12.82,-31.72,30.1,-53.95,-56.81,38.92,49.94
0.426,1000,426.17,90.81,12.9,-31.72,30.1,-53.95,-56.81,38.92,49.94
0.427,1000,427.32,91.3,13.0,-31.71,30.11,-53.95,-56.81,38.91,49.94
0.428,1000,428.23,91.69,13.09,-31.71,30.11,-53.96,-56.8,38.91,49.94
0.429,1000,429.13,92.07,13.17,-31.7,30.12,-53.96,-56.8,38.91,49.94
0.43,1000,430.25,92.56,13.27,-31.7,30.12,-53.96,-56.8,38.9,49.94
0.431,1000,431.15,92.95,13.36,-31.7,30.12,-53.96,-56.79,38.9,49.94
0.432,1000,432.29,93.44,13.46,-31.69,30.13,-53.97,-56.79,38.89,49.94
0.433,1000,433.2,93.83,13.55,-31.69,30.13,-53.97,-56.79,38.89,49.93
0.434,1000,434.08,94.21,13.63,-31.68,30.14,-53.97,-56.79,38.89,49.93
0.435,1000,435.27,94.73,13.74,-31.68,30.14,-53.97,-56.78,38.88,49.93
0.436,1000,436.17,95.12,13.83,-31.67,30.15,-53.98,-56.78,38.88,49.93
0.437,1000,437.31,95.62,13.94,-31.67,30.15,-53.98,-56.78,38.87,49.93
0.438,1000,438.25,96.03,14.03,-31.67,30.15,-53.98,-56.78,38.87,49.93
0.439,1000,439.17,96.44,14.12,-31.66,30.16,-53.99,-56.77,38.87,49.93
0.44,1000,440.33,96.94,14.23,-31.66,30.16,-53.99,-56.77,38.86,49.92
0.441,1000,441.27,97.36,14.32,-31.65,30.17,-53.99,-56.77,38.86,49.92
0.442,1000,442.19,97.77,14.41,-31.65,30.17,-53.99,-56.76,38.85,49.92
0.443,1000,443.31,98.26,14.52,-31.65,30.18,-54.0,-56.76,38.85,49.92
0.444,1000,444.25,98.68,14.61,-31.64,30.18,-54.0,-56.76,38.85,49.92
0.445,1000,445.16,99.08,14.7,-31.64,30.18,-54.0,-56.76,38.84,49.92
0.446,1000,446.28,99.58,14.81,-31.63,30.19,-54.0,-56.75,38.84,49.92
0.447,1000,447.19,99.99,14.9,-31.63,30.19,-54.01,-56.75,38.83,49.91
0.448,1000,448.34,100.5,15.02,-31.62,30.2,-54.01,-56.75,38.83,49.91
0.449,1000,449.24,100.91,15.11,-31.62,30.2,-54.01,-56.74,38.83,49.91
0.45,1000,450.15,101.32,15.2,-31.61,30.21,-54.02,-56.74,38.82,49.91
0.451,1000,451.29,101.83,15.32,-31.61,30.21,-54.02,-56.74,38.82,49.91
0.452,1000,452.19,102.24,15.41,-31.61,30.22,-54.02,-56.74,38.81,49.91
0.453,1000,453.31,102.74,15.52,-31.6,30.22,-54.02,-56.73,38.81,49.91
0.454,1000,454.22,103.16,15.62,-31.6,30.22,-54.03,-56.73,38.8,49.9
0.455,1000,455.36,103.68,15.74,-31.59,30.23,-54.03,-56.73,38.8,49.9
0.456,1000,456.27,104.09,15.83,-31.59,30.23,-54.03,-56.72,38.8,49.9
0.457,1000,457.18,104.51,15.93,-31.58,30.24,-54.04,-56.72,38.79,49.9
0.458,1000,458.32,105.03,16.05,-31.58,30.24,-54.04,-56.72,38.79,49.9
0.459,1000,459.23,105.44,16.14,-31.57,30.25,-54.04,-56.71,38.78,49.9
0.46,1000,460.13,105.86,16.24,-31.57,30.25,-54.05,-56.71,38.78,49.89
0.461,1000,461.29,106.39,16.36,-31.56,30.26,-54.05,-56.71,38.77,49.89
0.462,1000,462.21,106.82,16.46,-31.56,30.26,-54.05,-56.7,38.77,49.89
0.463,1000,463.35,107.35,16.58,-31.56,30.27,-54.06,-56.7,38.76,49.89
0.464,1000,464.28,107.78,16.68,-31.55,30.27,-54.06,-56.7,38.76,49.89
0.465,1000,465.18,108.2,16.78,-31.55,30.28,-54.06,-56.7,38.75,49.89
0.466,1000,466.34,108.74,16.9,-31.54,30.28,-54.06,-56.69,38.75,49.89
0.467,1000,467.27,109.17,17.0,-31.54,30.28,-54.07,-56.69,38.75,49.88
0.468,1000,468.19,109.6,17.1,-31.53,30.29,-54.07,-56.69,38.74,49.88
0.469,1000,469.31,110.13,17.23,-31.53,30.29,-54.07,-56.68,38.74,49.88
0.47,1000,470.21,110.55,17.33,-31.52,30.3,-54.08,-56.68,38.73,49.88
0.471,1000,471.37,111.09,17.46,-31.52,30.3,-54.08,-56.68,38.73,49.88
0.472,1000,472.29,111.53,17.56,-31.51,30.31,-54.08,-56.67,38.72,49.88
0.473,1000,473.2,111.96,17.66,-31.51,30.31,-54.09,-56.67,38.72,49.87
0.474,1000,474.33,112.5,17.79,-31.5,30.32,-54.09,-56.67,38.71,49.87
0.475,1000,475.25,112.93,17.89,-31.5,30.32,-54.09,-56.66,38.71,49.87
0.476,1000,476.17,113.37,17.99,-31.49,30.33,-54.1,-56.66,38.7,49.87
0.477,1000,477.33,113.92,18.13,-31.49,30.33,-54.1,-56.66,38.7,49.87
0.478,1000,478.25,114.36,18.23,-31.48,30.34,-54.1,-56.65,38.69,49.87
0.479,1000,479.15,114.79,18.33,-31.48,30.34,-54.11,-56.65,38.69,49.86
0.48,1000,480.32,115.35,18.47,-31.47,30.35,-54.11,-56.65,38.68,49.86
0.481,1000,481.23,115.79,18.57,-31.47,30.35,-54.11,-56.64,38.68,49.86
0.482,1000,482.35,116.33,18.7,-31.46,30.36,-54.12,-56.64,38.67,49.86
0.483,1000,483.25,116.77,18.81,-31.46,30.36,-54.12,-56.64,38.67,49.86
0.484,1000,484.37,117.31,18.94,-31.45,30.37,-54.12,-56.63,38.66,49.86
0.485,1000,485.3,117.76,19.05,-31.45,30.37,-54.13,-56.63,38.66,49.85
0.486,1000,486.21,118.2,19.16,-31.44,30.38,-54.13,-56.63,38.65,49.85
0.487,1000,487.37,118.76,19.29,-31.44,30.39,-54.13,-56.62,38.65,49.85
0.488,1000,488.29,119.22,19.4,-31.43,30.39,-54.14,-56.62,38.65,49.85
0.489,1000,489.2,119.66,19.51,-31.43,30.4,-54.14,-56.62,38.64,49.85
0.49,1000,490.33,120.21,19.65,-31.42,30.4,-54.14,-56.61,38.63,49.85
0.491,1000,491.25,120.66,19.76,-31.41,30.41,-54.15,-56.61,38.63,49.84
0.492,1000,492.39,121.22,19.9,-31.41,30.41,-54.15,-56.61,38.62,49.84
0.493,1000,493.32,121.68,20.01,-31.4,30.42,-54.15,-56.6,38.62,49.84
0.494,1000,494.21,122.12,20.12,-31.4,30.42,-54.16,-56.6,38.61,49.84
0.495,1000,495.36,122.69,20.26,-31.39,30.43,-54.16,-56.59,38.61,49.84
0.496,1000,496.26,123.14,20.37,-31.39,30.43,-54.16,-56.59,38.6,49.83
0.497,1000,497.39,123.7,20.51,-31.38,30.44,-54.17,-56.59,38.6,49.83
0.498,1000,498.33,124.17,20.63,-31.38,30.44,-54.17,-56.58,38.59,49.83
0.499,1000,499.24,124.62,20.74,-31.37,30.45,-54.17,-56.58,38.59,49.83
0.5,0,499.79,125.12,20.86,-31.37,30.45,-54.18,-56.58,38.58,49.83
0.501,0,499.79,125.63,20.99,-31.36,30.46,-54.18,-56.57,38.58,49.83
0.502,0,499.79,126.13,21.12,-31.36,30.47,-54.18,-56.57,38.57,49.82
0.503,0,499.79,126.63,21.24,-31.35,30.47,-54.19,-56.57,38.57,49.82
0.504,0,499.79,127.13,21.37,-31.34,30.48,-54.19,-56.56,38.56,49.82
0.505,0,499.79,127.63,21.5,-31.34,30.48,-54.2,-56.56,38.56,49.82
0.506,0,499.79,128.13,21.63,-31.33,30.49,-54.2,-56.55,38.55,49.82
0.507,0,499.79,128.63,21.76,-31.33,30.49,-54.2,-56.55,38.55,49.81
0.508,0,499.79,129.07,21.87,-31.32,30.5,-54.21,-56.55,38.54,49.81
0.509,0,499.79,129.58,22.0,-31.32,30.51,-54.21,-56.54,38.53,49.81
0.51,0,499.79,130.09,22.13,-31.31,30.51,-54.21,-56.54,38.53,49.81
0.511,0,499.79,130.59,22.26,-31.3,30.52,-54.22,-56.54,38.52,49.81
0.512,0,499.79,131.09,22.39,-31.3,30.52,-54.22,-56.53,38.52,49.8
0.513,0,499.79,131.6,22.53,-31.29,30.53,-54.23,-56.53,38.51,49.8
0.514,0,499.79,132.11,22.66,-31.29,30.53,-54.23,-56.52,38.51,49.8
0.515,0,499.79,132.62,22.8,-31.28,30.54,-54.23,-56.52,38.5,49.8
0.516,0,499.79,133.12,22.93,-31.28,30.55,-54.24,-56.52,38.5,49.8
0.517,0,499.79,133.62,23.06,-31.27,30.55,-54.24,-56.51,38.49,49.79
0.518,0,499.79,134.12,23.2,-31.26,30.56,-54.24,-56.51,38.49,49.79
0.519,0,499.79,134.62,23.33,-31.26,30.56,-54.25,-56.5,38.48,49.79
0.52,0,499.79,135.12,23.47,-31.25,30.57,-54.25,-56.5,38.47,49.79
0.521,0,499.79,135.62,23.6,-31.25,30.57,-54.26,-56.5,38.47,49.79
0.522,0,499.79,136.12,23.74,-31.24,30.58,-54.26,-56.49,38.46,49.78
0.523,0,499.79,136.62,23.87,-31.23,30.59,-54.26,-56.49,38.46,49.78
0.524,0,499.79,137.13,24.01,-31.23,30.59,-54.27,-56.48,38.45,49.78
0.525,0,499.79,137.63,24.15,-31.22,30.6,-54.27,-56.48,38.45,49.78
0.526,0,499.79,138.13,24.29,-31.22,30.6,-54.28,-56.48,38.44,49.78
0.527,0,499.79,138.64,24.43,-31.21,30.61,-54.28,-56.47,38.43,49.77
0.528,0,499.79,139.07,24.55,-31.2,30.62,-54.28,-56.47,38.43,49.77
0.529,0,499.79,139.58,24.69,-31.2,30.62,-54.29,-56.46,38.42,49.77
0.53,0,499.79,140.09,24.84,-31.19,30.63,-54.29,-56.46,38.42,49.77
0.531,0,499.79,140.6,24.98,-31.18,30.64,-54.3,-56.46,38.41,49.76
0.532,0,499.79,141.11,25.12,-31.18,30.64,-54.3,-56.45,38.4,49.76
0.533,0,499.79,141.61,25.26,-31.17,30.65,-54.3,-56.45,38.4,49.76
0.534,0,499.79,142.11,25.4,-31.17,30.65,-54.31,-56.44,38.39,49.76
0.535,0,499.79,142.62,25.55,-31.16,30.66,-54.31,-56.44,38.38,49.76
0.536,0,499.79,143.12,25.69,-31.15,30.67,-54.32,-56.43,38.38,49.75
0.537,0,499.79,143.63,25.84,-31.15,30.67,-54.32,-56.43,38.37,49.75
0.538,0,499.79,144.12,25.98,-31.14,30.68,-54.32,-56.43,38.37,49.75
0.539,0,499.79,144.63,26.13,-31.13,30.69,-54.33,-56.42,38.36,49.75
0.54,0,499.79,145.13,26.27,-31.13,30.69,-54.33,-56.42,38.36,49.74
0.541,0,499.79,145.63,26.42,-31.12,30.7,-54.34,-56.41,38.35,49.74
0.542,0,499.79,146.13,26.57,-31.12,30.7,-54.34,-56.41,38.34,49.74
0.543,0,499.79,146.63,26.71,-31.11,30.71,-54.34,-56.4,38.34,49.74
0.544,0,499.79,147.13,26.86,-31.1,30.72,-54.35,-56.4,38.33,49.74
0.545,0,499.79,147.63,27.01,-31.1,30.72,-54.35,-56.4,38.32,49.73
0.546,0,499.79,148.13,27.15,-31.09,30.73,-54.36,-56.39,38.32,49.73
0.547,0,499.79,148.63,27.3,-31.08,30.74,-54.36,-56.39,38.31,49.73
0.548,0,499.79,149.13,27.45,-31.08,30.74,-54.37,-56.38,38.31,49.73
0.549,0,499.79,149.63,27.6,-31.07,30.75,-54.37,-56.38,38.3,49.72
0.55,0,499.79,150.13,27.75,-31.06,30.76,-54.37,-56.37,38.29,49.72
0.551,0,499.79,150.63,27.9,-31.06,30.76,-54.38,-56.37,38.29,49.72
0.552,0,499.79,151.13,28.05,-31.05,30.77,-54.38,-56.36,38.28,49.72
0.553,0,499.79,151.63,28.2,-31.04,30.78,-54.39,-56.36,38.27,49.72
0.554,0,499.79,152.13,28.35,-31.04,30.78,-54.39,-56.36,38.27,49.71
0.555,0,499.79,152.63,28.51,-31.03,30.79,-54.39,-56.35,38.26,49.71
0.556,0,499.79,153.14,28.66,-31.02,30.8,-54.4,-56.35,38.25,49.71
0.557,0,499.79,153.63,28.81,-31.02,30.8,-54.4,-56.34,38.25,49.71
0.558,0,499.79,154.13,28.97,-31.01,30.81,-54.41,-56.34,38.24,49.7
0.559,0,499.79,154.63,29.12,-31.0,30.82,-54.41,-56.33,38.23,49.7
0.56,0,499.79,155.14,29.28,-30.99,30.82,-54.42,-56.33,38.23,49.7
0.561,0,499.79,155.63,29.43,-30.99,30.83,-54.42,-56.32,38.22,49.7
0.562,0,499.79,156.14,29.59,-30.98,30.84,-54.43,-56.32,38.21,49.69
0.563,0,499.79,156.64,29.75,-30.97,30.84,-54.43,-56.31,38.21,49.69
0.564,0,499.79,157.13,29.9,-30.97,30.85,-54.43,-56.31,38.2,49.69
0.565,0,499.79,157.64,30.06,-30.96,30.86,-54.44,-56.3,38.19,49.69
0.566,0,499.79,158.14,30.22,-30.95,30.86,-54.44,-56.3,38.19,49.68
0.567,0,499.79,158.64,30.38,-30.95,30.87,-54.45,-56.29,38.18,49.68
0.568,0,499.79,159.14,30.54,-30.94,30.88,-54.45,-56.29,38.17,49.68
0.569,0,499.79,159.64,30.7,-30.93,30.88,-54.46,-56.28,38.17,49.68
0.57,0,499.79,160.14,30.86,-30.92,30.89,-54.46,-56.28,38.16,49.67
0.571,0,499.79,160.64,31.02,-30.92,30.9,-54.47,-56.28,38.15,49.67
0.572,0,499.79,161.14,31.18,-30.91,30.91,-54.47,-56.27,38.15,49.67
0.573,0,499.79,161.64,31.34,-30.9,30.91,-54.47,-56.27,38.14,49.67
0.574,0,499.79,162.14,31.5,-30.9,30.92,-54.48,-56.26,38.13,49.66
0.575,0,499.79,162.64,31.67,-30.89,30.93,-54.48,-56.26,38.13,49.66
0.576,0,499.79,163.14,31.83,-30.88,30.93,-54.49,-56.25,38.12,49.66
0.577,0,499.79,163.64,31.99,-30.87,30.94,-54.49,-56.25,38.11,49.66
0.578,0,499.79,164.14,32.16,-30.87,30.95,-54.5,-56.24,38.1,49.65
0.579,0,499.79,164.64,32.32,-30.86,30.96,-54.5,-56.24,38.1,49.65
0.58,0,499.79,165.15,32.49,-30.85,30.96,-54.51,-56.23,38.09,49.65
0.581,0,499.79,165.64,32.65,-30.84,30.97,-54.51,-56.23,38.08,49.65
0.582,0,499.79,166.14,32.82,-30.84,30.98,-54.52,-56.22,38.08,49.64
0.583,0,499.79,166.65,32.98,-30.83,30.98,-54.52,-56.22,38.07,49.64
0.584,0,499.79,167.14,33.15,-30.82,30.99,-54.53,-56.21,38.06,49.64
0.585,0,499.79,167.65,33.32,-30.82,31.0,-54.53,-56.21,38.06,49.64
0.586,0,499.79,168.14,33.49,-30.81,31.01,-54.53,-56.2,38.05,49.63
0.587,0,499.79,168.65,33.66,-30.8,31.01,-54.54,-56.2,38.04,49.63
0.588,0,499.79,169.14,33.82,-30.79,31.02,-54.54,-56.19,38.03,49.63
0.589,0,499.79,169.65,33.99,-30.79,31.03,-54.55,-56.19,38.03,49.62
0.59,0,499.79,170.15,34.16,-30.78,31.04,-54.55,-56.18,38.02,49.62
0.591,0,499.79,170.65,34.33,-30.77,31.04,-54.56,-56.18,38.01,49.62
0.592,0,499.79,171.15,34.51,-30.76,31.05,-54.56,-56.17,38.01,49.62
0.593,0,499.79,171.65,34.68,-30.75,31.06,-54.57,-56.16,38.0,49.61
0.594,0,499.79,172.15,34.85,-30.75,31.07,-54.57,-56.16,37.99,49.61
0.595,0,499.79,172.65,35.02,-30.74,31.07,-54.58,-56.15,37.98,49.61
0.596,0,499.79,173.15,35.2,-30.73,31.08,-54.58,-56.15,37.98,49.6
0.597,0,499.79,173.65,35.37,-30.72,31.09,-54.59,-56.14,37.97,49.6
0.598,0,499.79,174.15,35.54,-30.72,31.1,-54.59,-56.14,37.96,49.6
0.599,0,499.79,174.66,35.72,-30.71,31.1,-54.6,-56.13,37.95,49.6
0.6,0,499.79,175.15,35.89,-30.7,31.11,-54.6,-56.13,37.95,49.59
0.601,0,499.79,175.65,36.07,-30.69,31.12,-54.61,-56.12,37.94,49.59
0.602,0,499.79,176.15,36.25,-30.68,31.13,-54.61,-56.12,37.93,49.59
0.603,0,499.79,176.66,36.42,-30.68,31.13,-54.62,-56.11,37.92,49.59
0.604,0,499.79,177.15,36.6,-30.67,31.14,-54.62,-56.11,37.92,49.58
0.605,0,499.79,177.66,36.78,-30.66,31.15,-54.63,-56.1,37.91,49.58
0.606,0,499.79,178.15,36.95,-30.65,31.16,-54.63,-56.1,37.9,49.58
0.607,0,499.79,178.65,37.13,-30.65,31.16,-54.64,-56.09,37.89,49.57
0.608,0,499.79,179.16,37.31,-30.64,31.17,-54.64,-56.08,37.89,49.57
0.609,0,499.79,179.66,37.49,-30.63,31.18,-54.65,-56.08,37.88,49.57
0.61,0,499.79,180.16,37.67,-30.62,31.19,-54.65,-56.07,37.87,49.56
0.611,0,499.79,180.66,37.85,-30.61,31.2,-54.66,-56.07,37.86,49.56
0.612,0,499.79,181.16,38.03,-30.6,31.2,-54.66,-56.06,37.85,49.56
0.613,0,499.79,181.66,38.22,-30.6,31.21,-54.67,-56.06,37.85,49.56
0.614,0,499.79,182.16,38.4,-30.59,31.22,-54.67,-56.05,37.84,49.55
0.615,0,499.79,182.66,38.58,-30.58,31.23,-54.68,-56.05,37.83,49.55
0.616,0,499.79,183.16,38.76,-30.57,31.24,-54.68,-56.04,37.82,49.55
0.617,0,499.79,183.66,38.95,-30.56,31.24,-54.69,-56.03,37.82,49.54
0.618,0,499.79,184.17,39.13,-30.56,31.25,-54.69,-56.03,37.81,49.54
0.619,0,499.79,184.66,39.32,-30.55,31.26,-54.7,-56.02,37.8,49.54
0.62,0,499.79,185.16,39.5,-30.54,31.27,-54.7,-56.02,37.79,49.54
0.621,0,499.79,185.67,39.69,-30.53,31.28,-54.71,-56.01,37.79,49.53
0.622,0,499.79,186.16,39.87,-30.52,31.28,-54.71,-56.01,37.78,49.53
0.623,0,499.79,186.66,40.06,-30.51,31.29,-54.72,-56.0,37.77,49.53
0.624,0,499.79,187.17,40.25,-30.51,31.3,-54.72,-55.99,37.76,49.52
0.625,0,499.79,187.67,40.43,-30.5,31.31,-54.73,-55.99,37.75,49.52
0.626,0,499.79,188.17,40.62,-30.49,31.32,-54.73,-55.98,37.75,49.52
0.627,0,499.79,188.67,40.81,-30.48,31.32,-54.74,-55.98,37.74,49.51
0.628,0,499.79,189.17,41.0,-30.47,31.33,-54.74,-55.97,37.73,49.51
0.629,0,499.79,189.66,41.19,-30.46,31.34,-54.75,-55.97,37.72,49.51
0.63,0,499.79,190.17,41.38,-30.45,31.35,-54.75,-55.96,37.71,49.5
0.631,0,499.79,190.67,41.57,-30.45,31.36,-54.76,-55.95,37.7,49.5
0.632,0,499.79,191.17,41.76,-30.44,31.37,-54.77,-55.95,37.7,49.5
0.633,0,499.79,191.67,41.95,-30.43,31.37,-54.77,-55.94,37.69,49.49
0.634,0,499.79,192.17,42.15,-30.42,31.38,-54.78,-55.94,37.68,49.49
0.635,0,499.79,192.67,42.34,-30.41,31.39,-54.78,-55.93,37.67,49.49
0.636,0,499.79,193.17,42.53,-30.4,31.4,-54.79,-55.92,37.66,49.49
0.637,0,499.79,193.67,42.73,-30.39,31.41,-54.79,-55.92,37.65,49.48
0.638,0,499.79,194.17,42.92,-30.39,31.42,-54.8,-55.91,37.65,49.48
0.639,0,499.79,194.67,43.11,-30.38,31.42,-54.8,-55.91,37.64,49.48
0.64,0,499.79,195.18,43.31,-30.37,31.43,-54.81,-55.9,37.63,49.47
0.641,0,499.79,195.67,43.51,-30.36,31.44,-54.81,-55.89,37.62,49.47
0.642,0,499.79,196.18,43.7,-30.35,31.45,-54.82,-55.89,37.61,49.47
0.643,0,499.79,196.67,43.9,-30.34,31.46,-54.82,-55.88,37.6,49.46
0.644,0,499.79,197.17,44.1,-30.33,31.47,-54.83,-55.88,37.6,49.46
0.645,0,499.79,197.68,44.29,-30.32,31.47,-54.84,-55.87,37.59,49.46
0.646,0,499.79,198.18,44.49,-30.32,31.48,-54.84,-55.86,37.58,49.45
0.647,0,499.79,198.68,44.69,-30.31,31.49,-54.85,-55.86,37.57,49.45
0.648,0,499.79,199.18,44.89,-30.3,31.5,-54.85,-55.85,37.56,49.45
0.649,0,499.79,199.68,45.09,-30.29,31.51,-54.86,-55.84,37.55,49.44
0.65,0,499.79,200.18,45.29,-30.28,31.52,-54.86,-55.84,37.54,49.44
0.651,0,499.79,200.68,45.49,-30.27,31.53,-54.87,-55.83,37.54,49.44
0.652,0,499.79,201.18,45.69,-30.26,31.53,-54.87,-55.83,37.53,49.43
0.653,0,499.79,201.68,45.89,-30.25,31.54,-54.88,-55.82,37.52,49.43
0.654,0,499.79,202.18,46.1,-30.24,31.55,-54.88,-55.81,37.51,49.43
0.655,0,499.79,202.68,46.3,-30.23,31.56,-54.89,-55.81,37.5,49.42
0.656,0,499.79,203.18,46.5,-30.22,31.57,-54.9,-55.8,37.49,49.42
0.657,0,499.79,203.68,46.71,-30.22,31.58,-54.9,-55.79,37.48,49.42
0.658,0,499.79,204.18,46.91,-30.21,31.59,-54.91,-55.79,37.47,49.41
0.659,0,499.79,204.69,47.12,-30.2,31.6,-54.91,-55.78,37.47,49.41
0.66,0,499.79,205.19,47.32,-30.19,31.6,-54.92,-55.77,37.46,49.4
0.661,0,499.79,205.68,47.52,-30.18,31.61,-54.92,-55.77,37.45,49.4
0.662,0,499.79,206.19,47.73,-30.17,31.62,-54.93,-55.76,37.44,49.4
0.663,0,499.79,206.68,47.94,-30.16,31.63,-54.94,-55.76,37.43,49.39
0.664,0,499.79,207.19,48.15,-30.15,31.64,-54.94,-55.75,37.42,49.39
0.665,0,499.79,207.69,48.36,-30.14,31.65,-54.95,-55.74,37.41,49.39
0.666,0,499.79,208.19,48.56,-30.13,31.66,-54.95,-55.74,37.4,49.38
0.667,0,499.79,208.68,48.77,-30.12,31.67,-54.96,-55.73,37.39,49.38
0.668,0,499.79,209.19,48.98,-30.11,31.68,-54.96,-55.72,37.39,49.38
0.669,0,499.79,209.69,49.19,-30.1,31.68,-54.97,-55.72,37.38,49.37
0.67,0,499.79,210.19,49.4,-30.09,31.69,-54.98,-55.71,37.37,49.37
0.671,0,499.79,210.69,49.61,-30.08,31.7,-54.98,-55.7,37.36,49.36
0.672,0,499.79,211.19,49.82,-30.07,31.71,-54.99,-55.7,37.35,49.36
0.673,0,499.79,211.69,50.03,-30.07,31.72,-54.99,-55.69,37.34,49.36
0.674,0,499.79,212.19,50.25,-30.06,31.73,-55.0,-55.68,37.33,49.35
0.675,0,499.79,212.69,50.46,-30.05,31.74,-55.0,-55.68,37.32,49.35
0.676,0,499.79,213.19,50.67,-30.04,31.75,-55.01,-55.67,37.31,49.35
0.677,0,499.79,213.69,50.89,-30.03,31.76,-55.02,-55.66,37.3,49.34
0.678,0,499.79,214.19,51.1,-30.02,31.77,-55.02,-55.66,37.29,49.34
0.679,0,499.79,214.69,51.31,-30.01,31.78,-55.03,-55.65,37.28,49.34
0.68,0,499.79,215.19,51.53,-30.0,31.79,-55.03,-55.64,37.28,49.33
0.681,0,499.79,215.69,51.74,-29.99,31.79,-55.04,-55.63,37.27,49.33
0.682,0,499.79,216.2,51.96,-29.98,31.8,-55.05,-55.63,37.26,49.32
0.683,0,499.79,216.69,52.18,-29.97,31.81,-55.05,-55.62,37.25,49.32
0.684,0,499.79,217.2,52.4,-29.96,31.82,-55.06,-55.61,37.24,49.32
0.685,0,499.79,217.69,52.61,-29.95,31.83,-55.06,-55.61,37.23,49.31
0.686,0,499.79,218.19,52.83,-29.94,31.84,-55.07,-55.6,37.22,49.31
0.687,0,499.79,218.69,53.05,-29.93,31.85,-55.07,-55.59,37.21,49.3
0.688,0,499.79,219.2,53.27,-29.92,31.86,-55.08,-55.59,37.2,49.3
0.689,0,499.79,219.69,53.49,-29.91,31.87,-55.09,-55.58,37.19,49.3
0.69,0,499.79,220.2,53.71,-29.9,31.88,-55.09,-55.57,37.18,49.29
0.691,0,499.79,220.69,53.93,-29.89,31.89,-55.1,-55.57,37.17,49.29
0.692,0,499.79,221.2,54.15,-29.88,31.9,-55.1,-55.56,37.16,49.29
0.693,0,499.79,221.7,54.37,-29.87,31.91,-55.11,-55.55,37.15,49.28
0.694,0,499.79,222.2,54.6,-29.86,31.92,-55.12,-55.54,37.14,49.28
0.695,0,499.79,222.7,54.82,-29.85,31.93,-55.12,-55.54,37.13,49.27
0.696,0,499.79,223.2,55.04,-29.84,31.94,-55.13,-55.53,37.13,49.27
0.697,0,499.79,223.7,55.26,-29.83,31.95,-55.13,-55.52,37.11,49.27
0.698,0,499.79,224.2,55.49,-29.82,31.95,-55.14,-55.52,37.1,49.26
0.699,0,499.79,224.7,55.71,-29.81,31.96,-55.15,-55.51,37.09,49.26
0.7,0,499.79,225.2,55.94,-29.8,31.97,-55.15,-55.5,37.08,49.25
0.701,0,499.79,225.7,56.16,-29.79,31.98,-55.16,-55.49,37.08,49.25
0.702,0,499.79,226.2,56.39,-29.78,31.99,-55.17,-55.49,37.07,49.25
0.703,0,499.79,226.7,56.62,-29.77,32.0,-55.17,-55.48,37.06,49.24
0.704,0,499.79,227.2,56.84,-29.76,32.01,-55.18,-55.47,37.05,49.24
0.705,0,499.79,227.7,57.07,-29.75,32.02,-55.18,-55.46,37.04,49.23
0.706,0,499.79,228.2,57.3,-29.74,32.03,-55.19,-55.46,37.03,49.23
0.707,0,499.79,228.7,57.53,-29.73,32.04,-55.2,-55.45,37.02,49.23
0.708,0,499.79,229.2,57.76,-29.72,32.05,-55.2,-55.44,37.01,49.22
0.709,0,499.79,229.7,57.99,-29.7,32.06,-55.21,-55.43,37.0,49.22
0.71,0,499.79,230.2,58.22,-29.69,32.07,-55.21,-55.43,36.99,49.21
0.711,0,499.79,230.7,58.45,-29.68,32.08,-55.22,-55.42,36.98,49.21
0.712,0,499.79,231.21,58.68,-29.67,32.09,-55.23,-55.41,36.97,49.2
0.713,0,499.79,231.7,58.91,-29.66,32.1,-55.23,-55.41,36.96,49.2
0.714,0,499.79,232.2,59.14,-29.65,32.11,-55.24,-55.4,36.95,49.2
0.715,0,499.79,232.7,59.37,-29.64,32.12,-55.25,-55.39,36.94,49.19
0.716,0,499.79,233.21,59.61,-29.63,32.13,-55.25,-55.38,36.93,49.19
0.717,0,499.79,233.71,59.84,-29.62,32.14,-55.26,-55.37,36.92,49.18
0.718,0,499.79,234.2,60.08,-29.61,32.15,-55.26,-55.37,36.91,49.18
0.719,0,499.79,234.71,60.31,-29.6,32.16,-55.27,-55.36,36.9,49.17
0.72,0,499.79,235.21,60.55,-29.59,32.17,-55.28,-55.35,36.88,49.17
0.721,0,499.79,235.71,60.79,-29.58,32.18,-55.28,-55.34,36.87,49.17
0.722,0,499.79,236.21,61.02,-29.57,32.19,-55.29,-55.34,36.86,49.16
0.723,0,499.79,236.71,61.26,-29.56,32.2,-55.3,-55.33,36.85,49.16
0.724,0,499.79,237.21,61.5,-29.54,32.21,-55.3,-55.32,36.84,49.15
0.725,0,499.79,237.71,61.73,-29.53,32.22,-55.31,-55.31,36.83,49.15
0.726,0,499.79,238.21,61.97,-29.52,32.23,-55.32,-55.31,36.82,49.14
0.727,0,499.79,238.71,62.21,-29.51,32.24,-55.32,-55.3,36.81,49.14
0.728,0,499.79,239.21,62.45,-29.5,32.25,-55.33,-55.29,36.8,49.14
0.729,0,499.79,239.71,62.69,-29.49,32.26,-55.33,-55.28,36.79,49.13
0.73,0,499.79,240.21,62.93,-29.48,32.27,-55.34,-55.27,36.78,49.13
0.731,0,499.79,240.72,63.17,-29.47,32.28,-55.35,-55.27,36.77,49.12
0.732,0,499.79,241.21,63.41,-29.46,32.29,-55.35,-55.26,36.76,49.12
0.733,0,499.79,241.72,63.65,-29.45,32.3,-55.36,-55.25,36.75,49.11
0.734,0,499.79,242.21,63.89,-29.44,32.31,-55.37,-55.24,36.74,49.11
0.735,0,499.79,242.71,64.13,-29.42,32.32,-55.37,-55.23,36.73,49.1
0.736,0,499.79,243.2,64.37,-29.41,32.33,-55.38,-55.23,36.72,49.1
0.737,0,499.79,243.7,64.62,-29.4,32.34,-55.39,-55.22,36.71,49.1
0.738,0,499.79,244.2,64.86,-29.39,32.35,-55.39,-55.21,36.7,49.09
0.739,0,499.79,244.7,65.1,-29.38,32.36,-55.4,-55.2,36.69,49.09
0.74,0,499.79,245.2,65.35,-29.37,32.37,-55.41,-55.19,36.68,49.08
0.741,0,499.79,245.7,65.6,-29.36,32.38,-55.41,-55.19,36.67,49.08
0.742,0,499.79,246.2,65.84,-29.35,32.39,-55.42,-55.18,36.65,49.07
0.743,0,499.79,246.71,66.09,-29.33,32.41,-55.43,-55.17,36.64,49.07
0.744,0,499.79,247.21,66.34,-29.32,32.42,-55.43,-55.16,36.63,49.06
0.745,0,499.79,247.72,66.59,-29.31,32.43,-55.44,-55.15,36.62,49.06
0.746,0,499.79,248.22,66.84,-29.3,32.44,-55.45,-55.15,36.61,49.05
0.747,0,499.79,248.72,67.09,-29.29,32.45,-55.45,-55.14,36.6,49.05
0.748,0,499.79,249.22,67.34,-29.28,32.46,-55.46,-55.13,36.59,49.04
0.749,0,499.79,249.72,67.59,-29.27,32.47,-55.47,-55.12,36.58,49.04
0.75,0,499.79,250.22,67.84,-29.25,32.48,-55.47,-55.11,36.57,49.03
0.751,0,499.79,250.72,68.09,-29.24,32.49,-55.48,-55.1,36.56,49.03
0.752,0,499.79,251.22,68.34,-29.23,32.5,-55.49,-55.1,36.55,49.03
0.753,0,499.79,251.72,68.59,-29.22,32.51,-55.49,-55.09,36.53,49.02
0.754,0,499.79,252.22,68.84,-29.21,32.52,-55.5,-55.08,36.52,49.02
0.755,0,499.79,252.72,69.1,-29.2,32.53,-55.51,-55.07,36.51,49.01
0.756,0,499.79,253.22,69.35,-29.18,32.54,-55.51,-55.06,36.5,49.01
0.757,0,499.79,253.72,69.6,-29.17,32.55,-55.52,-55.05,36.49,49.0
0.758,0,499.79,254.22,69.86,-29.16,32.56,-55.53,-55.05,36.48,49.0
0.759,0,499.79,254.72,70.11,-29.15,32.58,-55.53,-55.04,36.47,48.99
0.76,0,499.79,255.22,70.37,-29.14,32.59,-55.54,-55.03,36.46,48.99
0.761,0,499.79,255.72,70.62,-29.13,32.6,-55.55,-55.02,36.45,48.98
0.762,0,499.79,256.22,70.88,-29.11,32.61,-55.55,-55.01,36.43,48.98
0.763,0,499.79,256.72,71.14,-29.1,32.62,-55.56,-55.0,36.42,48.97
0.764,0,499.79,257.22,71.39,-29.09,32.63,-55.57,-54.99,36.41,48.97
0.765,0,499.79,257.72,71.65,-29.08,32.64,-55.57,-54.99,36.4,48.96
0.766,0,499.79,258.23,71.91,-29.07,32.65,-55.58,-54.98,36.39,48.96
0.767,0,499.79,258.73,72.17,-29.06,32.66,-55.59,-54.97,36.38,48.95
0.768,0,499.79,259.23,72.43,-29.04,32.67,-55.59,-54.96,36.37,48.95
0.769,0,499.79,259.73,72.69,-29.03,32.68,-55.6,-54.95,36.36,48.94
0.77,0,499.79,260.24,72.95,-29.02,32.69,-55.61,-54.94,36.35,48.94
0.771,0,499.79,260.73,73.21,-29.01,32.71,-55.61,-54.93,36.33,48.93
0.772,0,499.79,261.23,73.47,-28.99,32.72,-55.62,-54.92,36.32,48.93
0.773,0,499.79,261.73,73.74,-28.98,32.73,-55.63,-54.92,36.31,48.92
0.774,0,499.79,262.23,74.0,-28.97,32.74,-55.63,-54.91,36.3,48.92
0.775,0,499.79,262.73,74.26,-28.96,32.75,-55.64,-54.9,36.29,48.91
0.776,0,499.79,263.24,74.53,-28.95,32.76,-55.65,-54.89,36.28,48.91
0.777,0,499.79,263.73,74.79,-28.93,32.77,-55.66,-54.88,36.26,48.9
0.778,0,499.79,264.24,75.05,-28.92,32.78,-55.66,-54.87,36.25,48.89
0.779,0,499.79,264.74,75.32,-28.91,32.79,-55.67,-54.86,36.24,48.89
0.78,0,499.79,265.24,75.58,-28.9,32.81,-55.68,-54.85,36.23,48.88
0.781,0,499.79,265.74,75.85,-28.89,32.82,-55.68,-54.84,36.22,48.88
0.782,0,499.79,266.24,76.12,-28.87,32.83,-55.69,-54.83,36.21,48.87
0.783,0,499.79,266.73,76.38,-28.86,32.84,-55.7,-54.83,36.19,48.87
0.784,0,499.79,267.24,76.65,-28.85,32.85,-55.7,-54.82,36.18,48.86
0.785,0,499.79,267.74,76.91,-28.84,32.86,-55.71,-54.81,36.17,48.86
0.786,0,499.79,268.24,77.19,-28.82,32.87,-55.72,-54.8,36.16,48.85
0.787,0,499.79,268.74,77.45,-28.81,32.88,-55.73,-54.79,36.15,48.85
0.788,0,499.79,269.24,77.72,-28.8,32.89,-55.73,-54.78,36.14,48.84
0.789,0,499.79,269.74,77.99,-28.79,32.91,-55.74,-54.77,36.12,48.84
0.79,0,499.79,270.24,78.26,-28.77,32.92,-55.75,-54.76,36.11,48.83
0.791,0,499.79,270.74,78.53,-28.76,32.93,-55.75,-54.75,36.1,48.83
0.792,0,499.79,271.25,78.81,-28.75,32.94,-55.76,-54.74,36.09,48.82
0.793,0,499.79,271.75,79.08,-28.74,32.95,-55.77,-54.73,36.08,48.82
0.794,0,499.79,272.24,79.35,-28.72,32.96,-55.78,-54.72,36.06,48.81
0.795,0,499.79,272.74,79.62,-28.71,32.97,-55.78,-54.71,36.05,48.8
0.796,0,499.79,273.25,79.9,-28.7,32.99,-55.79,-54.71,36.04,48.8
0.797,0,499.79,273.74,80.17,-28.68,33.0,-55.8,-54.7,36.03,48.79
0.798,0,499.79,274.24,80.44,-28.67,33.01,-55.8,-54.69,36.02,48.79
0.799,0,499.79,274.74,80.71,-28.66,33.02,-55.81,-54.68,36.0,48.78
0.8,-1000,498.98,275.22,80.98,-28.65,33.03,-55.82,-54.67,35.99,48.78
0.801,-1000,498.02,275.7,81.24,-28.64,33.04,-55.82,-54.66,35.98,48.77
0.802,-1000,497.04,276.19,81.52,-28.62,33.05,-55.83,-54.65,35.97,48.77
0.803,-1000,496.07,276.67,81.78,-28.61,33.06,-55.84,-54.64,35.96,48.76
0.804,-1000,495.1,277.15,82.05,-28.6,33.08,-55.85,-54.63,35.95,48.76
0.805,-1000,494.15,277.62,82.32,-28.58,33.09,-55.85,-54.62,35.93,48.75
0.806,-1000,493.21,278.08,82.58,-28.57,33.1,-55.86,-54.61,35.92,48.74
0.807,-1000,491.94,278.71,82.93,-28.56,33.11,-55.87,-54.6,35.91,48.74
0.808,-1000,490.98,279.18,83.2,-28.55,33.12,-55.87,-54.59,35.9,48.73
0.809,-1000,490.02,279.65,83.47,-28.53,33.13,-55.88,-54.58,35.88,48.73
0.81,-1000,489.03,280.14,83.74,-28.52,33.15,-55.89,-54.57,35.87,48.72
0.811,-1000,488.05,280.62,84.02,-28.51,33.16,-55.9,-54.56,35.86,48.71
0.812,-1000,487.05,281.1,84.3,-28.5,33.17,-55.9,-54.55,35.85,48.71
0.813,-1000,486.07,281.58,84.57,-28.48,33.18,-55.91,-54.54,35.84,48.7
0.814,-1000,485.1,282.05,84.85,-28.47,33.19,-55.92,-54.53,35.82,48.7
0.815,-1000,484.14,282.52,85.12,-28.45,33.21,-55.93,-54.52,35.81,48.69
0.816,-1000,483.17,282.98,85.39,-28.44,33.22,-55.93,-54.51,35.8,48.68
0.817,-1000,482.19,283.46,85.67,-28.43,33.23,-55.94,-54.5,35.78,48.68
0.818,-1000,480.93,284.06,86.03,-28.41,33.24,-55.95,-54.49,35.77,48.67
0.819,-1000,479.96,284.53,86.31,-28.4,33.25,-55.95,-54.48,35.76,48.67
0.82,-1000,478.98,285.0,86.58,-28.39,33.26,-55.96,-54.47,35.75,48.66
0.821,-1000,478.0,285.47,86.86,-28.38,33.28,-55.97,-54.46,35.73,48.66
0.822,-1000,477.01,285.94,87.15,-28.36,33.29,-55.98,-54.45,35.72,48.65
0.823,-1000,476.03,286.41,87.43,-28.35,33.3,-55.98,-54.44,35.71,48.64
0.824,-1000,475.04,286.88,87.71,-28.34,33.31,-55.99,-54.43,35.7,48.64
0.825,-1000,474.07,287.34,87.99,-28.32,33.32,-56.0,-54.42,35.68,48.63
0.826,-1000,473.1,287.8,88.27,-28.31,33.33,-56.01,-54.41,35.67,48.62
0.827,-1000,472.16,288.25,88.54,-28.29,33.35,-56.01,-54.4,35.66,48.62
0.828,-1000,470.91,288.83,88.9,-28.28,33.36,-56.02,-54.39,35.64,48.61
0.829,-1000,469.94,289.29,89.18,-28.27,33.37,-56.03,-54.38,35.63,48.61
0.83,-1000,468.97,289.75,89.46,-28.25,33.38,-56.04,-54.37,35.62,48.6
0.831,-1000,468.01,290.19,89.74,-28.24,33.39,-56.04,-54.36,35.61,48.59
0.832,-1000,467.04,290.65,90.02,-28.23,33.41,-56.05,-54.35,35.59,48.59
0.833,-1000,466.06,291.11,90.31,-28.21,33.42,-56.06,-54.34,35.58,48.58
0.834,-1000,465.1,291.55,90.58,-28.2,33.43,-56.07,-54.33,35.57,48.57
0.835,-1000,463.9,292.11,90.93,-28.18,33.44,-56.07,-54.32,35.55,48.57
0.836,-1000,462.91,292.57,91.22,-28.17,33.46,-56.08,-54.31,35.54,48.56
0.837,-1000,461.94,293.02,91.51,-28.16,33.47,-56.09,-54.3,35.53,48.56
0.838,-1000,460.96,293.47,91.79,-28.14,33.48,-56.1,-54.29,35.52,48.55
0.839,-1000,460.0,293.91,92.08,-28.13,33.49,-56.1,-54.28,35.5,48.54
0.84,-1000,459.03,294.36,92.36,-28.11,33.5,-56.11,-54.27,35.49,48.54
0.841,-1000,458.06,294.8,92.65,-28.1,33.51,-56.12,-54.26,35.47,48.53
0.842,-1000,457.1,295.24,92.93,-28.09,33.53,-56.13,-54.25,35.46,48.52
0.843,-1000,456.12,295.69,93.22,-28.07,33.54,-56.13,-54.24,35.45,48.52
0.844,-1000,455.12,296.14,93.52,-28.06,33.55,-56.14,-54.23,35.44,48.51
0.845,-1000,454.13,296.59,93.81,-28.05,33.57,-56.15,-54.21,35.42,48.51
0.846,-1000,453.14,297.04,94.1,-28.03,33.58,-56.16,-54.2,35.41,48.5
0.847,-1000,452.15,297.49,94.4,-28.02,33.59,-56.16,-54.19,35.4,48.49
0.848,-1000,451.16,297.94,94.69,-28.0,33.6,-56.17,-54.18,35.38,48.49
0.849,-1000,449.89,298.51,95.07,-27.99,33.61,-56.18,-54.17,35.37,48.48
0.85,-1000,448.9,298.95,95.37,-27.98,33.63,-56.19,-54.16,35.36,48.47
0.851,-1000,447.93,299.39,95.66,-27.96,33.64,-56.19,-54.15,35.34,48.47
0.852,-1000,446.97,299.82,95.95,-27.95,33.65,-56.2,-54.14,35.33,48.46
0.853,-1000,446.01,300.25,96.23,-27.93,33.66,-56.21,-54.13,35.32,48.45
0.854,-1000,445.04,300.68,96.53,-27.92,33.67,-56.22,-54.12,35.31,48.45
0.855,-1000,444.06,301.12,96.82,-27.9,33.69,-56.22,-54.11,35.29,48.44
0.856,-1000,443.09,301.55,97.11,-27.89,33.7,-56.23,-54.1,35.28,48.43
0.857,-1000,442.1,301.98,97.41,-27.88,33.71,-56.24,-54.09,35.26,48.43
0.858,-1000,441.13,302.42,97.71,-27.86,33.73,-56.25,-54.07,35.25,48.42
0.859,-1000,439.88,302.96,98.08,-27.85,33.74,-56.25,-54.06,35.24,48.41
0.86,-1000,438.91,303.39,98.38,-27.84,33.75,-56.26,-54.05,35.22,48.41
0.861,-1000,437.92,303.82,98.68,-27.82,33.76,-56.27,-54.04,35.21,48.4
0.862,-1000,436.93,304.26,98.98,-27.81,33.77,-56.28,-54.03,35.2,48.39
0.863,-1000,435.96,304.68,99.27,-27.79,33.79,-56.28,-54.02,35.18,48.39
0.864,-1000,434.98,305.11,99.57,-27.78,33.8,-56.29,-54.01,35.17,48.38
0.865,-1000,434.0,305.54,99.87,-27.76,33.81,-56.3,-54.0,35.16,48.37
0.866,-1000,433.02,305.96,100.17,-27.75,33.82,-56.31,-53.99,35.14,48.36
0.867,-1000,432.04,306.38,100.47,-27.73,33.84,-56.32,-53.98,35.13,48.36
0.868,-1000,431.08,306.8,100.77,-27.72,33.85,-56.32,-53.96,35.11,48.35
0.869,-1000,430.1,307.22,101.07,-27.7,33.86,-56.33,-53.95,35.1,48.34
0.87,-1000,429.11,307.64,101.37,-27.69,33.88,-56.34,-53.94,35.09,48.34
0.871,-1000,427.85,308.18,101.76,-27.68,33.89,-56.35,-53.93,35.07,48.33
0.872,-1000,426.87,308.6,102.06,-27.66,33.9,-56.36,-53.92,35.06,48.32
0.873,-1000,425.89,309.02,102.36,-27.65,33.91,-56.36,-53.91,35.05,48.32
0.874,-1000,424.91,309.44,102.67,-27.63,33.93,-56.37,-53.9,35.03,48.31
0.875,-1000,423.94,309.85,102.97,-27.62,33.94,-56.38,-53.89,35.02,48.3
0.876,-1000,422.95,310.27,103.27,-27.6,33.95,-56.39,-53.87,35.01,48.3
0.877,-1000,421.98,310.68,103.57,-27.59,33.96,-56.4,-53.86,34.99,48.29
0.878,-1000,420.99,311.09,103.88,-27.57,33.97,-56.4,-53.85,34.98,48.28
0.879,-1000,419.98,311.52,104.2,-27.56,33.99,-56.41,-53.84,34.96,48.27
0.88,-1000,418.98,311.94,104.51,-27.55,34.0,-56.42,-53.83,34.95,48.27
0.881,-1000,417.98,312.36,104.82,-27.53,34.01,-56.43,-53.82,34.94,48.26
0.882,-1000,416.99,312.77,105.13,-27.51,34.03,-56.43,-53.81,34.92,48.25
0.883,-1000,415.98,313.19,105.45,-27.5,34.04,-56.44,-53.79,34.91,48.25
0.884,-1000,414.98,313.61,105.76,-27.48,34.05,-56.45,-53.78,34.89,48.24
0.885,-1000,413.98,314.02,106.08,-27.47,34.06,-56.46,-53.77,34.88,48.23
0.886,-1000,412.98,314.44,106.39,-27.45,34.08,-56.47,-53.76,34.87,48.22
0.887,-1000,411.98,314.85,106.7,-27.44,34.09,-56.47,-53.75,34.85,48.22
0.888,-1000,410.98,315.26,107.02,-27.42,34.1,-56.48,-53.74,34.84,48.21
0.889,-1000,409.98,315.67,107.34,-27.41,34.12,-56.49,-53.72,34.82,48.2
0.89,-1000,408.97,316.08,107.65,-27.39,34.13,-56.5,-53.71,34.81,48.19
0.891,-1000,407.98,316.49,107.97,-27.38,34.14,-56.5,-53.7,34.8,48.19
0.892,-1000,406.99,316.89,108.28,-27.36,34.15,-56.51,-53.69,34.78,48.18
0.893,-1000,405.99,317.3,108.6,-27.35,34.17,-56.52,-53.68,34.77,48.17
0.894,-1000,405.02,317.69,108.91,-27.33,34.18,-56.53,-53.67,34.75,48.16
0.895,-1000,404.02,318.09,109.22,-27.32,34.19,-56.54,-53.65,34.74,48.16
0.896,-1000,403.06,318.48,109.53,-27.3,34.21,-56.54,-53.64,34.72,48.15
0.897,-1000,401.84,318.97,109.92,-27.29,34.22,-56.55,-53.63,34.71,48.14
0.898,-1000,400.87,319.36,110.23,-27.27,34.23,-56.56,-53.62,34.69,48.13
0.899,-1000,399.9,319.75,110.54,-27.26,34.24,-56.57,-53.6,34.68,48.13
0.9,-1000,398.94,320.14,110.85,-27.24,34.26,-56.57,-53.59,34.67,48.12
0.901,-1000,397.96,320.53,111.16,-27.23,34.27,-56.58,-53.58,34.65,48.11
0.902,-1000,397.0,320.91,111.46,-27.21,34.28,-56.59,-53.57,34.64,48.1
0.903,-1000,396.06,321.28,111.77,-27.2,34.3,-56.6,-53.55,34.62,48.09
0.904,-1000,395.07,321.67,112.09,-27.18,34.31,-56.61,-53.54,34.61,48.09
0.905,-1000,393.81,322.17,112.49,-27.17,34.32,-56.61,-53.53,34.59,48.08
0.906,-1000,392.82,322.56,112.81,-27.15,34.34,-56.62,-53.52,34.58,48.07
0.907,-1000,391.84,322.94,113.13,-27.14,34.35,-56.63,-53.51,34.56,48.06
0.908,-1000,390.87,323.32,113.44,-27.12,34.36,-56.64,-53.49,34.55,48.06
0.909,-1000,389.91,323.7,113.75,-27.11,34.37,-56.65,-53.48,34.54,48.05
0.91,-1000,388.96,324.07,114.06,-27.09,34.39,-56.66,-53.47,34.52,48.04
0.911,-1000,387.99,324.44,114.37,-27.07,34.4,-56.66,-53.46,34.5,48.03
0.912,-1000,387.03,324.82,114.68,-27.06,34.42,-56.67,-53.44,34.49,48.02
0.913,-1000,386.06,325.19,115.0,-27.04,34.43,-56.68,-53.43,34.48,48.02
0.914,-1000,384.81,325.67,115.41,-27.03,34.44,-56.69,-53.42,34.46,48.01
0.915,-1000,383.83,326.05,115.73,-27.01,34.45,-56.69,-53.41,34.45,48.0
0.916,-1000,382.85,326.42,116.05,-27.0,34.47,-56.7,-53.39,34.43,47.99
0.917,-1000,381.89,326.79,116.36,-26.98,34.48,-56.71,-53.38,34.42,47.99
0.918,-1000,380.92,327.16,116.68,-26.97,34.49,-56.72,-53.37,34.41,47.98
0.919,-1000,379.94,327.54,117.0,-26.95,34.5,-56.73,-53.36,34.39,47.97
0.92,-1000,378.96,327.91,117.32,-26.93,34.52,-56.74,-53.35,34.38,47.96
0.921,-1000,377.97,328.28,117.64,-26.91,34.53,-56.74,-53.33,34.36,47.95
0.922,-1000,377.0,328.65,117.96,-26.9,34.54,-56.75,-53.32,34.34,47.94
0.923,-1000,376.01,329.02,118.29,-26.88,34.56,-56.76,-53.3,34.33,47.94
0.924,-1000,375.04,329.39,118.61,-26.87,34.57,-56.77,-53.29,34.31,47.93
0.925,-1000,374.06,329.75,118.93,-26.85,34.59,-56.77,-53.28,34.3,47.92
0.926,-1000,372.78,330.23,119.35,-26.84,34.6,-56.78,-53.27,34.28,47.91
0.927,-1000,371.8,330.6,119.68,-26.82,34.61,-56.79,-53.25,34.27,47.9
0.928,-1000,370.84,330.95,119.99,-26.81,34.62,-56.8,-53.24,34.26,47.9
0.929,-1000,369.89,331.3,120.31,-26.79,34.64,-56.81,-53.23,34.24,47.89
0.93,-1000,368.96,331.65,120.62,-26.77,34.65,-56.82,-53.22,34.22,47.88
0.931,-1000,368.0,332.0,120.94,-26.76,34.67,-56.82,-53.2,34.21,47.87
0.932,-1000,366.77,332.45,121.34,-26.74,34.68,-56.83,-53.19,34.2,47.86
0.933,-1000,365.81,332.8,121.66,-26.73,34.69,-56.84,-53.18,34.18,47.85
0.934,-1000,364.84,333.16,121.98,-26.71,34.7,-56.85,-53.16,34.17,47.85
0.935,-1000,363.88,333.51,122.31,-26.69,34.72,-56.85,-53.15,34.15,47.84
0.936,-1000,362.91,333.86,122.63,-26.67,34.73,-56.86,-53.14,34.14,47.83
0.937,-1000,361.95,334.21,122.95,-26.66,34.75,-56.87,-53.13,34.12,47.82
0.938,-1000,360.76,334.64,123.35,-26.64,34.76,-56.88,-53.11,34.1,47.81
0.939,-1000,359.8,334.98,123.67,-26.63,34.77,-56.89,-53.1,34.09,47.8
0.94,-1000,358.84,335.33,123.99,-26.61,34.78,-56.9,-53.09,34.08,47.79
0.941,-1000,357.91,335.66,124.3,-26.59,34.8,-56.9,-53.07,34.06,47.78
0.942,-1000,356.97,336.0,124.62,-26.58,34.81,-56.91,-53.06,34.04,47.78
0.943,-1000,356.01,336.34,124.94,-26.56,34.83,-56.92,-53.05,34.03,47.77
0.944,-1000,354.78,336.78,125.36,-26.55,34.84,-56.93,-53.03,34.01,47.76
0.945,-1000,353.82,337.12,125.68,-26.53,34.85,-56.94,-53.02,34.0,47.75
0.946,-1000,352.89,337.45,125.99,-26.51,34.86,-56.95,-53.01,33.99,47.74
0.947,-1000,351.95,337.78,126.31,-26.5,34.88,-56.95,-52.99,33.97,47.73
0.948,-1000,351.0,338.11,126.63,-26.48,34.89,-56.96,-52.98,33.95,47.72
0.949,-1000,349.75,338.55,127.05,-26.47,34.91,-56.97,-52.96,33.94,47.72
0.95,-1000,348.78,338.89,127.38,-26.45,34.92,-56.98,-52.95,33.92,47.71
0.951,-1000,347.82,339.22,127.71,-26.43,34.93,-56.98,-52.94,33.91,47.7
0.952,-1000,346.88,339.55,128.03,-26.41,34.94,-56.99,-52.93,33.89,47.69
0.953,-1000,345.92,339.88,128.35,-26.4,34.96,-57.0,-52.91,33.88,47.68
0.954,-1000,344.98,340.21,128.67,-26.38,34.97,-57.01,-52.9,33.86,47.67
0.955,-1000,344.01,340.54,129.0,-26.37,34.99,-57.02,-52.88,33.85,47.66
0.956,-1000,342.75,340.97,129.43,-26.35,35.0,-57.03,-52.87,33.83,47.65
0.957,-1000,341.81,341.3,129.75,-26.34,35.01,-57.03,-52.86,33.82,47.64
0.958,-1000,340.86,341.62,130.08,-26.32,35.03,-57.04,-52.84,33.8,47.64
0.959,-1000,339.91,341.94,130.4,-26.3,35.04,-57.05,-52.83,33.78,47.63
0.96,-1000,338.99,342.26,130.72,-26.28,35.05,-57.06,-52.81,33.77,47.62
0.961,-1000,337.75,342.67,131.14,-26.27,35.07,-57.07,-52.8,33.75,47.61
0.962,-1000,336.78,343.0,131.48,-26.25,35.08,-57.07,-52.79,33.74,47.6
0.963,-1000,335.83,343.32,131.8,-26.24,35.09,-57.08,-52.78,33.72,47.59
0.964,-1000,334.88,343.64,132.13,-26.22,35.11,-57.09,-52.76,33.7,47.58
0.965,-1000,333.93,343.96,132.45,-26.2,35.12,-57.1,-52.74,33.69,47.57
0.966,-1000,332.97,344.28,132.78,-26.18,35.14,-57.11,-52.73,33.67,47.56
0.967,-1000,331.99,344.6,133.12,-26.17,35.15,-57.12,-52.72,33.66,47.55
0.968,-1000,330.76,345.01,133.55,-26.15,35.16,-57.12,-52.7,33.64,47.54
0.969,-1000,329.78,345.33,133.88,-26.13,35.18,-57.13,-52.69,33.63,47.53
0.97,-1000,328.83,345.65,134.21,-26.12,35.19,-57.14,-52.68,33.61,47.53
0.971,-1000,327.87,345.96,134.54,-26.1,35.2,-57.15,-52.66,33.6,47.52
0.972,-1000,326.9,346.28,134.88,-26.08,35.21,-57.16,-52.65,33.58,47.51
0.973,-1000,325.92,346.6,135.22,-26.07,35.23,-57.17,-52.64,33.56,47.5
0.974,-1000,324.94,346.92,135.56,-26.05,35.24,-57.17,-52.62,33.55,47.49
0.975,-1000,323.96,347.24,135.9,-26.03,35.26,-57.18,-52.61,33.53,47.48
0.976,-1000,322.74,347.63,136.32,-26.02,35.27,-57.19,-52.59,33.52,47.47
0.977,-1000,321.79,347.94,136.65,-26.0,35.28,-57.2,-52.58,33.5,47.46
0.978,-1000,320.81,348.25,136.99,-25.98,35.3,-57.21,-52.56,33.49,47.45
0.979,-1000,319.87,348.55,137.32,-25.96,35.31,-57.22,-52.55,33.47,47.44
0.98,-1000,318.95,348.85,137.64,-25.95,35.33,-57.22,-52.53,33.45,47.43
0.981,-1000,317.72,349.24,138.07,-25.93,35.34,-57.23,-52.52,33.44,47.42
0.982,-1000,316.72,349.56,138.42,-25.91,35.35,-57.24,-52.51,33.42,47.41
0.983,-1000,315.75,349.86,138.76,-25.9,35.37,-57.25,-52.49,33.41,47.4
0.984,-1000,314.8,350.16,139.09,-25.88,35.38,-57.25,-52.48,33.39,47.39
0.985,-1000,313.87,350.45,139.42,-25.86,35.39,-57.26,-52.46,33.37,47.38
0.986,-1000,312.94,350.75,139.74,-25.84,35.41,-57.27,-52.45,33.36,47.37
0.987,-1000,311.71,351.13,140.18,-25.83,35.42,-57.28,-52.43,33.34,47.36
0.988,-1000,310.75,351.43,140.51,-25.81,35.43,-57.29,-52.42,33.33,47.35
0.989,-1000,309.8,351.72,140.85,-25.8,35.45,-57.3,-52.4,33.31,47.34
0.99,-1000,308.85,352.02,141.18,-25.77,35.46,-57.31,-52.39,33.29,47.33
0.991,-1000,307.88,352.32,141.52,-25.76,35.48,-57.31,-52.38,33.28,47.32
0.992,-1000,306.91,352.62,141.87,-25.74,35.49,-57.32,-52.36,33.26,47.31
0.993,-1000,305.93,352.92,142.21,-25.72,35.5,-57.33,-52.34,33.25,47.3
0.994,-1000,304.68,353.3,142.65,-25.71,35.52,-57.34,-52.33,33.23,47.29
0.995,-1000,303.72,353.59,142.99,-25.69,35.53,-57.35,-52.32,33.22,47.28
0.996,-1000,302.78,353.88,143.33,-25.67,35.54,-57.35,-52.3,33.2,47.27
0.997,-1000,301.8,354.17,143.67,-25.66,35.56,-57.36,-52.29,33.18,47.26
0.998,-1000,300.81,354.47,144.02,-25.64,35.57,-57.37,-52.27,33.17,47.25
0.999,-1000,299.85,354.76,144.36,-25.62,35.58,-57.38,-52.26,33.15,47.24
1.0,-1000,298.88,355.05,144.71,-25.6,35.6,-57.39,-52.24,33.13,47.23
1.001,-1000,297.68,355.4,145.13,-25.59,35.61,-57.4,-52.23,33.12,47.22
1.002,-1000,296.72,355.69,145.48,-25.57,35.63,-57.4,-52.21,33.1,47.21
1.003,-1000,295.78,355.97,145.81,-25.55,35.64,-57.41,-52.2,33.09,47.2
1.004,-1000,294.84,356.25,146.14,-25.53,35.65,-57.42,-52.18,33.07,47.19
1.005,-1000,293.89,356.53,146.48,-25.51,35.67,-57.43,-52.16,33.05,47.18
1.006,-1000,292.92,356.81,146.83,-25.5,35.68,-57.44,-52.15,33.04,47.17
1.007,-1000,291.69,357.17,147.27,-25.48,35.7,-57.45,-52.13,33.02,47.16
1.008,-1000,290.74,357.45,147.61,-25.46,35.71,-57.45,-52.12,33.0,47.15
1.009,-1000,289.79,357.72,147.95,-25.44,35.72,-57.46,-52.11,32.99,47.14
1.01,-1000,288.86,357.99,148.28,-25.43,35.74,-57.47,-52.09,32.97,47.13
1.011,-1000,287.66,358.34,148.71,-25.41,35.75,-57.48,-52.07,32.95,47.12
1.012,-1000,286.71,358.61,149.05,-25.39,35.77,-57.49,-52.06,32.94,47.11
1.013,-1000,285.76,358.88,149.39,-25.38,35.78,-57.49,-52.04,32.92,47.1
1.014,-1000,284.81,359.15,149.73,-25.35,35.79,-57.5,-52.03,32.9,47.09
1.015,-1000,283.87,359.42,150.07,-25.34,35.81,-57.51,-52.01,32.89,47.08
1.016,-1000,282.92,359.69,150.41,-25.32,35.82,-57.52,-52.0,32.87,47.07
1.017,-1000,281.71,360.03,150.85,-25.3,35.83,-57.53,-51.98,32.86,47.06
1.018,-1000,280.77,360.3,151.18,-25.28,35.85,-57.54,-51.97,32.84,47.05
1.019,-1000,279.82,360.56,151.53,-25.27,35.86,-57.55,-51.95,32.82,47.03
1.02,-1000,278.85,360.83,151.88,-25.25,35.88,-57.55,-51.93,32.81,47.02
1.021,-1000,277.91,361.1,152.22,-25.23,35.89,-57.56,-51.92,32.79,47.01
1.022,-1000,276.71,361.43,152.65,-25.22,35.9,-57.57,-51.9,32.77,47.0
1.023,-1000,275.77,361.69,152.99,-25.19,35.92,-57.58,-51.89,32.76,46.99
1.024,-1000,274.81,361.95,153.34,-25.18,35.93,-57.59,-51.87,32.74,46.98
1.025,-1000,273.84,362.22,153.69,-25.16,35.95,-57.59,-51.86,32.72,46.97
1.026,-1000,272.88,362.48,154.03,-25.14,35.96,-57.6,-51.84,32.71,46.96
1.027,-1000,271.67,362.81,154.48,-25.13,35.97,-57.61,-51.82,32.69,46.95
1.028,-1000,270.73,363.07,154.82,-25.11,35.99,-57.62,-51.81,32.68,46.94
1.029,-1000,269.79,363.32,155.16,-25.09,36.0,-57.63,-51.8,32.66,46.92
1.03,-1000,268.84,363.58,155.5,-25.07,36.02,-57.64,-51.78,32.64,46.91
1.031,-1000,267.89,363.83,155.85,-25.05,36.03,-57.64,-51.76,32.62,46.9
1.032,-1000,266.65,364.16,156.3,-25.04,36.04,-57.65,-51.75,32.61,46.89
1.033,-1000,265.71,364.41,156.64,-25.02,36.06,-57.66,-51.73,32.59,46.88
1.034,-1000,264.78,364.66,156.98,-25.0,36.07,-57.67,-51.72,32.57,46.87
1.035,-1000,263.86,364.9,157.32,-24.98,36.09,-57.68,-51.7,32.56,46.86
1.036,-1000,262.64,365.22,157.76,-24.96,36.1,-57.69,-51.68,32.54,46.85
1.037,-1000,261.67,365.48,158.12,-24.95,36.11,-57.69,-51.67,32.53,46.84
1.038,-1000,260.73,365.72,158.46,-24.93,36.13,-57.7,-51.65,32.51,46.83
1.039,-1000,259.77,365.97,158.81,-24.91,36.14,-57.71,-51.63,32.49,46.81
1.04,-1000,258.83,366.21,159.15,-24.89,36.16,-57.72,-51.62,32.47,46.8
1.041,-1000,257.87,366.46,159.51,-24.87,36.17,-57.73,-51.6,32.46,46.79
1.042,-1000,256.62,366.79,159.97,-24.85,36.18,-57.73,-51.58,32.44,46.78
1.043,-1000,255.66,367.03,160.32,-24.84,36.2,-57.74,-51.57,32.42,46.77
1.044,-1000,254.74,367.27,160.65,-24.81,36.21,-57.75,-51.55,32.4,46.76
1.045,-1000,253.81,367.5,161.0,-24.8,36.23,-57.76,-51.53,32.39,46.75
1.046,-1000,252.87,367.74,161.34,-24.78,36.24,-57.77,-51.52,32.37,46.73
1.047,-1000,251.64,368.05,161.8,-24.76,36.25,-57.78,-51.5,32.36,46.72
1.048,-1000,250.72,368.28,162.13,-24.74,36.27,-57.79,-51.49,32.34,46.71
1.049,-1000,249.76,368.52,162.49,-24.72,36.28,-57.79,-51.47,32.32,46.7
1.05,-1000,248.81,368.76,162.84,-24.71,36.3,-57.8,-51.45,32.3,46.69
1.051,-1000,247.59,369.06,163.29,-24.69,36.31,-57.81,-51.44,32.29,46.68
1.052,-1000,246.65,369.29,163.63,-24.67,36.32,-57.82,-51.42,32.27,46.67
1.053,-1000,245.71,369.53,163.98,-24.65,36.34,-57.83,-51.4,32.26,46.65
1.054,-1000,244.75,369.76,164.34,-24.63,36.35,-57.84,-51.39,32.24,46.64
1.055,-1000,243.83,369.99,164.68,-24.61,36.37,-57.84,-51.37,32.22,46.63
1.056,-1000,242.59,370.29,165.14,-24.6,36.38,-57.85,-51.35,32.2,46.62
1.057,-1000,241.64,370.52,165.49,-24.58,36.39,-57.86,-51.34,32.19,46.61
1.058,-1000,240.71,370.74,165.83,-24.56,36.4,-57.87,-51.32,32.17,46.6
1.059,-1000,239.75,370.97,166.19,-24.54,36.42,-57.88,-51.3,32.15,46.58
1.06,-1000,238.81,371.2,166.54,-24.52,36.44,-57.88,-51.28,32.13,46.57
1.061,-1000,237.58,371.49,167.0,-24.5,36.45,-57.89,-51.27,32.12,46.56
1.062,-1000,236.61,371.72,167.36,-24.49,36.46,-57.9,-51.25,32.1,46.55
1.063,-1000,235.65,371.95,167.71,-24.47,36.48,-57.91,-51.23,32.09,46.54
1.064,-1000,234.72,372.16,168.06,-24.45,36.49,-57.92,-51.22,32.07,46.52
1.065,-1000,233.79,372.38,168.4,-24.43,36.51,-57.93,-51.2,32.05,46.51
1.066,-1000,232.58,372.67,168.86,-24.41,36.52,-57.93,-51.18,32.03,46.5
1.067,-1000,231.62,372.89,169.21,-24.39,36.53,-57.94,-51.17,32.02,46.49
1.068,-1000,230.71,373.1,169.55,-24.37,36.54,-57.95,-51.15,32.0,46.48
1.069,-1000,229.77,373.31,169.9,-24.35,36.56,-57.96,-51.13,31.98,46.46
1.07,-1000,228.84,373.53,170.25,-24.34,36.57,-57.97,-51.11,31.96,46.45
1.071,-1000,227.58,373.81,170.72,-24.32,36.59,-57.97,-51.1,31.95,46.44
1.072,-1000,226.61,374.04,171.08,-24.3,36.6,-57.98,-51.08,31.93,46.43
1.073,-1000,225.67,374.25,171.44,-24.28,36.61,-57.99,-51.06,31.91,46.41
1.074,-1000,224.76,374.45,171.78,-24.26,36.63,-58.0,-51.04,31.89,46.4
1.075,-1000,223.84,374.66,172.12,-24.24,36.64,-58.01,-51.03,31.88,46.39
1.076,-1000,222.59,374.94,172.59,-24.22,36.66,-58.02,-51.01,31.86,46.38
1.077,-1000,221.66,375.15,172.94,-24.2,36.67,-58.03,-50.99,31.85,46.36
1.078,-1000,220.75,375.35,173.28,-24.18,36.69,-58.03,-50.97,31.83,46.35
1.079,-1000,219.8,375.56,173.64,-24.17,36.7,-58.04,-50.96,31.81,46.34
1.08,-1000,218.83,375.77,174.0,-24.15,36.71,-58.05,-50.94,31.79,46.33
1.081,-1000,217.59,376.04,174.47,-24.13,36.73,-58.06,-50.92,31.78,46.31
1.082,-1000,216.65,376.24,174.82,-24.11,36.74,-58.06,-50.91,31.76,46.3
1.083,-1000,215.72,376.45,175.17,-24.09,36.75,-58.07,-50.89,31.74,46.29
1.084,-1000,214.78,376.65,175.52,-24.07,36.77,-58.08,-50.87,31.72,46.27
1.085,-1000,213.54,376.91,175.99,-24.05,36.78,-58.09,-50.85,31.71,46.26
1.086,-1000,212.59,377.11,176.35,-24.03,36.8,-58.1,-50.83,31.69,46.25
1.087,-1000,211.66,377.31,176.7,-24.01,36.81,-58.11,-50.82,31.67,46.24
1.088,-1000,210.71,377.51,177.06,-23.99,36.82,-58.12,-50.8,31.65,46.22
1.089,-1000,209.77,377.71,177.41,-23.98,36.84,-58.12,-50.78,31.64,46.21
1.09,-1000,208.54,377.97,177.88,-23.96,36.85,-58.13,-50.76,31.62,46.2
1.091,-1000,207.59,378.17,178.24,-23.94,36.87,-58.14,-50.75,31.6,46.19
1.092,-1000,206.64,378.36,178.6,-23.92,36.88,-58.15,-50.73,31.59,46.17
1.093,-1000,205.69,378.56,178.96,-23.9,36.89,-58.16,-50.71,31.56,46.16
1.094,-1000,204.74,378.75,179.31,-23.88,36.91,-58.16,-50.69,31.55,46.15
1.095,-1000,203.78,378.95,179.68,-23.86,36.92,-58.17,-50.67,31.53,46.13
1.096,-1000,202.58,379.19,180.13,-23.84,36.94,-58.18,-50.66,31.51,46.12
1.097,-1000,201.66,379.38,180.48,-23.82,36.95,-58.19,-50.64,31.49,46.11
1.098,-1000,200.74,379.56,180.83,-23.8,36.97,-58.2,-50.62,31.48,46.09
1.099,-1000,199.78,379.76,181.2,-23.78,36.98,-58.21,-50.6,31.46,46.08
1.1,-1000,198.53,380.0,181.67,-23.77,36.99,-58.21,-50.58,31.44,46.07
1.101,-1000,197.56,380.2,182.04,-23.75,37.01,-58.22,-50.56,31.43,46.05
1.102,-1000,196.63,380.38,182.4,-23.72,37.02,-58.23,-50.55,31.41,46.04
1.103,-1000,195.69,380.57,182.75,-23.71,37.03,-58.24,-50.53,31.39,46.03
1.104,-1000,194.75,380.75,183.11,-23.69,37.05,-58.25,-50.51,31.37,46.01
1.105,-1000,193.79,380.93,183.47,-23.67,37.06,-58.25,-50.49,31.36,46.0
1.106,-1000,192.56,381.17,183.95,-23.65,37.08,-58.26,-50.47,31.34,45.99
1.107,-1000,191.63,381.35,184.3,-23.63,37.09,-58.27,-50.45,31.32,45.98
1.108,-1000,190.7,381.53,184.65,-23.61,37.11,-58.28,-50.43,31.3,45.96
1.109,-1000,189.51,381.75,185.11,-23.59,37.12,-58.29,-50.42,31.29,45.95
1.11,-1000,188.55,381.94,185.47,-23.57,37.13,-58.3,-50.4,31.27,45.93
1.111,-1000,187.62,382.11,185.83,-23.55,37.15,-58.3,-50.38,31.25,45.92
1.112,-1000,186.68,382.29,186.19,-23.53,37.16,-58.31,-50.36,31.23,45.9
1.113,-1000,185.76,382.46,186.54,-23.51,37.18,-58.32,-50.34,31.21,45.89
1.114,-1000,184.5,382.69,187.02,-23.5,37.19,-58.33,-50.32,31.2,45.88
1.115,-1000,183.53,382.87,187.39,-23.48,37.2,-58.34,-50.3,31.18,45.86
1.116,-1000,182.6,383.04,187.75,-23.45,37.22,-58.35,-50.29,31.16,45.85
1.117,-1000,181.66,383.21,188.11,-23.44,37.23,-58.35,-50.26,31.14,45.84
1.118,-1000,180.74,383.38,188.46,-23.42,37.25,-58.36,-50.25,31.13,45.82
1.119,-1000,179.48,383.61,188.95,-23.4,37.26,-58.37,-50.23,31.11,45.81
1.12,-1000,178.5,383.78,189.32,-23.38,37.27,-58.38,-50.21,31.09,45.8
1.121,-1000,177.54,383.95,189.69,-23.36,37.29,-58.38,-50.19,31.07,45.78
1.122,-1000,176.6,384.12,190.05,-23.34,37.3,-58.39,-50.17,31.06,45.77
1.123,-1000,175.63,384.29,190.43,-23.32,37.31,-58.4,-50.15,31.04,45.75
1.124,-1000,174.67,384.46,190.79,-23.3,37.33,-58.41,-50.13,31.02,45.74
1.125,-1000,173.74,384.62,191.15,-23.28,37.34,-58.42,-50.11,31.0,45.72
1.126,-1000,172.48,384.84,191.64,-23.26,37.36,-58.43,-50.09,30.99,45.71
1.127,-1000,171.52,385.0,192.01,-23.24,37.37,-58.43,-50.08,30.97,45.7
1.128,-1000,170.6,385.16,192.36,-23.22,37.38,-58.44,-50.06,30.95,45.68
1.129,-1000,169.67,385.32,192.72,-23.2,37.4,-58.45,-50.04,30.93,45.67
1.13,-1000,168.49,385.52,193.17,-23.18,37.41,-58.46,-50.02,30.91,45.65
1.131,-1000,167.52,385.68,193.55,-23.16,37.43,-58.47,-50.0,30.9,45.64
1.132,-1000,166.61,385.83,193.9,-23.14,37.44,-58.48,-49.98,30.88,45.62
1.133,-1000,165.71,385.98,194.24,-23.12,37.46,-58.48,-49.96,30.86,45.61
1.134,-1000,164.46,386.19,194.73,-23.1,37.47,-58.49,-49.94,30.84,45.6
1.135,-1000,163.49,386.35,195.1,-23.08,37.48,-58.5,-49.92,30.83,45.58
1.136,-1000,162.56,386.5,195.46,-23.07,37.5,-58.51,-49.9,30.81,45.57
1.137,-1000,161.61,386.65,195.83,-23.04,37.51,-58.52,-49.88,30.79,45.55
1.138,-1000,160.66,386.81,196.19,-23.02,37.53,-58.52,-49.86,30.77,45.54
1.139,-1000,159.46,387.0,196.66,-23.0,37.54,-58.53,-49.84,30.75,45.52
1.14,-1000,158.49,387.15,197.04,-22.99,37.55,-58.54,-49.82,30.74,45.51
1.141,-1000,157.53,387.3,197.41,-22.97,37.57,-58.55,-49.8,30.72,45.5
1.142,-1000,156.59,387.45,197.77,-22.94,37.58,-58.56,-49.79,30.7,45.48
1.143,-1000,155.68,387.59,198.12,-22.92,37.59,-58.56,-49.76,30.68,45.46
1.144,-1000,154.45,387.78,198.6,-22.91,37.61,-58.57,-49.74,30.66,45.45
1.145,-1000,153.5,387.93,198.97,-22.89,37.62,-58.58,-49.72,30.65,45.44
1.146,-1000,152.56,388.07,199.33,-22.86,37.63,-58.59,-49.71,30.63,45.42
1.147,-1000,151.62,388.22,199.7,-22.84,37.65,-58.6,-49.68,30.61,45.4
1.148,-1000,150.44,388.4,200.16,-22.83,37.66,-58.6,-49.66,30.59,45.39
1.149,-1000,149.48,388.54,200.53,-22.81,37.68,-58.61,-49.64,30.57,45.38
1.15,-1000,148.54,388.68,200.9,-22.78,37.69,-58.62,-49.63,30.56,45.36
1.151,-1000,147.6,388.82,201.26,-22.76,37.71,-58.63,-49.6,30.54,45.34
1.152,-1000,146.67,388.96,201.62,-22.75,37.72,-58.64,-49.58,30.52,45.33
1.153,-1000,145.43,389.14,202.1,-22.73,37.73,-58.64,-49.56,30.5,45.32
1.154,-1000,144.46,389.28,202.48,-22.71,37.75,-58.65,-49.54,30.48,45.3
1.155,-1000,143.51,389.41,202.85,-22.69,37.76,-58.66,-49.52,30.47,45.29
1.156,-1000,142.56,389.55,203.22,-22.66,37.77,-58.67,-49.5,30.45,45.27
1.157,-1000,141.61,389.69,203.59,-22.64,37.79,-58.68,-49.48,30.43,45.25
1.158,-1000,140.68,389.82,203.95,-22.63,37.8,-58.68,-49.46,30.41,45.24
1.159,-1000,139.45,389.99,204.44,-22.61,37.82,-58.69,-49.44,30.39,45.22
1.16,-1000,138.49,390.12,204.81,-22.59,37.83,-58.7,-49.42,30.38,45.21
1.161,-1000,137.56,390.25,205.17,-22.56,37.84,-58.71,-49.4,30.36,45.19
1.162,-1000,136.66,390.37,205.53,-22.54,37.86,-58.72,-49.38,30.34,45.18
1.163,-1000,135.45,390.54,206.0,-22.53,37.87,-58.72,-49.36,30.32,45.16
1.164,-1000,134.5,390.67,206.37,-22.51,37.88,-58.73,-49.34,30.31,45.15
1.165,-1000,133.57,390.79,206.73,-22.48,37.9,-58.74,-49.32,30.28,45.13
1.166,-1000,132.63,390.92,207.1,-22.46,37.91,-58.75,-49.3,30.27,45.11
1.167,-1000,131.41,391.08,207.57,-22.44,37.93,-58.76,-49.28,30.25,45.1
1.168,-1000,130.45,391.2,207.95,-22.43,37.94,-58.76,-49.26,30.23,45.08
1.169,-1000,129.53,391.32,208.31,-22.4,37.95,-58.77,-49.24,30.22,45.07
1.17,-1000,128.6,391.44,208.68,-22.38,37.97,-58.78,-49.21,30.19,45.05
1.171,-1000,127.41,391.6,209.14,-22.36,37.98,-58.79,-49.19,30.18,45.04
1.172,-1000,126.45,391.72,209.52,-22.34,37.99,-58.8,-49.17,30.16,45.02
1.173,-1000,125.5,391.84,209.89,-22.32,38.01,-58.81,-49.15,30.14,45.01
1.174,-1000,124.57,391.95,210.25,-22.3,38.02,-58.81,-49.13,30.12,44.99
1.175,-1000,123.64,392.07,210.62,-22.28,38.04,-58.82,-49.11,30.1,44.97
1.176,-1000,122.41,392.22,211.1,-22.26,38.05,-58.83,-49.09,30.09,44.96
1.177,-1000,121.45,392.34,211.48,-22.24,38.06,-58.84,-49.07,30.07,44.94
1.178,-1000,120.53,392.45,211.84,-22.22,38.08,-58.84,-49.05,30.05,44.92
1.179,-1000,119.61,392.56,212.2,-22.2,38.09,-58.85,-49.02,30.03,44.91
1.18,-1000,118.4,392.7,212.68,-22.18,38.11,-58.86,-49.0,30.01,44.89
1.181,-1000,117.44,392.82,213.05,-22.16,38.12,-58.87,-48.98,30.0,44.88
1.182,-1000,116.52,392.92,213.41,-22.14,38.13,-58.88,-48.96,29.98,44.86
1.183,-1000,115.58,393.03,213.78,-22.12,38.15,-58.88,-48.94,29.96,44.84
1.184,-1000,114.39,393.17,214.25,-22.1,38.16,-58.89,-48.92,29.94,44.83
1.185,-1000,113.44,393.28,214.62,-22.08,38.17,-58.9,-48.9,29.92,44.81
1.186,-1000,112.49,393.39,215.0,-22.06,38.19,-58.91,-48.88,29.91,44.8
1.187,-1000,111.52,393.49,215.38,-22.04,38.2,-58.92,-48.86,29.88,44.78
1.188,-1000,110.6,393.6,215.74,-22.02,38.21,-58.92,-48.83,29.87,44.76
1.189,-1000,109.38,393.73,216.22,-22.0,38.23,-58.93,-48.81,29.85,44.75
1.19,-1000,108.43,393.83,216.6,-21.98,38.24,-58.94,-48.79,29.83,44.73
1.191,-1000,107.48,393.94,216.97,-21.95,38.25,-58.95,-48.77,29.82,44.71
1.192,-1000,106.53,394.04,217.34,-21.93,38.27,-58.95,-48.75,29.79,44.69
1.193,-1000,105.59,394.14,217.71,-21.91,38.28,-58.96,-48.72,29.78,44.68
1.194,-1000,104.37,394.27,218.2,-21.9,38.3,-58.97,-48.7,29.76,44.66
1.195,-1000,103.4,394.37,218.58,-21.88,38.31,-58.98,-48.68,29.74,44.65
1.196,-1000,102.47,394.46,218.94,-21.85,38.32,-58.99,-48.66,29.72,44.63
1.197,-1000,101.51,394.56,219.32,-21.83,38.34,-58.99,-48.64,29.7,44.61
1.198,-1000,100.58,394.65,219.69,-21.81,38.35,-59.0,-48.62,29.69,44.59
1.199,-1000,99.62,394.78,220.17,-21.79,38.36,-59.01,-48.59,29.67,44.58
1.2,-1000,98.39,394.87,220.55,-21.77,38.38,-59.02,-48.57,29.65,44.56
1.201,-1000,97.46,394.96,220.92,-21.75,38.39,-59.03,-48.55,29.63,44.55
1.202,-1000,96.53,395.05,221.29,-21.73,38.4,-59.03,-48.53,29.61,44.53
1.203,-1000,95.57,395.15,221.67,-21.71,38.42,-59.04,-48.51,29.59,44.51
1.204,-1000,94.61,395.24,222.05,-21.69,38.43,-59.05,-48.48,29.58,44.49
1.205,-1000,93.38,395.35,222.53,-21.67,38.45,-59.06,-48.46,29.56,44.48
1.206,-1000,92.43,395.44,222.91,-21.65,38.46,-59.06,-48.44,29.54,44.46
1.207,-1000,91.48,395.53,223.28,-21.63,38.47,-59.07,-48.42,29.52,44.44
1.208,-1000,90.54,395.61,223.66,-21.61,38.49,-59.08,-48.39,29.5,44.42
1.209,-1000,89.61,395.7,224.03,-21.59,38.5,-59.09,-48.37,29.48,44.41
1.21,-1000,88.39,395.81,224.51,-21.57,38.51,-59.09,-48.35,29.47,44.39
1.211,-1000,87.44,395.89,224.88,-21.55,38.53,-59.1,-48.33,29.45,44.37
1.212,-1000,86.49,395.97,225.26,-21.52,38.54,-59.11,-48.31,29.43,44.35
1.213,-1000,85.52,396.05,225.64,-21.5,38.56,-59.12,-48.28,29.41,44.34
1.214,-1000,84.58,396.14,226.02,-21.48,38.57,-59.13,-48.26,29.39,44.32
1.215,-1000,83.36,396.24,226.5,-21.46,38.58,-59.13,-48.24,29.38,44.3
1.216,-1000,82.4,396.32,226.88,-21.44,38.59,-59.14,-48.22,29.36,44.29
1.217,-1000,81.45,396.39,227.25,-21.42,38.61,-59.15,-48.2,29.34,44.27
1.218,-1000,80.5,396.47,227.63,-21.4,38.62,-59.16,-48.17,29.32,44.25
1.219,-1000,79.55,396.55,228.01,-21.38,38.64,-59.16,-48.15,29.3,44.23
1.22,-1000,78.34,396.64,228.49,-21.36,38.65,-59.17,-48.12,29.28,44.21
1.221,-1000,77.39,396.72,228.87,-21.34,38.66,-59.18,-48.1,29.27,44.2
1.222,-1000,76.46,396.79,229.24,-21.31,38.67,-59.19,-48.08,29.24,44.18
1.223,-1000,75.51,396.86,229.61,-21.29,38.69,-59.2,-48.06,29.23,44.16
1.224,-1000,74.56,396.93,229.99,-21.27,38.7,-59.2,-48.03,29.21,44.14
1.225,-1000,73.34,397.02,230.48,-21.25,38.72,-59.21,-48.01,29.19,44.12
1.226,-1000,72.39,397.09,230.85,-21.23,38.73,-59.22,-47.99,29.17,44.11
1.227,-1000,71.45,397.16,231.23,-21.21,38.74,-59.23,-47.97,29.15,44.09
1.228,-1000,70.51,397.23,231.6,-21.19,38.76,-59.23,-47.94,29.14,44.07
1.229,-1000,69.58,397.29,231.97,-21.17,38.77,-59.24,-47.92,29.12,44.05
1.23,-1000,68.34,397.38,232.46,-21.15,38.78,-59.25,-47.89,29.1,44.03
1.231,-1000,67.38,397.44,232.84,-21.13,38.8,-59.26,-47.87,29.08,44.02
1.232,-1000,66.42,397.51,233.22,-21.11,38.81,-59.26,-47.85,29.06,44.0
1.233,-1000,65.44,397.57,233.61,-21.09,38.82,-59.27,-47.83,29.04,43.98
1.234,-1000,64.5,397.63,233.99,-21.07,38.84,-59.28,-47.8,29.03,43.96
1.235,-1000,63.31,397.71,234.46,-21.05,38.85,-59.29,-47.78,29.01,43.94
1.236,-1000,62.34,397.77,234.85,-21.03,38.86,-59.29,-47.76,28.99,43.92
1.237,-1000,61.39,397.83,235.22,-21.01,38.88,-59.3,-47.73,28.97,43.91
1.238,-1000,60.44,397.89,235.6,-20.98,38.89,-59.31,-47.71,28.95,43.89
1.239,-1000,59.53,397.94,235.96,-20.96,38.9,-59.32,-47.68,28.93,43.87
1.24,-1000,58.3,398.01,236.45,-20.94,38.92,-59.32,-47.66,28.92,43.85
1.241,-1000,57.35,398.07,236.83,-20.92,38.93,-59.33,-47.64,28.9,43.83
1.242,-1000,56.41,398.12,237.21,-20.9,38.94,-59.34,-47.62,28.88,43.81
1.243,-1000,55.49,398.17,237.57,-20.88,38.96,-59.35,-47.59,28.86,43.79
1.244,-1000,54.55,398.22,237.95,-20.86,38.97,-59.35,-47.56,28.84,43.77
1.245,-1000,53.3,398.29,238.44,-20.84,38.98,-59.36,-47.54,28.82,43.76
1.246,-1000,52.34,398.34,238.83,-20.82,39.0,-59.37,-47.52,28.81,43.74
1.247,-1000,51.41,398.39,239.2,-20.79,39.01,-59.38,-47.5,28.79,43.72
1.248,-1000,50.48,398.44,239.57,-20.77,39.02,-59.39,-47.47,28.77,43.7
1.249,-1000,49.29,398.5,240.04,-20.75,39.04,-59.39,-47.45,28.75,43.68
1.25,-1000,48.33,398.54,240.42,-20.73,39.05,-59.4,-47.42,28.73,43.66
1.251,-1000,47.4,398.59,240.79,-20.71,39.06,-59.41,-47.4,28.72,43.64
1.252,-1000,46.44,398.63,241.18,-20.69,39.07,-59.42,-47.38,28.69,43.62
1.253,-1000,45.49,398.68,241.56,-20.67,39.09,-59.42,-47.35,28.68,43.6
1.254,-1000,44.54,398.72,241.94,-20.65,39.1,-59.43,-47.33,28.66,43.58
1.255,-1000,43.28,398.78,242.44,-20.63,39.11,-59.44,-47.3,28.64,43.57
1.256,-1000,42.32,398.82,242.82,-20.61,39.13,-59.44,-47.28,28.62,43.55
1.257,-1000,41.37,398.86,243.2,-20.58,39.14,-59.45,-47.26,28.61,43.53
1.258,-1000,40.44,398.89,243.57,-20.56,39.15,-59.46,-47.23,28.58,43.51
1.259,-1000,39.5,398.93,243.95,-20.54,39.17,-59.47,-47.2,28.57,43.49
1.26,-1000,38.26,398.98,244.44,-20.52,39.18,-59.47,-47.18,28.55,43.47
1.261,-1000,37.31,399.02,244.82,-20.5,39.19,-59.48,-47.16,28.53,43.45
1.262,-1000,36.37,399.05,245.19,-20.47,39.21,-59.49,-47.13,28.51,43.43
1.263,-1000,35.45,399.08,245.56,-20.46,39.22,-59.5,-47.1,28.49,43.41
1.264,-1000,34.26,399.13,246.03,-20.44,39.23,-59.5,-47.08,28.47,43.39
1.265,-1000,33.3,399.16,246.42,-20.41,39.25,-59.51,-47.06,28.46,43.37
1.266,-1000,32.36,399.19,246.79,-20.39,39.26,-59.52,-47.03,28.44,43.35
1.267,-1000,31.43,399.22,247.16,-20.37,39.27,-59.53,-47.01,28.42,43.33
1.268,-1000,30.52,399.25,247.53,-20.35,39.29,-59.53,-46.98,28.4,43.31
1.269,-1000,29.29,399.28,248.02,-20.33,39.3,-59.54,-46.96,28.38,43.29
1.27,-1000,28.37,399.31,248.39,-20.31,39.31,-59.55,-46.94,28.36,43.27
1.271,-1000,27.45,399.34,248.76,-20.29,39.32,-59.56,-46.91,28.34,43.25
1.272,-1000,26.26,399.37,249.23,-20.27,39.34,-59.56,-46.88,28.33,43.23
1.273,-1000,25.31,399.39,249.61,-20.25,39.35,-59.57,-46.86,28.31,43.21
1.274,-1000,24.37,399.42,249.98,-20.22,39.36,-59.58,-46.84,28.29,43.19
1.275,-1000,23.44,399.44,250.35,-20.2,39.38,-59.59,-46.81,28.27,43.17
1.276,-1000,22.24,399.46,250.84,-20.18,39.39,-59.59,-46.78,28.25,43.15
1.277,-1000,21.28,399.49,251.22,-20.16,39.4,-59.6,-46.76,28.24,43.13
1.278,-1000,20.35,399.5,251.59,-20.14,39.41,-59.61,-46.74,28.21,43.11
1.279,-1000,19.44,399.52,251.95,-20.12,39.43,-59.61,-46.71,28.2,43.09
1.28,-1000,18.26,399.55,252.43,-20.1,39.44,-59.62,-46.68,28.18,43.07
1.281,-1000,17.31,399.56,252.81,-20.08,39.45,-59.63,-46.66,28.16,43.05
1.282,-1000,16.38,399.58,253.18,-20.05,39.46,-59.64,-46.64,28.14,43.03
1.283,-1000,15.45,399.59,253.55,-20.03,39.48,-59.64,-46.61,28.12,43.01
1.284,-1000,14.48,399.61,253.94,-20.01,39.49,-59.65,-46.58,28.11,42.99
1.285,-1000,13.27,399.62,254.42,-19.99,39.5,-59.66,-46.56,28.09,42.97
1.286,-1000,12.36,399.64,254.78,-19.97,39.52,-59.67,-46.53,28.07,42.94
1.287,-1000,11.42,399.65,255.16,-19.95,39.53,-59.67,-46.5,28.05,42.93
1.288,-1000,10.24,399.66,255.63,-19.93,39.54,-59.68,-46.48,28.03,42.91
1.289,-1000,9.28,399.67,256.02,-19.9,39.56,-59.69,-46.45,28.02,42.89
1.29,-1000,8.36,399.68,256.38,-19.88,39.57,-59.69,-46.43,27.99,42.87
1.291,-1000,7.41,399.68,256.76,-19.86,39.58,-59.7,-46.41,27.98,42.84
1.292,-1000,6.21,399.69,257.24,-19.84,39.6,-59.71,-46.38,27.96,42.82
1.293,-1000,5.26,399.7,257.62,-19.82,39.61,-59.72,-46.35,27.94,42.8
1.294,-1000,4.34,399.7,257.99,-19.79,39.62,-59.72,-46.33,27.92,42.78
1.295,-1000,3.42,399.71,258.35,-19.77,39.63,-59.73,-46.3,27.9,42.76
1.296,-1000,2.24,399.71,258.83,-19.75,39.65,-59.74,-46.27,27.89,42.74
1.297,-1000,1.3,399.71,259.2,-19.73,39.66,-59.74,-46.25,27.87,42.72
1.298,-1000,0.37,399.71,259.57,-19.71,39.67,-59.75,-46.22,27.85,42.69
1.299,0,0.0,399.71,260.03,-19.69,39.68,-59.76,-46.19,27.83,42.68
1.3,0,0.0,399.71,260.43,-19.67,39.7,-59.77,-46.17,27.81,42.65
1.301,0,0.0,399.71,260.81,-19.64,39.71,-59.77,-46.14,27.79,42.63
1.302,0,0.0,399.71,261.22,-19.62,39.72,-59.78,-46.12,27.77,42.61
1.303,0,0.0,399.71,261.62,-19.6,39.73,-59.79,-46.09,27.76,42.59
1.304,0,0.0,399.71,262.02,-19.58,39.75,-59.8,-46.06,27.74,42.57
1.305,0,0.0,399.71,262.42,-19.56,39.76,-59.8,-46.04,27.72,42.54
1.306,0,0.0,399.71,262.82,-19.54,39.77,-59.81,-46.01,27.7,42.52
1.307,0,0.0,399.71,263.23,-19.52,39.78,-59.82,-45.98,27.68,42.5
1.308,0,0.0,399.71,263.63,-19.49,39.8,-59.82,-45.96,27.66,42.48
1.309,0,0.0,399.71,264.03,-19.47,39.81,-59.83,-45.93,27.65,42.46
1.31,0,0.0,399.71,264.43,-19.45,39.82,-59.84,-45.91,27.63,42.44
1.311,0,0.0,399.71,264.83,-19.43,39.84,-59.84,-45.88,27.61,42.42
1.312,0,0.0,399.71,265.23,-19.41,39.85,-59.85,-45.85,27.59,42.4
1.313,0,0.0,399.71,265.64,-19.39,39.86,-59.86,-45.82,27.57,42.37
1.314,0,0.0,399.71,266.04,-19.37,39.87,-59.86,-45.8,27.56,42.35
1.315,0,0.0,399.71,266.45,-19.35,39.89,-59.87,-45.77,27.54,42.33
1.316,0,0.0,399.71,266.84,-19.33,39.9,-59.88,-45.74,27.52,42.31
1.317,0,0.0,399.71,267.24,-19.3,39.91,-59.89,-45.72,27.5,42.29
1.318,0,0.0,399.71,267.65,-19.28,39.92,-59.89,-45.69,27.48,42.26
1.319,0,0.0,399.71,267.99,-19.26,39.94,-59.9,-45.66,27.46,42.24
1.32,0,0.0,399.71,268.4,-19.24,39.95,-59.91,-45.64,27.45,42.22
1.321,0,0.0,399.71,268.81,-19.22,39.96,-59.91,-45.61,27.43,42.2
1.322,0,0.0,399.71,269.21,-19.19,39.97,-59.92,-45.58,27.41,42.17
1.323,0,0.0,399.71,269.62,-19.17,39.98,-59.93,-45.55,27.39,42.15
1.324,0,0.0,399.71,270.02,-19.15,40.0,-59.94,-45.53,27.37,42.13
1.325,0,0.0,399.71,270.42,-19.13,40.01,-59.94,-45.5,27.35,42.11
1.326,0,0.0,399.71,270.81,-19.11,40.02,-59.95,-45.47,27.34,42.08
1.327,0,0.0,399.71,271.21,-19.09,40.03,-59.96,-45.44,27.32,42.06
1.328,0,0.0,399.71,271.61,-19.07,40.05,-59.96,-45.42,27.3,42.04
1.329,0,0.0,399.71,272.01,-19.04,40.06,-59.97,-45.39,27.28,42.02
1.33,0,0.0,399.71,272.42,-19.02,40.07,-59.98,-45.36,27.26,41.99
1.331,0,0.0,399.71,272.82,-19.0,40.08,-59.98,-45.34,27.24,41.97
1.332,0,0.0,399.71,273.22,-18.98,40.1,-59.99,-45.31,27.23,41.95
1.333,0,0.0,399.71,273.62,-18.96,40.11,-60.0,-45.28,27.21,41.93
1.334,0,0.0,399.71,274.02,-18.94,40.12,-60.0,-45.25,27.19,41.9
1.335,0,0.0,399.71,274.43,-18.91,40.13,-60.01,-45.23,27.17,41.88
1.336,0,0.0,399.71,274.83,-18.89,40.15,-60.02,-45.2,27.15,41.86
1.337,0,0.0,399.71,275.23,-18.87,40.16,-60.03,-45.17,27.13,41.83
1.338,0,0.0,399.71,275.63,-18.85,40.17,-60.03,-45.14,27.12,41.81
1.339,0,0.0,399.71,276.03,-18.83,40.18,-60.04,-45.12,27.1,41.79
1.34,0,0.0,399.71,276.43,-18.81,40.19,-60.05,-45.09,27.08,41.76
1.341,0,0.0,399.71,276.83,-18.78,40.21,-60.05,-45.06,27.06,41.74
1.342,0,0.0,399.71,277.22,-18.76,40.22,-60.06,-45.03,27.04,41.72
1.343,0,0.0,399.71,277.62,-18.74,40.23,-60.07,-45.0,27.02,41.69
1.344,0,0.0,399.71,278.02,-18.72,40.24,-60.07,-44.98,27.01,41.67
1.345,0,0.0,399.71,278.43,-18.7,40.26,-60.08,-44.95,26.99,41.65
1.346,0,0.0,399.71,278.82,-18.68,40.27,-60.09,-44.92,26.97,41.62
1.347,0,0.0,399.71,279.22,-18.65,40.28,-60.09,-44.89,26.95,41.6
1.348,0,0.0,399.71,279.62,-18.63,40.29,-60.1,-44.86,26.93,41.58
1.349,0,0.0,399.71,280.03,-18.61,40.3,-60.11,-44.83,26.92,41.55
1.35,0,0.0,399.71,280.43,-18.59,40.32,-60.11,-44.81,26.9,41.53
1.351,0,0.0,399.71,280.83,-18.57,40.33,-60.12,-44.78,26.88,41.51
1.352,0,0.0,399.71,281.23,-18.55,40.34,-60.13,-44.75,26.86,41.48
1.353,0,0.0,399.71,281.63,-18.52,40.35,-60.13,-44.72,26.84,41.46
1.354,0,0.0,399.71,282.03,-18.5,40.36,-60.14,-44.69,26.82,41.44
1.355,0,0.0,399.71,282.43,-18.48,40.38,-60.15,-44.66,26.81,41.41
1.356,0,0.0,399.71,282.83,-18.46,40.39,-60.15,-44.63,26.79,41.39
1.357,0,0.0,399.71,283.23,-18.44,40.4,-60.16,-44.61,26.77,41.36
1.358,0,0.0,399.71,283.63,-18.42,40.41,-60.17,-44.58,26.75,41.34
1.359,0,0.0,399.71,284.03,-18.39,40.42,-60.17,-44.55,26.73,41.32
1.36,0,0.0,399.71,284.43,-18.37,40.44,-60.18,-44.52,26.72,41.29
1.361,0,0.0,399.71,284.83,-18.35,40.45,-60.19,-44.49,26.7,41.27
1.362,0,0.0,399.71,285.23,-18.33,40.46,-60.19,-44.46,26.68,41.24
1.363,0,0.0,399.71,285.63,-18.31,40.47,-60.2,-44.43,26.66,41.22
1.364,0,0.0,399.71,286.03,-18.28,40.48,-60.21,-44.4,26.64,41.19
1.365,0,0.0,399.71,286.43,-18.26,40.5,-60.21,-44.37,26.62,41.17
1.366,0,0.0,399.71,286.84,-18.24,40.51,-60.22,-44.34,26.61,41.15
1.367,0,0.0,399.71,287.24,-18.22,40.52,-60.23,-44.32,26.59,41.12
1.368,0,0.0,399.71,287.64,-18.2,40.53,-60.23,-44.29,26.57,41.1
1.369,0,0.0,399.71,288.04,-18.18,40.54,-60.24,-44.26,26.55,41.07
1.37,0,0.0,399.71,288.44,-18.15,40.56,-60.25,-44.23,26.53,41.05
1.371,0,0.0,399.71,288.84,-18.13,40.57,-60.25,-44.2,26.52,41.02
1.372,0,0.0,399.71,289.24,-18.11,40.58,-60.26,-44.17,26.5,41.0
1.373,0,0.0,399.71,289.64,-18.09,40.59,-60.27,-44.14,26.48,40.97
1.374,0,0.0,399.71,290.03,-18.07,40.6,-60.27,-44.11,26.46,40.95
1.375,0,0.0,399.71,290.43,-18.05,40.62,-60.28,-44.08,26.44,40.92
1.376,0,0.0,399.71,290.83,-18.02,40.63,-60.29,-44.05,26.43,40.9
1.377,0,0.0,399.71,291.24,-18.0,40.64,-60.29,-44.02,26.41,40.87
1.378,0,0.0,399.71,291.64,-17.98,40.65,-60.3,-43.99,26.39,40.85
1.379,0,0.0,399.71,292.04,-17.96,40.66,-60.31,-43.96,26.37,40.82
1.38,0,0.0,399.71,292.43,-17.94,40.67,-60.31,-43.93,26.35,40.8
1.381,0,0.0,399.71,292.83,-17.91,40.69,-60.32,-43.9,26.34,40.77
1.382,0,0.0,399.71,293.23,-17.89,40.7,-60.33,-43.87,26.32,40.75
1.383,0,0.0,399.71,293.64,-17.87,40.71,-60.33,-43.84,26.3,40.72
1.384,0,0.0,399.71,294.04,-17.85,40.72,-60.34,-43.81,26.28,40.7
1.385,0,0.0,399.71,294.44,-17.83,40.73,-60.34,-43.78,26.26,40.67
1.386,0,0.0,399.71,294.84,-17.8,40.74,-60.35,-43.75,26.25,40.65
1.387,0,0.0,399.71,295.24,-17.78,40.76,-60.36,-43.72,26.23,40.62
1.388,0,0.0,399.71,295.64,-17.76,40.77,-60.36,-43.69,26.21,40.59
1.389,0,0.0,399.71,296.04,-17.74,40.78,-60.37,-43.66,26.19,40.57
1.39,0,0.0,399.71,296.44,-17.72,40.79,-60.38,-43.63,26.17,40.54
1.391,0,0.0,399.71,296.84,-17.7,40.8,-60.38,-43.6,26.16,40.52
1.392,0,0.0,399.71,297.24,-17.67,40.81,-60.39,-43.57,26.14,40.49
1.393,0,0.0,399.71,297.64,-17.65,40.83,-60.4,-43.54,26.12,40.47
1.394,0,0.0,399.71,298.04,-17.63,40.84,-60.4,-43.51,26.1,40.44
1.395,0,0.0,399.71,298.44,-17.61,40.85,-60.41,-43.48,26.08,40.41
1.396,0,0.0,399.71,298.84,-17.59,40.86,-60.42,-43.45,26.07,40.39
1.397,0,0.0,399.71,299.24,-17.56,40.87,-60.42,-43.42,26.05,40.36
1.398,0,0.0,399.71,299.63,-17.54,40.88,-60.43,-43.38,26.03,40.34
1.399,0,0.0,399.71,300.03,-17.52,40.9,-60.43,-43.35,26.01,40.31
1.4,0,0.0,399.71,300.43,-17.5,40.91,-60.44,-43.32,25.99,40.28
1.401,0,0.0,399.71,300.83,-17.48,40.92,-60.45,-43.29,25.98,40.26
1.402,0,0.0,399.71,301.23,-17.45,40.93,-60.45,-43.26,25.96,40.23
1.403,0,0.0,399.71,301.63,-17.43,40.94,-60.46,-43.23,25.94,40.2
1.404,0,0.0,399.71,302.03,-17.41,40.95,-60.47,-43.19,25.92,40.18
1.405,0,0.0,399.71,302.43,-17.39,40.97,-60.47,-43.16,25.9,40.15
1.406,0,0.0,399.71,302.83,-17.37,40.98,-60.48,-43.13,25.89,40.12
1.407,0,0.0,399.71,303.23,-17.34,40.99,-60.49,-43.1,25.87,40.1
1.408,0,0.0,399.71,303.63,-17.32,41.0,-60.49,-43.07,25.85,40.07
1.409,0,0.0,399.71,304.03,-17.3,41.01,-60.5,-43.04,25.83,40.04
1.41,0,0.0,399.71,304.43,-17.28,41.02,-60.5,-43.01,25.82,40.02
1.411,0,0.0,399.71,304.83,-17.26,41.03,-60.51,-42.97,25.8,39.99
1.412,0,0.0,399.71,305.23,-17.23,41.04,-60.52,-42.94,25.78,39.96
1.413,0,0.0,399.71,305.64,-17.21,41.06,-60.52,-42.91,25.76,39.94
1.414,0,0.0,399.71,306.04,-17.19,41.07,-60.53,-42.88,25.74,39.91
1.415,0,0.0,399.71,306.44,-17.17,41.08,-60.54,-42.85,25.73,39.88
1.416,0,0.0,399.71,306.84,-17.15,41.09,-60.54,-42.82,25.71,39.86
1.417,0,0.0,399.71,307.24,-17.12,41.1,-60.55,-42.78,25.69,39.83
1.418,0,0.0,399.71,307.63,-17.1,41.11,-60.55,-42.75,25.67,39.8
1.419,0,0.0,399.71,308.03,-17.08,41.12,-60.56,-42.72,25.65,39.77
1.42,0,0.0,399.71,308.43,-17.06,41.14,-60.57,-42.69,25.64,39.75
1.421,0,0.0,399.71,308.83,-17.04,41.15,-60.57,-42.66,25.62,39.72
1.422,0,0.0,399.71,309.23,-17.01,41.16,-60.58,-42.62,25.6,39.69
1.423,0,0.0,399.71,309.63,-16.99,41.17,-60.58,-42.59,25.58,39.66
1.424,0,0.0,399.71,310.03,-16.97,41.18,-60.59,-42.56,25.57,39.64
1.425,0,0.0,399.71,310.43,-16.95,41.19,-60.6,-42.53,25.55,39.61
1.426,0,0.0,399.71,310.83,-16.93,41.2,-60.6,-42.5,25.53,39.58
1.427,0,0.0,399.71,311.23,-16.9,41.21,-60.61,-42.46,25.51,39.55
1.428,0,0.0,399.71,311.63,-16.88,41.23,-60.62,-42.43,25.49,39.53
1.429,0,0.0,399.71,312.03,-16.86,41.24,-60.62,-42.4,25.48,39.5
1.43,0,0.0,399.71,312.43,-16.84,41.25,-60.63,-42.37,25.46,39.47
1.431,0,0.0,399.71,312.84,-16.82,41.26,-60.63,-42.33,25.44,39.44
1.432,0,0.0,399.71,313.24,-16.79,41.27,-60.64,-42.3,25.42,39.41
1.433,0,0.0,399.71,313.64,-16.77,41.28,-60.65,-42.27,25.41,39.39
1.434,0,0.0,399.71,314.03,-16.75,41.29,-60.65,-42.23,25.39,39.36
1.435,0,0.0,399.71,314.43,-16.73,41.3,-60.66,-42.2,25.37,39.33
1.436,0,0.0,399.71,314.82,-16.71,41.31,-60.66,-42.17,25.35,39.3
1.437,0,0.0,399.71,315.27,-16.68,41.32,-60.67,-42.14,25.34,39.27
1.438,0,0.0,399.71,315.67,-16.66,41.34,-60.68,-42.1,25.32,39.25
1.439,0,0.0,399.71,316.07,-16.64,41.35,-60.68,-42.07,25.3,39.22
1.44,0,0.0,399.71,316.47,-16.62,41.36,-60.69,-42.04,25.28,39.19
1.441,0,0.0,399.71,316.87,-16.6,41.37,-60.69,-42.01,25.26,39.16
1.442,0,0.0,399.71,317.28,-16.57,41.38,-60.7,-41.97,25.25,39.13
1.443,0,0.0,399.71,317.68,-16.55,41.39,-60.71,-41.94,25.23,39.1
1.444,0,0.0,399.71,318.08,-16.53,41.4,-60.71,-41.9,25.21,39.07
1.445,0,0.0,399.71,318.43,-16.51,41.41,-60.72,-41.87,25.19,39.04
1.446,0,0.0,399.71,318.88,-16.48,41.42,-60.72,-41.84,25.18,39.02
1.447,0,0.0,399.71,319.23,-16.46,41.43,-60.73,-41.8,25.16,38.99
1.448,0,0.0,399.71,319.63,-16.44,41.45,-60.74,-41.77,25.14,38.96
1.449,0,0.0,399.71,320.03,-16.42,41.46,-60.74,-41.74,25.12,38.93
1.45,0,0.0,399.71,320.43,-16.4,41.47,-60.75,-41.7,25.11,38.9
1.451,0,0.0,399.71,320.88,-16.37,41.48,-60.75,-41.67,25.09,38.87
1.452,0,0.0,399.71,321.28,-16.35,41.49,-60.76,-41.64,25.07,38.84
1.453,0,0.0,399.71,321.68,-16.33,41.5,-60.77,-41.6,25.05,38.81
1.454,0,0.0,399.71,322.08,-16.31,41.51,-60.77,-41.57,25.04,38.78
1.455,0,0.0,399.71,322.43,-16.28,41.52,-60.78,-41.53,25.02,38.75
1.456,0,0.0,399.71,322.83,-16.26,41.53,-60.78,-41.5,25.0,38.72
1.457,0,0.0,399.71,323.23,-16.24,41.54,-60.79,-41.47,24.98,38.69
1.458,0,0.0,399.71,323.63,-16.22,41.55,-60.8,-41.43,24.96,38.66
1.459,0,0.0,399.71,324.08,-16.2,41.56,-60.8,-41.4,24.95,38.63
1.46,0,0.0,399.71,324.48,-16.17,41.58,-60.81,-41.36,24.93,38.6
1.461,0,0.0,399.71,324.83,-16.15,41.59,-60.81,-41.33,24.91,38.57
1.462,0,0.0,399.71,325.24,-16.13,41.6,-60.82,-41.29,24.89,38.54
1.463,0,0.0,399.71,325.64,-16.11,41.61,-60.82,-41.26,24.88,38.51
1.464,0,0.0,399.71,326.04,-16.08,41.62,-60.83,-41.22,24.86,38.48
1.465,0,0.0,399.71,326.44,-16.06,41.63,-60.84,-41.19,24.84,38.45
1.466,0,0.0,399.71,326.84,-16.04,41.64,-60.84,-41.15,24.82,38.42
1.467,0,0.0,399.71,327.24,-16.02,41.65,-60.85,-41.12,24.81,38.39
1.468,0,0.0,399.71,327.64,-15.99,41.66,-60.85,-41.09,24.79,38.36
1.469,0,0.0,399.71,328.04,-15.97,41.67,-60.86,-41.05,24.77,38.33
1.47,0,0.0,399.71,328.44,-15.95,41.68,-60.87,-41.02,24.75,38.3
1.471,0,0.0,399.71,328.84,-15.93,41.69,-60.87,-40.98,24.74,38.27
1.472,0,0.0,399.71,329.24,-15.9,41.7,-60.88,-40.94,24.72,38.24
1.473,0,0.0,399.71,329.65,-15.88,41.71,-60.88,-40.91,24.7,38.21
1.474,0,0.0,399.71,330.05,-15.86,41.72,-60.89,-40.87,24.68,38.18
1.475,0,0.0,399.71,330.45,-15.84,41.74,-60.89,-40.84,24.67,38.15
